;FLAVOR:Marlin
;TIME:11104
;Filament used: 19.4203m
;Layer height: 0.3
;MINX:2.662
;MINY:12.563
;MINZ:-0.03
;MAXX:148.517
;MAXY:144.167
;MAXZ:69.45
;TARGET_MACHINE.NAME:Printrbot Simple
;Generated with Cura_SteamEngine 5.8.1
M82 ;absolute extrusion mode


M106
M109 S245.0
G21;
G90;
M82;
G28
G90
G1 Z3 F150;

G1 Z5.0

G28 X0 Y0 ;move X/Y to min endstops
G29
M109 S245.0
G92 E0.0 ; reset extruder distance position
G1 Z0.4 F200.0

G91          ;relative positioning
G1 Y-160 X30 F500 ;move Z up a bit and retract filament even more
G90
G1 X-20.0 E20 F220.0 ; intro line
G92 E0.0 ; reset extruder distance position
G92 E0
M106
M109 S245.0
G21;
G90;
M82;
G28
G90
G1 Z3 F150;

G1 Z5.0

G28 X0 Y0 ;move X/Y to min endstops
G29
M109 S245.0
G92 E0.0 ; reset extruder distance position
G1 Z0.8 F200.0
G1 Y-2.0 F500.0 ; go outside print area
G1 X-20.0 E20 F200.0 ; intro line
G92 E0.0 ; reset extruder distance position
G92 E0
G1 F2400 E-6.5
;LAYER_COUNT:230
;LAYER:0
M107
G1 F1200 Z0.75
G0 F5100 X5.639 Y14.883 Z0.75
;TYPE:SKIRT
G1 F1200 Z0.15
G1 F2400 E0.21619
G1 F1800 X6.596 Y14.488 E0.2588
G1 X7.873 Y14.187 E0.3128
G1 X18.783 Y14.187 E0.76185
G1 X20.222 Y14.49 E0.82238
G1 X21.443 Y15.09 E0.87838
G1 X22.502 Y15.931 E0.93404
G1 X23.366 Y17.164 E0.99601
G1 X23.761 Y18.121 E1.03862
G1 X24.062 Y19.398 E1.09262
G1 X24.062 Y22.101 E1.20387
G1 X26.296 Y22.101 E1.29582
G1 X27.155 Y22.242 E1.33165
G1 X28.515 Y22.697 E1.39068
G1 X29.636 Y23.3 E1.44307
G1 X30.093 Y23.673 E1.46735
G1 X121.851 Y23.672 E5.24406
G1 X122.315 Y23.273 E5.26924
G1 X124.089 Y22.426 E5.35016
G1 X125.526 Y22.1 E5.41081
G1 X127.117 Y22.1 E5.47629
G1 X127.117 Y17.842 E5.65155
G1 X127.42 Y16.403 E5.71207
G1 X128.02 Y15.182 E5.76807
G1 X128.861 Y14.123 E5.82373
G1 X130.094 Y13.259 E5.8857
G1 X131.051 Y12.864 E5.92831
G1 X132.33 Y12.563 E5.98239
G1 X143.238 Y12.593 E6.43136
G1 X144.492 Y12.772 E6.4835
G1 X145.795 Y13.415 E6.5433
G1 X146.938 Y14.281 E6.60233
G1 X147.891 Y15.639 E6.67061
G1 X148.26 Y16.682 E6.71615
G1 X148.517 Y17.773 E6.76228
G1 X148.517 Y28.684 E7.21137
G1 X148.214 Y30.123 E7.2719
G1 X147.614 Y31.344 E7.3279
G1 X146.773 Y32.403 E7.38356
G1 X145.54 Y33.267 E7.44553
G1 X144.583 Y33.662 E7.48814
G1 X143.306 Y33.963 E7.54214
G1 X139.878 Y33.963 E7.68323
G1 X139.726 Y34.337 E7.69985
G1 X139.301 Y35.071 E7.73476
G1 X138.556 Y35.912 E7.781
G1 X135.894 Y38.012 E7.92056
G1 X135.27 Y38.341 E7.94959
G1 X134.725 Y38.71 E7.97668
G1 X134.396 Y38.889 E7.9921
G1 X133.675 Y39.351 E8.02735
G1 X133.316 Y39.537 E8.04399
G1 X132.851 Y39.845 E8.06694
G1 X132.578 Y39.99 E8.07967
G1 X132.117 Y40.304 E8.10263
G1 X131.582 Y40.585 E8.1275
G1 X131.339 Y40.768 E8.14002
G1 X131.339 Y48.425 E8.45518
G1 X131.468 Y48.588 E8.46373
G1 X131.983 Y49.415 E8.50383
G1 X132.323 Y50.23 E8.54018
G1 X132.582 Y51.523 E8.59446
G1 X132.573 Y76.814 E9.63542
G1 X132.289 Y78.33 E9.6989
G1 X131.72 Y79.684 E9.75935
G1 X131.339 Y80.195 E9.78559
G1 X131.339 Y89.749 E10.17882
G1 X131.536 Y89.937 E10.19003
G1 X132.314 Y90.909 E10.24128
G1 X133.039 Y92.37 E10.30841
G1 X133.366 Y94.017 E10.37752
G1 X133.337 Y100.771 E10.65551
G1 X133.173 Y102.013 E10.70708
G1 X132.518 Y103.556 E10.77607
G1 X131.819 Y104.555 E10.82626
G1 X131.339 Y105.015 E10.85362
G1 X131.339 Y122.767 E11.58428
G1 X136.358 Y122.767 E11.79086
G1 X137.797 Y123.07 E11.85139
G1 X139.018 Y123.67 E11.90738
G1 X140.077 Y124.511 E11.96304
G1 X140.941 Y125.744 E12.02501
G1 X141.336 Y126.701 E12.06763
G1 X141.637 Y127.978 E12.12163
G1 X141.637 Y138.886 E12.57059
G1 X141.332 Y140.338 E12.63166
G1 X140.755 Y141.507 E12.68532
G1 X140.147 Y142.279 E12.72576
G1 X139.546 Y142.864 E12.76029
G1 X138.938 Y143.332 E12.79187
G1 X137.784 Y143.861 E12.84412
G1 X136.413 Y144.167 E12.90193
G1 X125.516 Y144.167 E13.35045
G1 X124.077 Y143.864 E13.41098
G1 X122.856 Y143.264 E13.46697
G1 X121.797 Y142.423 E13.52263
G1 X120.933 Y141.19 E13.5846
G1 X120.538 Y140.233 E13.62721
G1 X120.237 Y138.956 E13.68121
G1 X120.237 Y133.592 E13.90199
G1 X30.33 Y133.592 E17.60251
G1 X30.33 Y137.475 E17.76234
G1 X30.027 Y138.914 E17.82286
G1 X29.427 Y140.135 E17.87886
G1 X28.586 Y141.194 E17.93452
G1 X27.353 Y142.058 E17.99649
G1 X26.396 Y142.453 E18.0391
G1 X25.119 Y142.754 E18.0931
G1 X14.331 Y142.754 E18.53713
G1 X13.048 Y142.548 E18.59061
G1 X11.694 Y141.934 E18.65181
G1 X10.519 Y141.05 E18.71233
G1 X9.554 Y139.673 E18.78153
G1 X9.187 Y138.635 E18.82685
G1 X8.93 Y137.544 E18.87298
G1 X8.93 Y126.633 E19.32207
G1 X9.233 Y125.194 E19.3826
G1 X9.833 Y123.973 E19.4386
G1 X10.674 Y122.914 E19.49426
G1 X11.907 Y122.05 E19.55623
G1 X12.864 Y121.655 E19.59884
G1 X14.141 Y121.354 E19.65284
G1 X20.59 Y121.354 E19.91828
G1 X20.589 Y40.72 E23.23713
G1 X19.86 Y40.36 E23.27059
G1 X19.462 Y40.061 E23.29108
G1 X18.923 Y39.774 E23.31621
G1 X18.536 Y39.493 E23.3359
G1 X18.021 Y39.232 E23.35966
G1 X17.616 Y38.929 E23.38048
G1 X17.131 Y38.669 E23.40313
G1 X16.692 Y38.368 E23.42504
G1 X16.119 Y38.072 E23.45158
G1 X13.516 Y36.023 E23.58793
G1 X13.112 Y35.587 E23.6124
G1 X7.941 Y35.587 E23.82523
G1 X6.502 Y35.284 E23.88576
G1 X5.281 Y34.684 E23.94176
G1 X4.222 Y33.843 E23.99742
G1 X3.358 Y32.61 E24.05939
G1 X2.963 Y31.653 E24.102
G1 X2.662 Y30.376 E24.156
G1 X2.662 Y19.466 E24.60505
G1 X2.965 Y18.027 E24.66558
G1 X3.565 Y16.806 E24.72157
G1 X4.406 Y15.747 E24.77723
G1 X5.148 Y15.227 E24.81453
G0 F1620 X5.639 Y14.883
G0 F5100 X5.929 Y15.412
G1 F1800 X4.823 Y16.187 E24.87011
G1 X4.074 Y17.13 E24.91968
G1 X3.536 Y18.224 E24.96986
G1 X3.262 Y19.527 E25.02466
G1 X3.262 Y30.307 E25.46836
G1 X3.536 Y31.471 E25.51758
G1 X3.887 Y32.32 E25.55539
G1 X4.662 Y33.426 E25.61098
G1 X5.605 Y34.175 E25.66054
G1 X6.699 Y34.713 E25.71072
G1 X8.002 Y34.987 E25.76553
G1 X13.375 Y34.987 E25.98668
G1 X13.923 Y35.58 E26.01991
G1 X16.446 Y37.565 E26.15204
G1 X16.999 Y37.851 E26.17767
G1 X17.47 Y38.174 E26.20117
G1 X17.937 Y38.42 E26.2229
G1 X18.341 Y38.722 E26.24366
G1 X18.852 Y38.981 E26.26724
G1 X19.275 Y39.288 E26.28875
G1 X19.781 Y39.55 E26.3122
G1 X20.175 Y39.846 E26.33249
G1 X20.785 Y40.148 E26.3605
G1 X21.189 Y40.408 E26.38028
G1 X21.19 Y121.954 E29.73666
G1 X14.21 Y121.954 E30.02396
G1 X13.046 Y122.228 E30.07318
G1 X12.197 Y122.579 E30.11099
G1 X11.091 Y123.354 E30.16657
G1 X10.342 Y124.297 E30.21614
G1 X9.804 Y125.391 E30.26632
G1 X9.53 Y126.694 E30.32112
G1 X9.53 Y137.474 E30.76482
G1 X9.771 Y138.497 E30.80808
G1 X10.092 Y139.396 E30.84737
G1 X10.956 Y140.628 E30.90931
G1 X12.002 Y141.415 E30.96318
G1 X13.223 Y141.969 E31.01837
G1 X14.376 Y142.154 E31.06644
G1 X25.05 Y142.154 E31.50577
G1 X26.214 Y141.88 E31.55499
G1 X27.063 Y141.529 E31.5928
G1 X28.169 Y140.754 E31.64839
G1 X28.918 Y139.811 E31.69796
G1 X29.456 Y138.717 E31.74813
G1 X29.73 Y137.414 E31.80294
G1 X29.73 Y132.992 E31.98494
G1 X120.837 Y132.992 E35.73486
G1 X120.837 Y138.887 E35.97749
G1 X121.111 Y140.051 E36.02671
G1 X121.462 Y140.9 E36.06452
G1 X122.237 Y142.006 E36.12011
G1 X123.18 Y142.755 E36.16968
G1 X124.274 Y143.293 E36.21985
G1 X125.577 Y143.567 E36.27466
G1 X136.345 Y143.567 E36.71786
G1 X137.595 Y143.288 E36.77058
G1 X138.624 Y142.816 E36.81717
G1 X139.127 Y142.434 E36.84317
G1 X139.728 Y141.849 E36.87769
G1 X140.244 Y141.186 E36.91227
G1 X140.761 Y140.139 E36.96033
G1 X141.037 Y138.825 E37.0156
G1 X141.037 Y128.047 E37.45921
G1 X140.763 Y126.883 E37.50843
G1 X140.412 Y126.034 E37.54624
G1 X139.637 Y124.928 E37.60183
G1 X138.694 Y124.179 E37.6514
G1 X137.6 Y123.641 E37.70158
G1 X136.297 Y123.367 E37.75638
G1 X130.739 Y123.367 E37.98514
G1 X130.739 Y104.76 E38.751
G1 X131.359 Y104.165 E38.78637
G1 X131.992 Y103.26 E38.83182
G1 X132.588 Y101.856 E38.8946
G1 X132.742 Y100.692 E38.94293
G1 X132.766 Y94.072 E39.21541
G1 X132.467 Y92.569 E39.27848
G1 X131.803 Y91.23 E39.34
G1 X131.068 Y90.312 E39.3884
G1 X130.739 Y90.016 E39.40661
G1 X130.739 Y79.985 E39.81949
G1 X131.167 Y79.451 E39.84765
G1 X131.711 Y78.157 E39.90543
G1 X131.973 Y76.757 E39.96405
G1 X131.982 Y51.581 E41.00028
G1 X131.747 Y50.409 E41.04948
G1 X131.446 Y49.688 E41.08164
G1 X130.959 Y48.905 E41.11959
G1 X130.739 Y48.645 E41.13361
G1 X130.739 Y40.469 E41.47013
G1 X131.258 Y40.077 E41.4969
G1 X131.779 Y39.808 E41.52103
G1 X132.266 Y39.476 E41.54529
G1 X132.569 Y39.315 E41.55941
G1 X133.008 Y39.021 E41.58116
G1 X133.399 Y38.818 E41.59929
G1 X134.099 Y38.367 E41.63357
G1 X134.388 Y38.213 E41.64705
G1 X134.956 Y37.828 E41.67529
G1 X135.564 Y37.508 E41.70357
G1 X138.143 Y35.473 E41.83879
G1 X138.812 Y34.718 E41.88031
G1 X139.207 Y34.036 E41.91274
G1 X139.466 Y33.363 E41.94243
G1 X143.237 Y33.363 E42.09764
G1 X144.401 Y33.089 E42.14686
G1 X145.25 Y32.738 E42.18467
G1 X146.356 Y31.963 E42.24026
G1 X147.105 Y31.02 E42.28982
G1 X147.643 Y29.926 E42.34
G1 X147.917 Y28.623 E42.3948
G1 X147.917 Y17.843 E42.8385
G1 X147.676 Y16.82 E42.88176
G1 X147.353 Y15.917 E42.92123
G1 X146.5 Y14.701 E42.98237
G1 X145.481 Y13.929 E43.03499
G1 X144.312 Y13.352 E43.08865
G1 X143.153 Y13.187 E43.13683
G1 X132.398 Y13.163 E43.5795
G1 X131.233 Y13.437 E43.62876
G1 X130.384 Y13.788 E43.66657
G1 X129.278 Y14.563 E43.72216
G1 X128.529 Y15.506 E43.77173
G1 X127.991 Y16.6 E43.82191
G1 X127.717 Y17.903 E43.87671
G1 X127.717 Y22.7 E44.07415
G1 X125.593 Y22.7 E44.16157
G1 X124.285 Y22.997 E44.21678
G1 X122.647 Y23.779 E44.29149
G1 X122.073 Y24.272 E44.32263
G1 X29.871 Y24.273 E48.11761
G1 X29.352 Y23.828 E48.14575
G1 X28.278 Y23.25 E48.19595
G1 X27.01 Y22.826 E48.25098
G1 X26.248 Y22.701 E48.28277
G1 X23.462 Y22.701 E48.39744
G1 X23.462 Y19.467 E48.53055
G1 X23.188 Y18.303 E48.57976
G1 X22.837 Y17.454 E48.61758
G1 X22.062 Y16.348 E48.67316
G1 X21.119 Y15.599 E48.72273
G1 X20.025 Y15.061 E48.77291
G1 X18.722 Y14.787 E48.82771
G1 X7.942 Y14.787 E49.27141
G1 X6.778 Y15.061 E49.32063
G1 X6.483 Y15.183 E49.33377
G0 F1620 X5.929 Y15.412
G0 F5100 X6.216 Y15.943
G1 F1800 X6.964 Y15.634 E49.36708
G1 X8.012 Y15.387 E49.4114
G1 X18.66 Y15.387 E49.84966
G1 X19.829 Y15.633 E49.89883
G1 X20.795 Y16.108 E49.94314
G1 X21.622 Y16.765 E49.98661
G1 X22.306 Y17.741 E50.03567
G1 X22.615 Y18.489 E50.06898
G1 X22.862 Y19.537 E50.11329
G1 X22.862 Y23.301 E50.26822
G1 X26.2 Y23.301 E50.40561
G1 X26.866 Y23.41 E50.43338
G1 X28.041 Y23.803 E50.48438
G1 X29.009 Y24.324 E50.52963
G1 X29.56 Y24.797 E50.55952
G1 X29.71 Y24.873 E50.56644
G1 X122.295 Y24.872 E54.37718
G1 X122.979 Y24.285 E54.41428
G1 X124.481 Y23.568 E54.48278
G1 X125.66 Y23.3 E54.53255
G1 X128.317 Y23.3 E54.64191
G1 X128.317 Y17.965 E54.8615
G1 X128.563 Y16.796 E54.91066
G1 X129.038 Y15.83 E54.95497
G1 X129.695 Y15.003 E54.99844
G1 X130.671 Y14.319 E55.0475
G1 X131.419 Y14.01 E55.08081
G1 X132.467 Y13.763 E55.12513
G1 X143.069 Y13.781 E55.5615
G1 X144.132 Y13.932 E55.60569
G1 X145.167 Y14.443 E55.6532
G1 X146.062 Y15.121 E55.69941
G1 X146.816 Y16.196 E55.75346
G1 X147.092 Y16.958 E55.78682
G1 X147.317 Y17.913 E55.8272
G1 X147.317 Y28.561 E56.26547
G1 X147.071 Y29.73 E56.31464
G1 X146.596 Y30.696 E56.35894
G1 X145.939 Y31.523 E56.40242
G1 X144.963 Y32.207 E56.45147
G1 X144.215 Y32.516 E56.48478
G1 X143.167 Y32.763 E56.5291
G1 X139.02 Y32.763 E56.69979
G1 X138.974 Y32.97 E56.70851
G1 X138.664 Y33.776 E56.74406
G1 X138.323 Y34.365 E56.77207
G1 X137.73 Y35.034 E56.80887
G1 X135.234 Y37.004 E56.93974
G1 X134.643 Y37.315 E56.96723
G1 X134.106 Y37.683 E56.99402
G1 X133.798 Y37.847 E57.00839
G1 X133.122 Y38.286 E57.04156
G1 X132.697 Y38.507 E57.06128
G1 X132.235 Y38.816 E57.08416
G1 X131.953 Y38.963 E57.09725
G1 X131.504 Y39.275 E57.11975
G1 X130.934 Y39.569 E57.14615
G1 X130.47 Y39.92 E57.17009
G1 X130.139 Y40.081 E57.18524
G1 X130.139 Y48.874 E57.54716
G1 X130.45 Y49.222 E57.56637
G1 X130.909 Y49.96 E57.60214
G1 X131.171 Y50.588 E57.63015
G1 X131.382 Y51.639 E57.67427
G1 X131.373 Y76.7 E58.70577
G1 X131.133 Y77.984 E58.75953
G1 X130.647 Y79.14 E58.81114
G1 X130.139 Y79.773 E58.84455
G1 X130.139 Y90.293 E59.27755
G1 X130.6 Y90.687 E59.30251
G1 X131.294 Y91.554 E59.34822
G1 X131.895 Y92.765 E59.40386
G1 X132.166 Y94.128 E59.46106
G1 X132.147 Y100.613 E59.72798
G1 X132.003 Y101.699 E59.77307
G1 X131.466 Y102.964 E59.82963
G1 X130.901 Y103.772 E59.87022
G1 X130.139 Y104.504 E59.91371
G1 X130.139 Y123.967 E60.71479
G1 X136.235 Y123.967 E60.9657
G1 X137.404 Y124.213 E61.01487
G1 X138.37 Y124.688 E61.05918
G1 X139.197 Y125.345 E61.10265
G1 X139.881 Y126.321 E61.1517
G1 X140.19 Y127.069 E61.18501
G1 X140.437 Y128.117 E61.22933
G1 X140.437 Y138.764 E61.66755
G1 X140.19 Y139.94 E61.71701
G1 X139.732 Y140.867 E61.75957
G1 X139.309 Y141.419 E61.7882
G1 X138.708 Y142.004 E61.82272
G1 X138.315 Y142.298 E61.84292
G1 X137.405 Y142.715 E61.88412
G1 X136.277 Y142.967 E61.93169
G1 X125.639 Y142.967 E62.36954
G1 X124.47 Y142.721 E62.41871
G1 X123.504 Y142.246 E62.46302
G1 X122.677 Y141.589 E62.50649
G1 X121.993 Y140.613 E62.55555
G1 X121.684 Y139.865 E62.58886
G1 X121.437 Y138.817 E62.63318
G1 X121.437 Y132.392 E62.89762
G1 X29.13 Y132.392 E66.69693
G1 X29.13 Y137.352 E66.90108
G1 X28.884 Y138.521 E66.95025
G1 X28.409 Y139.487 E66.99455
G1 X27.752 Y140.314 E67.03803
G1 X26.776 Y140.998 E67.08708
G1 X26.028 Y141.307 E67.12039
G1 X24.98 Y141.554 E67.16471
G1 X14.421 Y141.554 E67.59931
G1 X13.398 Y141.39 E67.64195
G1 X12.314 Y140.898 E67.69095
G1 X11.39 Y140.203 E67.73854
G1 X10.63 Y139.119 E67.79303
G1 X10.355 Y138.359 E67.8263
G1 X10.13 Y137.404 E67.86668
G1 X10.13 Y126.756 E68.30495
G1 X10.376 Y125.587 E68.35411
G1 X10.851 Y124.621 E68.39842
G1 X11.508 Y123.794 E68.44189
G1 X12.484 Y123.11 E68.49095
G1 X13.232 Y122.801 E68.52426
G1 X14.28 Y122.554 E68.56858
G1 X21.79 Y122.554 E68.87768
G1 X21.789 Y40.036 E72.27408
G1 X21.518 Y39.907 E72.28643
G1 X21.078 Y39.623 E72.30799
G1 X20.49 Y39.332 E72.33499
G1 X20.099 Y39.039 E72.3551
G1 X19.627 Y38.802 E72.37684
G1 X19.168 Y38.469 E72.40018
G1 X18.661 Y38.212 E72.42357
G1 X18.258 Y37.911 E72.44428
G1 X17.75 Y37.643 E72.46792
G1 X17.309 Y37.336 E72.49003
G1 X16.771 Y37.058 E72.51496
G1 X14.334 Y35.14 E72.6426
G1 X13.638 Y34.387 E72.68481
G1 X8.064 Y34.387 E72.91423
G1 X6.895 Y34.141 E72.9634
G1 X5.929 Y33.666 E73.00771
G1 X5.102 Y33.009 E73.05118
G1 X4.418 Y32.033 E73.10023
G1 X4.109 Y31.285 E73.13355
G1 X3.862 Y30.237 E73.17786
G1 X3.862 Y19.589 E73.61613
G1 X4.108 Y18.42 E73.6653
G1 X4.583 Y17.454 E73.7096
G1 X5.24 Y16.627 E73.75308
G1 X5.725 Y16.287 E73.77746
G0 F1620 X6.216 Y15.943
G0 F5100 X6.503 Y16.474
G1 F1800 X7.15 Y16.207 E73.80626
G1 X8.082 Y15.987 E73.84568
G1 X18.598 Y15.987 E74.27851
G1 X19.633 Y16.205 E74.32205
G1 X20.471 Y16.617 E74.36048
G1 X21.182 Y17.182 E74.39786
G1 X21.775 Y18.028 E74.44038
G1 X22.042 Y18.675 E74.46919
G1 X22.262 Y19.607 E74.50861
G1 X22.262 Y23.937 E74.68683
G1 X22.532 Y23.901 E74.69804
G1 X26.152 Y23.901 E74.84704
G1 X26.722 Y23.994 E74.87081
G1 X27.804 Y24.356 E74.91777
G1 X28.666 Y24.82 E74.95806
G1 X29.225 Y25.3 E74.98839
G1 X29.512 Y25.446 E75.00164
G1 X29.719 Y25.473 E75.01023
G1 X122.275 Y25.472 E78.81978
G1 X122.569 Y25.427 E78.83203
G1 X123.308 Y24.793 E78.8721
G1 X124.681 Y24.138 E78.93472
G1 X125.727 Y23.9 E78.97887
G1 X128.917 Y23.9 E79.11017
G1 X128.917 Y18.027 E79.3519
G1 X129.135 Y16.992 E79.39543
G1 X129.547 Y16.154 E79.43387
G1 X130.112 Y15.443 E79.47124
G1 X130.958 Y14.85 E79.51377
G1 X131.605 Y14.583 E79.54258
G1 X132.537 Y14.363 E79.58199
G1 X142.985 Y14.375 E80.01203
G1 X143.952 Y14.512 E80.05222
G1 X144.853 Y14.957 E80.09358
G1 X145.624 Y15.541 E80.13339
G1 X146.279 Y16.475 E80.18035
G1 X146.508 Y17.096 E80.20759
G1 X146.717 Y17.983 E80.2451
G1 X146.717 Y28.499 E80.67793
G1 X146.499 Y29.534 E80.72147
G1 X146.087 Y30.372 E80.7599
G1 X145.522 Y31.083 E80.79728
G1 X144.676 Y31.676 E80.8398
G1 X144.029 Y31.943 E80.86861
G1 X143.097 Y32.163 E80.90803
G1 X138.509 Y32.163 E81.09687
G1 X138.414 Y32.755 E81.12154
G1 X138.12 Y33.519 E81.15524
G1 X137.836 Y34.01 E81.17858
G1 X137.317 Y34.595 E81.21077
G1 X134.904 Y36.5 E81.33731
G1 X134.33 Y36.802 E81.36401
G1 X133.824 Y37.153 E81.38935
G1 X133.493 Y37.329 E81.40478
G1 X132.846 Y37.753 E81.43662
G1 X132.395 Y37.987 E81.45754
G1 X131.901 Y38.318 E81.48201
G1 X131.644 Y38.447 E81.49385
G1 X131.162 Y38.782 E81.51801
G1 X130.612 Y39.06 E81.54337
