;FLAVOR:Marlin
;TIME:1332
;Filament used: 1.73951m
;Layer height: 0.3
;MINX:63.27
;MINY:50.494
;MINZ:0.15
;MAXX:101.699
;MAXY:97.392
;MAXZ:19.95
;TARGET_MACHINE.NAME:Printrbot Simple
;Generated with Cura_SteamEngine 5.8.1
M140 S60
M105
M190 S60
M82 ;absolute extrusion mode


M106
M109 S245.0
G21;
G90;
M82;
G28
G90
G1 Z3 F150;

G1 Z5.0

G28 X0 Y0 ;move X/Y to min endstops
G29
M109 S245.0
G92 E0.0 ; reset extruder distance position
G1 Z0.4 F200.0

G91          ;relative positioning
G1 Y-160 X30 F500 ;move Z up a bit and retract filament even more
G90
G1 X-20.0 E20 F220.0 ; intro line
G92 E0.0 ; reset extruder distance position
G92 E0
M106
M109 S245.0
G21;
G90;
M82;
G28
G90
G1 Z3 F150;

G1 Z5.0

G28 X0 Y0 ;move X/Y to min endstops
G29
M109 S245.0
G92 E0.0 ; reset extruder distance position
G1 Z0.8 F200.0
G1 Y-2.0 F500.0 ; go outside print area
G1 X-20.0 E20 F200.0 ; intro line
G92 E0.0 ; reset extruder distance position
G92 E0
G1 F2400 E-6.5
;LAYER_COUNT:65
;LAYER:0
M107
G1 F1200 Z0.75
G0 F5100 X67.812 Y52.944 Z0.75
;TYPE:SKIRT
G1 F1200 Z0.15
G1 F2400 E0.21619
G1 F1800 X68.515 Y52.253 E0.25676
G1 X69.899 Y51.352 E0.32474
G1 X71.203 Y50.913 E0.38137
G1 X72.519 Y50.619 E0.43687
G1 X73.502 Y50.579 E0.47736
G1 X74.373 Y50.494 E0.51338
G1 X75.355 Y50.61 E0.55408
G1 X75.954 Y50.765 E0.57955
G1 X77.116 Y50.794 E0.62739
G1 X78.041 Y50.784 E0.66546
G1 X79.125 Y50.823 E0.71011
G1 X80.674 Y50.785 E0.77389
G1 X81.153 Y50.816 E0.79364
G1 X81.939 Y50.784 E0.82602
G1 X82.37 Y50.804 E0.84378
G1 X83.461 Y50.804 E0.88868
G1 X84.835 Y51.04 E0.94607
G1 X85.965 Y51.584 E0.99768
G1 X86.972 Y52.347 E1.04969
G1 X87.908 Y53.422 E1.10835
G1 X88.509 Y54.801 E1.17027
G1 X89.108 Y57.469 E1.28282
G1 X89.108 Y65.585 E1.61687
G1 X96.42 Y65.585 E1.91782
G1 X97.859 Y65.888 E1.97835
G1 X99.08 Y66.488 E2.03435
G1 X100.139 Y67.329 E2.09001
G1 X101.003 Y68.562 E2.15198
G1 X101.398 Y69.519 E2.19459
G1 X101.699 Y70.796 E2.24859
G1 X101.699 Y81.706 E2.69764
G1 X101.396 Y83.145 E2.75817
G1 X100.794 Y84.37 E2.81435
G1 X100.11 Y85.221 E2.85928
G1 X99.558 Y85.742 E2.89053
G1 X98.506 Y86.392 E2.94142
G1 X97.668 Y86.731 E2.97863
G1 X96.44 Y86.985 E3.03024
G1 X89.107 Y86.985 E3.33207
G1 X89.107 Y89.838 E3.44949
G1 X88.539 Y92.335 E3.55489
G1 X88.103 Y93.439 E3.60375
G1 X87.806 Y93.937 E3.62762
G1 X86.944 Y94.963 E3.68277
G1 X85.962 Y95.697 E3.73323
G1 X84.902 Y96.203 E3.78158
G1 X83.585 Y96.512 E3.83726
G1 X82.421 Y96.496 E3.88517
G1 X81.744 Y96.506 E3.91304
G1 X80.904 Y96.495 E3.94762
G1 X79.246 Y96.508 E4.01586
G1 X78.515 Y96.494 E4.04595
G1 X78.053 Y96.692 E4.06664
G1 X77.298 Y97.036 E4.10079
G1 X75.92 Y97.392 E4.15937
G1 X74.618 Y97.347 E4.21299
G1 X73.758 Y97.196 E4.24893
G1 X72.656 Y96.746 E4.29792
G1 X71.478 Y95.965 E4.3561
G1 X70.569 Y94.891 E4.41401
G1 X70.162 Y94.209 E4.4467
G1 X69.696 Y93.017 E4.49938
G1 X69.57 Y91.819 E4.54896
G1 X69.566 Y91.444 E4.56439
G1 X68.84 Y91.234 E4.5955
G1 X68.028 Y90.746 E4.63449
G1 X67.212 Y90.125 E4.6767
G1 X66.688 Y89.575 E4.70797
G1 X66.035 Y88.565 E4.75747
G1 X65.803 Y87.894 E4.78669
G1 X65.679 Y87.814 E4.79277
G1 X65.089 Y87.347 E4.82374
G1 X64.245 Y86.399 E4.87598
G1 X63.528 Y84.924 E4.94348
G1 X63.271 Y83.503 E5.00292
G1 X63.271 Y78.907 E5.19209
G1 X63.578 Y77.447 E5.25349
G1 X64.141 Y76.333 E5.30487
G1 X64.693 Y75.58 E5.3433
G1 X65.581 Y74.749 E5.39335
G1 X66.542 Y74.122 E5.44058
G1 X66.841 Y73.978 E5.45424
G1 X67.428 Y73.826 E5.4792
G1 X66.764 Y73.658 E5.50739
G1 X65.213 Y72.7 E5.58242
G1 X64.324 Y71.644 E5.63924
G1 X63.769 Y70.678 E5.6851
G1 X63.387 Y69.534 E5.73474
G1 X63.277 Y68.498 E5.77762
G1 X63.27 Y64.009 E5.96238
G1 X63.576 Y62.685 E6.01832
G1 X63.983 Y61.755 E6.0601
G1 X64.873 Y60.493 E6.12366
G1 X65.794 Y59.795 E6.17122
G1 X65.898 Y59.527 E6.18306
G1 X65.895 Y56.986 E6.28764
G1 X66.405 Y55.051 E6.37001
G1 X67.172 Y53.756 E6.43195
G1 X67.441 Y53.415 E6.44983
G0 F1620 X67.812 Y52.944
G0 F5100 X68.233 Y53.372
G1 F1800 X68.894 Y52.722 E6.48799
G1 X70.161 Y51.898 E6.5502
G1 X71.395 Y51.482 E6.60379
G1 X72.6 Y51.216 E6.65459
G1 X73.549 Y51.177 E6.69368
G1 X74.367 Y51.097 E6.72751
G1 X75.205 Y51.191 E6.76222
G1 X75.871 Y51.363 E6.79053
G1 X77.108 Y51.394 E6.84146
G1 X78.004 Y51.383 E6.87834
G1 X78.244 Y51.398 E6.88824
G1 X79.123 Y51.423 E6.92443
G1 X80.635 Y51.384 E6.98668
G1 X81.148 Y51.417 E7.00784
G1 X81.963 Y51.384 E7.04142
G1 X82.36 Y51.404 E7.05778
G1 X83.412 Y51.404 E7.10108
G1 X84.648 Y51.616 E7.15269
G1 X85.653 Y52.1 E7.1986
G1 X86.558 Y52.785 E7.24532
G1 X87.395 Y53.747 E7.2978
G1 X87.937 Y54.991 E7.35366
G1 X88.508 Y57.533 E7.46089
G1 X88.508 Y66.185 E7.817
G1 X96.359 Y66.185 E8.14014
G1 X97.662 Y66.459 E8.19495
G1 X98.756 Y66.997 E8.24513
G1 X99.699 Y67.746 E8.29469
G1 X100.474 Y68.852 E8.35028
G1 X100.825 Y69.701 E8.38809
G1 X101.099 Y70.865 E8.43731
G1 X101.099 Y81.645 E8.88101
G1 X100.825 Y82.948 E8.93581
G1 X100.286 Y84.043 E8.98605
G1 X99.642 Y84.845 E9.02838
G1 X99.188 Y85.266 E9.05387
G1 X98.236 Y85.854 E9.09992
G1 X97.496 Y86.154 E9.13279
G1 X96.377 Y86.385 E9.17982
G1 X88.507 Y86.385 E9.50374
G1 X88.507 Y89.771 E9.64311
G1 X87.964 Y92.158 E9.74386
G1 X87.545 Y93.219 E9.79082
G1 X87.347 Y93.551 E9.80673
G1 X86.528 Y94.525 E9.8591
G1 X85.654 Y95.179 E9.90403
G1 X84.7 Y95.634 E9.94754
G1 X83.52 Y95.911 E9.99743
G1 X82.42 Y95.896 E10.04271
G1 X81.752 Y95.906 E10.0702
G1 X80.907 Y95.895 E10.10499
G1 X79.257 Y95.908 E10.1729
G1 X78.397 Y95.892 E10.2083
G1 X77.817 Y96.14 E10.23427
G1 X77.097 Y96.468 E10.26683
G1 X75.855 Y96.789 E10.31963
G1 X74.639 Y96.747 E10.36971
G1 X73.929 Y96.617 E10.39942
G1 X72.936 Y96.212 E10.44356
G1 X71.881 Y95.512 E10.49567
G1 X71.056 Y94.538 E10.54821
G1 X70.704 Y93.947 E10.57652
G1 X70.285 Y92.875 E10.6239
G1 X70.167 Y91.756 E10.67021
G1 X70.165 Y90.993 E10.70161
G1 X69.084 Y90.68 E10.74794
G1 X68.391 Y90.268 E10.78112
G1 X67.615 Y89.678 E10.82124
G1 X67.161 Y89.201 E10.84835
G1 X66.578 Y88.299 E10.89255
G1 X66.298 Y87.49 E10.92779
G1 X66.051 Y87.343 E10.93962
G1 X65.501 Y86.908 E10.96848
G1 X64.749 Y86.063 E11.01504
G1 X64.103 Y84.734 E11.07586
G1 X63.871 Y83.451 E11.12952
G1 X63.871 Y78.969 E11.314
G1 X64.149 Y77.648 E11.36956
G1 X64.654 Y76.648 E11.41567
G1 X65.145 Y75.979 E11.44983
G1 X65.954 Y75.222 E11.49543
G1 X66.87 Y74.624 E11.54046
G1 X67.047 Y74.545 E11.54843
G1 X67.984 Y74.302 E11.58828
G1 X68.991 Y74.203 E11.62992
G1 X69.074 Y73.882 E11.64357
G1 X68.981 Y73.476 E11.66071
G1 X68.032 Y73.36 E11.70006
G1 X67 Y73.098 E11.74389
G1 X65.609 Y72.239 E11.81118
G1 X64.818 Y71.299 E11.86174
G1 X64.319 Y70.431 E11.90295
G1 X63.977 Y69.408 E11.94735
G1 X63.874 Y68.435 E11.98762
G1 X63.87 Y64.079 E12.16691
G1 X64.148 Y62.875 E12.21777
G1 X64.51 Y62.048 E12.25493
G1 X65.31 Y60.914 E12.31205
G1 X66.292 Y60.17 E12.36276
G1 X66.509 Y59.613 E12.38736
G1 X66.494 Y59.456 E12.39385
G1 X66.495 Y57.063 E12.49235
G1 X66.964 Y55.284 E12.56807
G1 X67.645 Y54.125 E12.6234
G1 X67.864 Y53.845 E12.63803
G0 F1620 X68.233 Y53.372
G0 F5100 X68.654 Y53.8
G1 F1800 X69.273 Y53.191 E12.67377
G1 X70.424 Y52.443 E12.73027
G1 X71.524 Y52.068 E12.77811
G1 X72.68 Y51.813 E12.82683
G1 X73.596 Y51.775 E12.86457
G1 X74.363 Y51.7 E12.89629
G1 X75.138 Y51.787 E12.92839
G1 X75.707 Y51.94 E12.95264
G1 X76.254 Y51.973 E12.97519
G1 X77.101 Y51.994 E13.01006
G1 X77.966 Y51.982 E13.04567
G1 X78.218 Y51.998 E13.05606
G1 X79.122 Y52.023 E13.09329
G1 X80.597 Y51.983 E13.15402
G1 X81.144 Y52.018 E13.17658
G1 X81.987 Y51.984 E13.2113
G1 X82.345 Y52.004 E13.22606
G1 X83.362 Y52.004 E13.26792
G1 X84.462 Y52.193 E13.31386
G1 X85.342 Y52.616 E13.35405
G1 X86.144 Y53.223 E13.39545
G1 X86.883 Y54.073 E13.44181
G1 X87.364 Y55.178 E13.49141
G1 X87.908 Y57.598 E13.5935
G1 X87.908 Y66.785 E13.97163
G1 X96.297 Y66.785 E14.31692
G1 X97.466 Y67.031 E14.36609
G1 X98.432 Y67.506 E14.41039
G1 X99.259 Y68.163 E14.45387
G1 X99.943 Y69.139 E14.50292
G1 X100.252 Y69.887 E14.53623
G1 X100.499 Y70.935 E14.58055
G1 X100.499 Y81.583 E15.01881
G1 X100.253 Y82.752 E15.06798
G1 X99.778 Y83.718 E15.11229
G1 X99.224 Y84.415 E15.14894
G1 X98.873 Y84.756 E15.16908
G1 X97.968 Y85.315 E15.21286
G1 X97.322 Y85.577 E15.24155
G1 X96.314 Y85.785 E15.28392
G1 X87.907 Y85.785 E15.62994
G1 X87.907 Y89.704 E15.79125
G1 X87.389 Y91.981 E15.88736
G1 X86.987 Y92.999 E15.93241
G1 X86.888 Y93.165 E15.94037
G1 X86.114 Y94.085 E15.98985
G1 X85.343 Y94.662 E16.02949
G1 X84.498 Y95.065 E16.06802
G1 X83.455 Y95.31 E16.11212
G1 X82.419 Y95.296 E16.15476
G1 X81.76 Y95.306 E16.18189
G1 X80.91 Y95.295 E16.21688
G1 X79.268 Y95.308 E16.28447
G1 X78.279 Y95.29 E16.32518
G1 X77.581 Y95.588 E16.35642
G1 X76.897 Y95.9 E16.38736
G1 X75.795 Y96.186 E16.43422
G1 X74.66 Y96.147 E16.48096
G1 X74.097 Y96.038 E16.50457
G1 X73.218 Y95.679 E16.54365
G1 X72.285 Y95.061 E16.58971
G1 X71.547 Y94.189 E16.63673
G1 X71.244 Y93.68 E16.66111
G1 X70.874 Y92.733 E16.70296
G1 X70.764 Y91.693 E16.746
G1 X70.766 Y90.485 E16.79572
G1 X70.494 Y90.464 E16.80695
G1 X69.327 Y90.126 E16.85696
G1 X68.698 Y89.752 E16.88708
G1 X68.016 Y89.23 E16.92243
G1 X67.636 Y88.83 E16.94514
G1 X67.121 Y88.033 E16.98419
G1 X66.79 Y87.078 E17.02579
G1 X66.423 Y86.872 E17.04312
G1 X65.913 Y86.469 E17.06987
G1 X65.253 Y85.727 E17.11074
G1 X64.678 Y84.544 E17.16488
G1 X64.471 Y83.399 E17.21277
G1 X64.471 Y79.03 E17.3926
G1 X64.719 Y77.85 E17.44223
G1 X65.169 Y76.959 E17.48331
G1 X65.594 Y76.381 E17.51284
G1 X66.327 Y75.695 E17.55416
G1 X67.198 Y75.126 E17.59699
G1 X68.092 Y74.894 E17.635
G1 X69.222 Y74.783 E17.68174
G1 X69.354 Y74.715 E17.68785
G1 X69.563 Y74.442 E17.702
G1 X69.689 Y73.882 E17.72562
G1 X69.546 Y73.254 E17.75213
G1 X69.432 Y73.055 E17.76157
G1 X69.258 Y72.904 E17.77106
G1 X68.18 Y72.778 E17.81573
G1 X67.236 Y72.538 E17.85582
G1 X66.005 Y71.778 E17.91536
G1 X65.312 Y70.954 E17.95968
G1 X64.869 Y70.184 E17.99624
G1 X64.566 Y69.278 E18.03556
G1 X64.474 Y68.434 E18.07051
G1 X64.47 Y64.149 E18.24688
G1 X64.721 Y63.063 E18.29275
G1 X65.036 Y62.343 E18.3251
G1 X65.747 Y61.335 E18.37587
G1 X66.553 Y60.724 E18.4175
G1 X66.805 Y60.589 E18.42927
G1 X66.916 Y60.144 E18.44814
G1 X67.127 Y59.716 E18.46778
G1 X67.094 Y59.456 E18.47857
G1 X67.095 Y57.14 E18.5739
G1 X67.523 Y55.516 E18.64302
G1 X68.12 Y54.492 E18.69181
G1 X68.288 Y54.275 E18.70311
G0 F1620 X68.654 Y53.8
G0 F5100 X69.075 Y54.228
G1 F1800 X69.652 Y53.66 E18.73643
G1 X70.688 Y52.987 E18.78728
G1 X71.653 Y52.654 E18.8293
G1 X72.761 Y52.41 E18.87599
G1 X73.643 Y52.373 E18.91233
G1 X74.359 Y52.303 E18.94194
G1 X75.071 Y52.383 E18.97143
G1 X75.607 Y52.535 E18.99436
G1 X76.231 Y52.573 E19.02009
G1 X77.095 Y52.594 E19.05566
G1 X77.927 Y52.581 E19.08991
G1 X78.189 Y52.598 E19.10072
G1 X79.123 Y52.623 E19.13918
G1 X80.559 Y52.582 E19.1983
G1 X81.14 Y52.619 E19.22227
G1 X82.011 Y52.584 E19.25815
G1 X82.323 Y52.604 E19.27101
G1 X83.313 Y52.604 E19.31176
G1 X84.275 Y52.769 E19.35193
G1 X85.027 Y53.131 E19.38629
G1 X85.732 Y53.664 E19.42266
G1 X86.37 Y54.398 E19.46269
G1 X86.792 Y55.367 E19.50619
G1 X87.308 Y57.663 E19.60305
G1 X87.308 Y67.385 E20.0032
G1 X96.235 Y67.385 E20.37063
G1 X97.27 Y67.603 E20.41417
G1 X98.108 Y68.015 E20.4526
G1 X98.819 Y68.58 E20.48998
G1 X99.412 Y69.426 E20.53251
G1 X99.679 Y70.073 E20.56131
G1 X99.899 Y71.005 E20.60073
G1 X99.899 Y81.521 E21.03356
G1 X99.681 Y82.556 E21.0771
G1 X99.269 Y83.394 E21.11553
G1 X98.754 Y84.042 E21.1496
G1 X98.501 Y84.281 E21.16392
G1 X97.7 Y84.776 E21.20268
G1 X97.148 Y85 E21.2272
G1 X96.251 Y85.185 E21.2649
G1 X87.307 Y85.185 E21.63303
G1 X87.307 Y89.637 E21.81627
G1 X86.814 Y91.804 E21.90774
G1 X86.429 Y92.779 E21.95089
G1 X85.7 Y93.645 E21.99748
G1 X85.032 Y94.145 E22.03182
G1 X84.296 Y94.496 E22.06538
G1 X83.39 Y94.709 E22.10369
G1 X82.418 Y94.696 E22.1437
G1 X81.768 Y94.706 E22.17046
G1 X80.913 Y94.695 E22.20565
G1 X79.279 Y94.708 E22.27291
G1 X78.301 Y94.69 E22.31317
G1 X77.993 Y94.759 E22.32616
G1 X77.345 Y95.036 E22.35517
G1 X76.697 Y95.332 E22.38449
G1 X75.735 Y95.583 E22.42541
G1 X74.68 Y95.547 E22.46886
G1 X74.324 Y95.482 E22.48375
G1 X73.498 Y95.145 E22.52047
G1 X72.688 Y94.608 E22.56047
G1 X72.005 Y93.801 E22.60399
G1 X71.803 Y93.461 E22.62026
G1 X71.461 Y92.587 E22.65889
G1 X71.364 Y91.694 E22.69587
G1 X71.367 Y89.866 E22.77111
G1 X70.661 Y89.888 E22.80018
G1 X69.57 Y89.572 E22.84693
G1 X69.005 Y89.236 E22.87399
G1 X68.383 Y88.755 E22.90635
G1 X68.14 Y88.504 E22.92073
G1 X67.664 Y87.767 E22.95684
G1 X67.37 Y86.931 E22.99331
G1 X67.322 Y86.682 E23.00375
G1 X66.795 Y86.401 E23.02833
G1 X66.325 Y86.03 E23.05298
G1 X65.757 Y85.391 E23.08817
G1 X65.253 Y84.354 E23.13562
G1 X65.071 Y83.347 E23.17774
G1 X65.071 Y79.092 E23.35288
G1 X65.29 Y78.051 E23.39666
G1 X65.684 Y77.27 E23.43267
G1 X66.042 Y76.783 E23.45754
G1 X66.7 Y76.168 E23.49461
G1 X67.442 Y75.683 E23.5311
G1 X68.2 Y75.486 E23.56334
G1 X69.394 Y75.369 E23.61272
G1 X69.726 Y75.198 E23.62809
G1 X70.011 Y74.885 E23.64551
G1 X70.131 Y74.649 E23.65641
G1 X70.296 Y73.914 E23.68741
G1 X70.263 Y73.62 E23.69959
G1 X70.106 Y73.026 E23.72488
G1 X69.902 Y72.668 E23.74184
G1 X69.509 Y72.329 E23.7632
G1 X68.328 Y72.196 E23.81211
G1 X67.47 Y71.978 E23.84855
G1 X66.403 Y71.319 E23.90017
G1 X65.806 Y70.609 E23.93835
G1 X65.42 Y69.938 E23.97021
G1 X65.155 Y69.147 E24.00455
G1 X65.074 Y68.433 E24.03412
G1 X65.07 Y64.219 E24.20757
G1 X65.294 Y63.251 E24.24847
G1 X65.562 Y62.638 E24.276
G1 X66.183 Y61.758 E24.32033
G1 X66.916 Y61.202 E24.3582
G1 X67.334 Y60.998 E24.37734
G1 X67.454 Y60.409 E24.40209
G1 X67.747 Y59.813 E24.42942
G1 X67.694 Y59.456 E24.44428
G1 X67.695 Y57.217 E24.53643
G1 X68.082 Y55.749 E24.59892
G1 X68.598 Y54.855 E24.6414
G1 X68.712 Y54.705 E24.64916
G0 F1620 X69.075 Y54.228
G0 F5100 X69.553 Y54.591
G1 F1800 X70.029 Y54.131 E24.6764
G1 X70.953 Y53.53 E24.72177
G1 X71.849 Y53.221 E24.76078
G1 X72.839 Y53.007 E24.80247
G1 X73.692 Y52.971 E24.83761
G1 X74.355 Y52.906 E24.86503
G1 X74.954 Y52.973 E24.88984
G1 X75.507 Y53.13 E24.9135
G1 X76.206 Y53.173 E24.94232
G1 X77.092 Y53.194 E24.9788
G1 X77.887 Y53.18 E25.01153
G1 X78.158 Y53.198 E25.02271
G1 X79.125 Y53.223 E25.06252
G1 X80.521 Y53.181 E25.12001
G1 X81.128 Y53.22 E25.14504
G1 X81.973 Y53.183 E25.17986
G1 X82.301 Y53.204 E25.19338
G1 X83.263 Y53.204 E25.23298
G1 X84.089 Y53.346 E25.26747
G1 X84.712 Y53.646 E25.29594
G1 X85.32 Y54.105 E25.32729
G1 X85.857 Y54.723 E25.36099
G1 X86.22 Y55.556 E25.39839
G1 X86.708 Y57.728 E25.49002
G1 X86.708 Y67.985 E25.91219
G1 X96.174 Y67.985 E26.3018
G1 X97.073 Y68.174 E26.33961
G1 X97.784 Y68.524 E26.37223
G1 X98.379 Y68.997 E26.40352
G1 X98.882 Y69.715 E26.4396
G1 X99.106 Y70.256 E26.4637
G1 X99.299 Y71.075 E26.49833
G1 X99.299 Y81.46 E26.92577
G1 X99.11 Y82.359 E26.96358
G1 X98.76 Y83.07 E26.9962
G1 X98.284 Y83.669 E27.02769
G1 X98.133 Y83.804 E27.03603
G1 X97.432 Y84.237 E27.06994
G1 X96.974 Y84.423 E27.09029
G1 X96.188 Y84.585 E27.12332
G1 X86.707 Y84.585 E27.51355
G1 X86.707 Y89.57 E27.71873
G1 X86.239 Y91.627 E27.80556
G1 X85.908 Y92.466 E27.84268
G1 X85.282 Y93.209 E27.88267
G1 X84.722 Y93.628 E27.91146
G1 X84.096 Y93.927 E27.94001
G1 X83.325 Y94.108 E27.97261
G1 X82.417 Y94.096 E28.00999
G1 X81.776 Y94.106 E28.03637
G1 X80.916 Y94.095 E28.07177
G1 X79.29 Y94.108 E28.1387
G1 X78.678 Y94.097 E28.16389
G1 X78.142 Y94.111 E28.18596
G1 X77.808 Y94.185 E28.20004
G1 X77.109 Y94.484 E28.23134
G1 X76.496 Y94.764 E28.25907
G1 X75.668 Y94.98 E28.29429
G1 X74.7 Y94.947 E28.33416
G1 X74.494 Y94.903 E28.34283
G1 X73.78 Y94.612 E28.37457
G1 X73.091 Y94.155 E28.4086
G1 X72.463 Y93.413 E28.44861
G1 X72.362 Y93.243 E28.45674
G1 X72.049 Y92.442 E28.49214
G1 X71.964 Y91.695 E28.52309
G1 X71.968 Y89.159 E28.62747
G1 X71.506 Y89.261 E28.64694
G1 X70.735 Y89.285 E28.67869
G1 X69.812 Y89.018 E28.71824
G1 X69.372 Y88.761 E28.73921
G1 X68.75 Y88.28 E28.77157
G1 X68.613 Y88.13 E28.77993
G1 X68.206 Y87.5 E28.8108
G1 X67.936 Y86.732 E28.84431
G1 X67.869 Y86.288 E28.86279
G1 X67.158 Y85.923 E28.89569
G1 X66.773 Y85.631 E28.91558
G1 X66.261 Y85.055 E28.9473
G1 X65.828 Y84.164 E28.98807
G1 X65.671 Y83.295 E29.02442
G1 X65.671 Y79.154 E29.19486
G1 X65.861 Y78.252 E29.2328
G1 X66.197 Y77.585 E29.26354
G1 X66.493 Y77.182 E29.28412
G1 X67.071 Y76.643 E29.31665
