;FLAVOR:Marlin
;TIME:6148
;Filament used: 9.04218m
;Layer height: 0.3
;MINX:36.007
;MINY:48.464
;MINZ:0.15
;MAXX:112.464
;MAXY:100.602
;MAXZ:58.05
;TARGET_MACHINE.NAME:Printrbot Simple
;Generated with Cura_SteamEngine 5.8.1
M140 S60
M105
M190 S60
M82 ;absolute extrusion mode
M106                              ; liga a ventoinha para resfriar o bico
M109 S245.0        ; aguarda o bico atingir a temperatura de impressão

G21                               ; define unidades em milímetros
G90                               ; posicionamento absoluto
M82                               ; modo absoluto para extrusor

G28                               ; home em todos os eixos (X, Y e Z)
G1 Z5.0 F150          ; levanta o bico 5mm com velocidade de deslocamento

G29                               ; nivelamento automático da mesa

M109 S245.0        ; aguarda temperatura (garante que não esfriou durante o G29)

G92 E0.0                          ; zera a posição do extrusor
G1 Z0.4 F200.0                   ; desce o bico para altura de introdução

G91                               ; muda para posicionamento relativo
G1 Y-160 X30 F500                ; move para posição inicial da linha de introdução
G90                               ; volta para posicionamento absoluto

G1 X-20.0 E20 F220.0             ; desenha a linha de introdução de filamento
G92 E0.0                          ; zera novamente a posição do extrusor
G92 E0
M106
M109 S245.0
G21;
G90;
M82;
G28
G90
G1 Z3 F150;

G1 Z5.0

G28 X0 Y0 ;move X/Y to min endstops
G29
M109 S245.0
G92 E0.0 ; reset extruder distance position
G1 Z0.8 F200.0
G1 Y-2.0 F500.0 ; go outside print area
G1 X-20.0 E20 F200.0 ; intro line
G92 E0.0 ; reset extruder distance position
G92 E0
G1 F2400 E-6.5
;LAYER_COUNT:192
;LAYER:0
M107
G1 F1200 Z0.75
G0 F5100 X40.178 Y51.241 Z0.75
;TYPE:SKIRT
G1 F1200 Z0.15
G1 F2400 E0.21619
G1 F1800 X41.287 Y50.408 E0.27328
G1 X42.858 Y49.59 E0.34618
G1 X44.473 Y49.054 E0.41622
G1 X46.426 Y48.789 E0.49734
G1 X62.11 Y48.464 E1.14302
G1 X77.734 Y48.784 E1.78623
G1 X78.86 Y48.926 E1.83294
G1 X80.237 Y49.266 E1.89132
G1 X81.445 Y49.734 E1.94464
G1 X82.627 Y50.34 E1.99932
G1 X83.997 Y51.341 E2.06915
G1 X85.205 Y52.571 E2.14011
G1 X86.221 Y54.009 E2.21258
G1 X86.925 Y55.482 E2.27978
G1 X87.447 Y56.854 E2.3402
G1 X87.698 Y58.063 E2.39102
G1 X87.698 Y59.39 E2.44564
G1 X87.85 Y67.154 E2.76526
G1 X107.182 Y67.153 E3.56096
G1 X108.63 Y67.457 E3.62185
G1 X109.817 Y68.037 E3.67623
G1 X110.741 Y68.768 E3.72472
G1 X111.318 Y69.459 E3.76178
G1 X111.99 Y70.526 E3.81368
G1 X112.338 Y71.761 E3.86649
G1 X112.464 Y72.565 E3.89999
G1 X112.463 Y88.706 E4.56434
G1 X112.162 Y90.012 E4.6195
G1 X111.796 Y90.886 E4.6585
G1 X110.928 Y92.155 E4.72178
G1 X109.789 Y93.038 E4.7811
G1 X108.497 Y93.689 E4.84065
G1 X107.058 Y93.916 E4.90061
G1 X86.801 Y93.914 E5.73438
G1 X86.393 Y94.729 E5.77189
G1 X85.505 Y96.083 E5.83854
G1 X84.707 Y97.009 E5.88885
G1 X83.422 Y98.193 E5.96077
G1 X81.944 Y99.081 E6.03174
G1 X80.992 Y99.517 E6.07484
G1 X79.315 Y100.092 E6.1478
G1 X77.611 Y100.277 E6.21835
G1 X61.904 Y100.602 E6.86498
G1 X46.708 Y100.3 E7.49056
G1 X45.003 Y100.113 E7.56116
G1 X44.211 Y99.924 E7.59467
G1 X42.456 Y99.277 E7.67166
G1 X41.381 Y98.721 E7.72148
G1 X40.164 Y97.811 E7.78402
G1 X39.123 Y96.82 E7.84318
G1 X38.396 Y95.928 E7.89054
G1 X37.704 Y94.851 E7.94323
G1 X37.138 Y93.694 E7.99625
G1 X36.583 Y92.257 E8.05965
G1 X36.323 Y91.066 E8.10983
G1 X36.007 Y74.903 E8.77521
G1 X36.298 Y59.306 E9.41729
G1 X36.298 Y58.241 E9.46112
G1 X36.502 Y56.993 E9.51317
G1 X37.22 Y55.164 E9.59405
G1 X37.891 Y53.88 E9.65368
G1 X38.576 Y52.896 E9.70302
G1 X39.448 Y51.905 E9.75736
G1 X39.735 Y51.644 E9.77332
G0 F1620 X40.178 Y51.241
G0 F5100 X40.538 Y51.721
G1 F1800 X41.609 Y50.917 E9.82844
G1 X43.094 Y50.143 E9.89737
G1 X44.604 Y49.642 E9.96285
G1 X46.507 Y49.384 E10.04189
G1 X62.098 Y49.064 E10.68375
G1 X77.722 Y49.384 E11.32696
G1 X78.716 Y49.509 E11.36819
G1 X80.093 Y49.849 E11.42657
G1 X81.171 Y50.268 E11.47417
G1 X82.314 Y50.854 E11.52704
G1 X83.6 Y51.794 E11.5926
G1 X84.745 Y52.959 E11.65984
G1 X85.702 Y54.314 E11.72811
G1 X86.364 Y55.696 E11.79119
G1 X86.869 Y57.022 E11.84959
G1 X87.098 Y58.127 E11.89604
G1 X87.098 Y59.39 E11.94802
G1 X87.262 Y67.754 E12.29234
G1 X107.121 Y67.753 E13.10973
G1 X108.434 Y68.029 E13.16495
G1 X109.494 Y68.547 E13.21351
G1 X110.32 Y69.2 E13.25685
G1 X110.81 Y69.779 E13.28807
G1 X111.436 Y70.773 E13.33642
G1 X111.745 Y71.854 E13.3827
G1 X111.864 Y72.613 E13.41432
G1 X111.863 Y88.636 E14.07381
G1 X111.588 Y89.831 E14.12429
G1 X111.267 Y90.597 E14.15847
G1 X110.486 Y91.738 E14.21538
G1 X109.467 Y92.528 E14.26845
G1 X108.311 Y93.111 E14.32174
G1 X107.009 Y93.316 E14.37599
G1 X86.384 Y93.314 E15.2249
G1 X86.218 Y93.737 E15.2436
G1 X85.856 Y94.46 E15.27688
G1 X85.05 Y95.691 E15.33745
G1 X84.252 Y96.617 E15.38776
G1 X83.061 Y97.71 E15.45429
G1 X81.694 Y98.535 E15.52001
G1 X80.742 Y98.971 E15.56311
G1 X79.181 Y99.503 E15.63099
G1 X77.599 Y99.677 E15.6965
G1 X61.916 Y100.002 E16.34214
G1 X46.772 Y99.703 E16.96558
G1 X45.142 Y99.529 E17.03305
G1 X44.35 Y99.34 E17.06656
G1 X42.732 Y98.744 E17.13753
G1 X41.697 Y98.209 E17.18549
G1 X40.578 Y97.376 E17.2429
G1 X39.537 Y96.385 E17.30206
G1 X38.901 Y95.604 E17.34352
G1 X38.209 Y94.527 E17.39621
G1 X37.698 Y93.478 E17.44423
G1 X37.159 Y92.081 E17.50587
G1 X36.922 Y90.997 E17.55154
G1 X36.607 Y74.914 E18.21363
G1 X36.898 Y59.317 E18.85571
G1 X36.898 Y58.289 E18.89802
G1 X37.084 Y57.153 E18.9454
G1 X37.752 Y55.442 E19.021
G1 X38.423 Y54.158 E19.08063
G1 X39.028 Y53.291 E19.12414
G1 X39.853 Y52.348 E19.17571
G1 X40.096 Y52.125 E19.18929
G0 F1620 X40.538 Y51.721
G0 F5100 X40.943 Y52.164
G1 F1800 X41.928 Y51.427 E19.23992
G1 X43.33 Y50.696 E19.305
G1 X44.735 Y50.23 E19.36593
G1 X46.588 Y49.979 E19.44289
G1 X62.086 Y49.664 E20.08091
G1 X77.71 Y49.984 E20.72412
G1 X78.574 Y50.092 E20.75996
G1 X79.877 Y50.409 E20.81516
G1 X80.897 Y50.802 E20.86015
G1 X82.001 Y51.368 E20.91121
G1 X83.207 Y52.249 E20.97268
G1 X84.282 Y53.344 E21.03584
G1 X85.182 Y54.617 E21.10001
G1 X85.803 Y55.91 E21.15905
G1 X86.291 Y57.19 E21.21543
G1 X86.498 Y58.191 E21.2575
G1 X86.498 Y59.39 E21.30685
G1 X86.674 Y68.354 E21.67588
G1 X107.06 Y68.353 E22.51495
G1 X108.236 Y68.6 E22.56441
G1 X109.172 Y69.058 E22.6073
G1 X109.902 Y69.635 E22.6456
G1 X110.302 Y70.099 E22.67082
G1 X110.883 Y71.022 E22.71571
G1 X111.152 Y71.947 E22.75536
G1 X111.264 Y72.661 E22.7851
G1 X111.263 Y88.566 E23.43974
G1 X111.014 Y89.647 E23.4854
G1 X110.737 Y90.31 E23.51498
G1 X110.043 Y91.323 E23.56552
G1 X109.148 Y92.016 E23.61211
G1 X108.125 Y92.532 E23.65927
G1 X106.959 Y92.716 E23.70785
G1 X85.974 Y92.714 E24.57158
G1 X85.681 Y93.468 E24.60488
G1 X85.319 Y94.191 E24.63816
G1 X84.549 Y95.361 E24.69581
G1 X83.846 Y96.175 E24.74008
G1 X82.7 Y97.226 E24.80408
G1 X81.444 Y97.989 E24.86457
G1 X80.492 Y98.425 E24.90766
G1 X79.049 Y98.914 E24.97037
G1 X77.587 Y99.077 E25.03092
G1 X61.928 Y99.402 E25.67558
G1 X46.834 Y99.106 E26.29696
G1 X45.281 Y98.945 E26.36122
G1 X44.489 Y98.756 E26.39473
G1 X43.007 Y98.211 E26.45972
G1 X42.016 Y97.699 E26.50564
G1 X40.992 Y96.941 E26.55807
G1 X39.951 Y95.95 E26.61723
G1 X39.405 Y95.278 E26.65287
G1 X38.748 Y94.263 E26.70263
G1 X38.258 Y93.262 E26.74851
G1 X37.735 Y91.905 E26.80836
G1 X37.521 Y90.928 E26.84953
G1 X37.207 Y74.925 E27.50833
G1 X37.498 Y59.328 E28.15041
G1 X37.498 Y58.337 E28.1912
G1 X37.666 Y57.311 E28.23399
G1 X38.284 Y55.72 E28.30424
G1 X38.955 Y54.436 E28.36387
G1 X39.481 Y53.685 E28.40161
G1 X40.258 Y52.791 E28.45036
G1 X40.501 Y52.568 E28.46393
G0 F1620 X40.943 Y52.164
G0 F5100 X41.348 Y52.607
G1 F1800 X42.245 Y51.939 E28.50997
G1 X43.563 Y51.251 E28.57116
G1 X44.876 Y50.816 E28.62809
G1 X46.6 Y50.579 E28.69972
G1 X62.074 Y50.264 E29.33675
G1 X77.698 Y50.584 E29.97996
G1 X78.434 Y50.676 E30.01049
G1 X79.663 Y50.97 E30.0625
G1 X80.623 Y51.336 E30.10479
G1 X81.688 Y51.882 E30.15405
G1 X82.81 Y52.702 E30.21125
G1 X83.822 Y53.732 E30.27068
G1 X84.662 Y54.92 E30.33057
G1 X85.242 Y56.124 E30.38557
G1 X85.713 Y57.359 E30.43998
G1 X85.898 Y58.254 E30.47759
G1 X85.898 Y59.39 E30.52435
G1 X86.086 Y68.954 E30.91808
G1 X106.999 Y68.953 E31.77884
G1 X108.038 Y69.171 E31.82254
G1 X108.854 Y69.57 E31.85992
G1 X109.483 Y70.068 E31.89295
G1 X109.794 Y70.419 E31.91225
G1 X110.331 Y71.272 E31.95373
G1 X110.559 Y72.04 E31.98671
G1 X110.664 Y72.709 E32.01458
G1 X110.663 Y88.496 E32.66436
G1 X110.44 Y89.463 E32.70521
G1 X110.206 Y90.023 E32.73019
G1 X109.6 Y90.908 E32.77434
G1 X108.829 Y91.505 E32.81447
G1 X107.939 Y91.954 E32.8555
G1 X106.91 Y92.116 E32.89838
G1 X85.562 Y92.114 E33.77705
G1 X85.144 Y93.199 E33.82491
G1 X84.782 Y93.922 E33.85819
G1 X84.093 Y94.971 E33.90984
G1 X83.44 Y95.733 E33.95115
G1 X82.338 Y96.744 E34.0127
G1 X81.194 Y97.443 E34.06788
G1 X80.242 Y97.879 E34.11098
G1 X78.916 Y98.325 E34.16856
G1 X77.575 Y98.477 E34.22411
G1 X61.94 Y98.802 E34.86778
G1 X46.846 Y98.506 E35.48916
G1 X45.42 Y98.361 E35.54815
G1 X44.628 Y98.172 E35.58167
G1 X43.282 Y97.678 E35.64068
G1 X42.337 Y97.19 E35.68446
G1 X41.404 Y96.505 E35.7321
G1 X40.417 Y95.572 E35.788
G1 X39.871 Y94.9 E35.82364
G1 X39.287 Y93.999 E35.86783
G1 X38.797 Y92.998 E35.9137
G1 X38.311 Y91.732 E35.96952
G1 X38.12 Y90.859 E36.0063
G1 X37.807 Y74.936 E36.66181
G1 X38.098 Y59.339 E37.30388
G1 X38.098 Y58.385 E37.34315
G1 X38.248 Y57.471 E37.38127
G1 X38.816 Y55.998 E37.44625
G1 X39.487 Y54.714 E37.50588
G1 X39.935 Y54.077 E37.53793
G1 X40.663 Y53.234 E37.58378
G1 X40.906 Y53.011 E37.59735
G0 F1620 X41.348 Y52.607
G0 F5100 X41.707 Y53.088
G1 F1800 X42.567 Y52.447 E37.6415
G1 X43.794 Y51.807 E37.69846
G1 X45.016 Y51.402 E37.75145
G1 X46.612 Y51.179 E37.81778
G1 X62.062 Y50.864 E38.45382
G1 X77.686 Y51.184 E39.09703
G1 X78.294 Y51.26 E39.12225
G1 X79.523 Y51.554 E39.17426
G1 X80.349 Y51.87 E39.21066
G1 X81.375 Y52.396 E39.25812
G1 X82.413 Y53.155 E39.31105
G1 X83.362 Y54.12 E39.36675
G1 X84.142 Y55.224 E39.42239
G1 X84.701 Y56.384 E39.47539
G1 X85.135 Y57.526 E39.52567
G1 X85.298 Y58.317 E39.55891
G1 X85.298 Y59.39 E39.60308
G1 X85.498 Y69.554 E40.0215
G1 X106.938 Y69.553 E40.90396
G1 X107.84 Y69.742 E40.94189
G1 X108.533 Y70.081 E40.97365
G1 X109.11 Y70.538 E41.00394
G1 X109.334 Y70.805 E41.01829
G1 X109.779 Y71.52 E41.05295
G1 X109.966 Y72.133 E41.07933
G1 X110.064 Y72.757 E41.10533
G1 X110.063 Y88.426 E41.75026
G1 X109.855 Y89.328 E41.78836
G1 X109.711 Y89.684 E41.80416
G1 X109.158 Y90.491 E41.84443
G1 X108.508 Y90.995 E41.87828
G1 X107.753 Y91.375 E41.91307
G1 X106.86 Y91.516 E41.95028
G1 X85.15 Y91.514 E42.84385
G1 X84.607 Y92.93 E42.90627
G1 X84.245 Y93.653 E42.93955
G1 X83.637 Y94.581 E42.98522
G1 X82.984 Y95.343 E43.02652
G1 X81.978 Y96.26 E43.08255
G1 X80.942 Y96.898 E43.13263
G1 X80.051 Y97.31 E43.17303
G1 X78.784 Y97.736 E43.22805
G1 X77.563 Y97.877 E43.27864
G1 X61.952 Y98.202 E43.92132
G1 X46.858 Y97.906 E44.5427
G1 X45.559 Y97.777 E44.59642
G1 X44.767 Y97.588 E44.62994
G1 X43.557 Y97.145 E44.68297
G1 X42.657 Y96.68 E44.72467
G1 X41.759 Y96.021 E44.77052
G1 X40.881 Y95.192 E44.82022
G1 X40.373 Y94.572 E44.85321
G1 X39.826 Y93.735 E44.89436
G1 X39.336 Y92.734 E44.94023
G1 X38.888 Y91.562 E44.99188
G1 X38.719 Y90.79 E45.0244
G1 X38.407 Y74.947 E45.67662
G1 X38.698 Y59.35 E46.3187
G1 X38.698 Y58.433 E46.35644
G1 X38.83 Y57.631 E46.38989
G1 X39.376 Y56.214 E46.4524
G1 X39.979 Y55.057 E46.5061
G1 X40.39 Y54.468 E46.53566
G1 X41.07 Y53.675 E46.57865
G1 X41.266 Y53.494 E46.58963
G0 F1620 X41.707 Y53.088
G0 F5100 X42.066 Y53.569
G1 F1800 X42.887 Y52.957 E46.63178
G1 X44.027 Y52.362 E46.68471
G1 X45.156 Y51.988 E46.73366
G1 X46.624 Y51.779 E46.79469
G1 X62.05 Y51.464 E47.42975
G1 X77.615 Y51.78 E48.07053
G1 X78.154 Y51.844 E48.09287
G1 X79.383 Y52.138 E48.14488
G1 X80.075 Y52.404 E48.1754
G1 X81.062 Y52.91 E48.22105
G1 X82.016 Y53.608 E48.2697
G1 X82.902 Y54.508 E48.32168
G1 X83.622 Y55.528 E48.37307
G1 X84.14 Y56.597 E48.42197
G1 X84.556 Y57.693 E48.47022
G1 X84.698 Y58.38 E48.49909
G1 X84.698 Y59.39 E48.54066
G1 X84.91 Y70.154 E48.98379
G1 X106.877 Y70.153 E49.88794
G1 X107.642 Y70.313 E49.9201
G1 X108.214 Y70.593 E49.94632
G1 X108.689 Y70.969 E49.97125
G1 X108.825 Y71.122 E49.97968
G1 X109.228 Y71.769 E50.01105
G1 X109.373 Y72.226 E50.03079
G1 X109.464 Y72.805 E50.05491
G1 X109.463 Y88.356 E50.69498
G1 X109.27 Y89.193 E50.73033
G1 X109.18 Y89.397 E50.73951
G1 X108.716 Y90.074 E50.77329
G1 X108.186 Y90.485 E50.8009
G1 X107.567 Y90.797 E50.82943
G1 X106.811 Y90.916 E50.86093
G1 X84.666 Y90.914 E51.7724
G1 X84.579 Y91.336 E51.79014
G1 X84.07 Y92.661 E51.84856
G1 X83.708 Y93.384 E51.88184
G1 X83.136 Y94.25 E51.92456
G1 X82.58 Y94.899 E51.95973
G1 X81.615 Y95.778 E52.01346
G1 X80.627 Y96.387 E52.06123
G1 X79.86 Y96.741 E52.096
G1 X78.652 Y97.147 E52.14845
G1 X77.55 Y97.277 E52.19412
G1 X61.964 Y97.602 E52.83577
G1 X46.87 Y97.306 E53.45715
G1 X45.695 Y97.193 E53.50574
G1 X44.971 Y97.024 E53.53634
G1 X43.833 Y96.612 E53.58615
G1 X42.974 Y96.168 E53.62595
G1 X42.114 Y95.537 E53.66986
G1 X41.344 Y94.81 E53.71344
G1 X40.874 Y94.241 E53.74382
G1 X40.365 Y93.471 E53.78181
G1 X39.875 Y92.47 E53.82768
G1 X39.711 Y92.018 E53.84747
G1 X39.463 Y91.384 E53.87549
G1 X39.318 Y90.721 E53.90343
G1 X39.007 Y74.958 E54.55235
G1 X39.298 Y59.361 E55.19443
G1 X39.298 Y58.482 E55.2306
G1 X39.412 Y57.79 E55.25947
G1 X39.936 Y56.43 E55.31946
G1 X40.473 Y55.398 E55.36734
G1 X40.847 Y54.857 E55.39441
G1 X41.478 Y54.115 E55.4345
G1 X41.627 Y53.977 E55.44286
G0 F1620 X42.066 Y53.569
G0 F5100 X42.425 Y54.05
G1 F1800 X43.209 Y53.465 E55.48312
G1 X44.258 Y52.918 E55.53182
G1 X45.296 Y52.574 E55.57683
G1 X46.636 Y52.379 E55.63256
G1 X62.038 Y52.064 E56.26663
G1 X77.544 Y52.376 E56.90498
G1 X78.083 Y52.44 E56.92732
G1 X79.242 Y52.721 E56.9764
G1 X79.801 Y52.938 E57.00108
G1 X80.749 Y53.424 E57.04493
G1 X81.619 Y54.061 E57.08931
G1 X82.442 Y54.897 E57.1376
G1 X83.104 Y55.834 E57.18482
G1 X83.579 Y56.81 E57.2295
G1 X83.977 Y57.859 E57.27568
G1 X84.098 Y58.444 E57.30026
G1 X84.098 Y59.39 E57.3392
G1 X84.322 Y70.754 E57.80703
G1 X106.816 Y70.753 E58.73287
G1 X107.444 Y70.884 E58.75927
G1 X107.893 Y71.104 E58.77985
G1 X108.316 Y71.439 E58.80206
G1 X108.679 Y72.022 E58.83033
G1 X108.78 Y72.319 E58.84324
G1 X108.864 Y72.853 E58.86549
G1 X108.863 Y88.286 E59.5007
G1 X108.685 Y89.058 E59.53331
G1 X108.274 Y89.658 E59.56324
G1 X107.916 Y89.949 E59.58223
G1 X107.381 Y90.219 E59.6069
G1 X106.763 Y90.316 E59.63265
G1 X84.116 Y90.314 E60.56478
G1 X84.108 Y90.629 E60.57775
G1 X84.018 Y91.122 E60.59838
G1 X83.533 Y92.392 E60.65433
G1 X83.171 Y93.115 E60.68761
G1 X82.678 Y93.862 E60.72445
G1 X82.176 Y94.455 E60.75643
G1 X81.252 Y95.296 E60.80786
G1 X80.312 Y95.876 E60.85332
G1 X79.669 Y96.172 E60.88245
G1 X78.52 Y96.558 E60.93234
G1 X77.537 Y96.677 E60.9731
G1 X61.976 Y97.002 E61.61372
G1 X46.882 Y96.706 E62.2351
G1 X45.828 Y96.608 E62.27867
G1 X45.173 Y96.459 E62.30632
G1 X44.109 Y96.079 E62.35282
G1 X43.291 Y95.656 E62.39072
G1 X42.469 Y95.053 E62.43268
G1 X41.807 Y94.428 E62.47016
G1 X41.337 Y93.859 E62.50053
G1 X40.903 Y93.205 E62.53284
G1 X40.439 Y92.265 E62.57599
G1 X40.275 Y91.813 E62.59578
G1 X40.039 Y91.212 E62.62235
G1 X39.917 Y90.652 E62.64594
G1 X39.607 Y74.969 E63.29157
G1 X39.898 Y59.372 E63.93365
G1 X39.898 Y58.53 E63.9683
G1 X39.994 Y57.946 E63.99266
G1 X40.469 Y56.705 E64.04735
G1 X40.968 Y55.737 E64.09218
G1 X41.306 Y55.244 E64.11678
G1 X41.889 Y54.553 E64.15399
G1 X41.988 Y54.46 E64.15958
G0 F1620 X42.425 Y54.05
G0 F5100 X42.784 Y54.531
G1 F1800 X43.531 Y53.973 E64.19796
G1 X44.49 Y53.473 E64.24248
G1 X45.439 Y53.159 E64.28362
G1 X46.648 Y52.979 E64.33393
G1 X62.026 Y52.664 E64.96701
G1 X77.473 Y52.972 E65.60293
G1 X78.012 Y53.036 E65.62527
G1 X79.028 Y53.282 E65.66829
G1 X79.527 Y53.472 E65.69027
G1 X80.433 Y53.936 E65.73217
G1 X81.228 Y54.519 E65.77275
G1 X81.98 Y55.282 E65.81684
G1 X82.583 Y56.136 E65.85987
G1 X83.039 Y57.073 E65.90276
G1 X83.168 Y57.433 E65.9185
G1 X83.417 Y58.076 E65.94688
G1 X83.498 Y58.444 E65.96239
G1 X83.498 Y59.39 E66.00133
G1 X83.734 Y71.354 E66.49385
G1 X106.764 Y71.353 E67.44175
