;FLAVOR:Marlin
;TIME:2263
;Filament used: 2.54401m
;Layer height: 0.3
;MINX:48.843
;MINY:32.879
;MINZ:0.15
;MAXX:101.166
;MAXY:100.597
;MAXZ:15.45
;TARGET_MACHINE.NAME:Printrbot Simple
;Generated with Cura_SteamEngine 5.8.1
M140 S60
M105
M190 S60
M82 ;absolute extrusion mode


M106
M109 S245.0
G21;
G90;
M82;
G28
G90
G1 Z3 F150;

G1 Z5.0

G28 X0 Y0 ;move X/Y to min endstops
G29
M109 S245.0
G92 E0.0 ; reset extruder distance position
G1 Z0.4 F200.0

G91          ;relative positioning
G1 Y-160 X30 F500 ;move Z up a bit and retract filament even more
G90
G1 X-20.0 E20 F220.0 ; intro line
G92 E0.0 ; reset extruder distance position
G92 E0
M106
M109 S245.0
G21;
G90;
M82;
G28
G90
G1 Z3 F150;

G1 Z5.0

G28 X0 Y0 ;move X/Y to min endstops
G29
M109 S245.0
G92 E0.0 ; reset extruder distance position
G1 Z0.8 F200.0
G1 Y-2.0 F500.0 ; go outside print area
G1 X-20.0 E20 F200.0 ; intro line
G92 E0.0 ; reset extruder distance position
G92 E0
G1 F2400 E-6.5
;LAYER_COUNT:50
;LAYER:0
M107
G1 F1200 Z0.75
G0 F5100 X51.744 Y50.973 Z0.75
;TYPE:SKIRT
G1 F1200 Z0.15
G1 F2400 E0.21619
G1 F1800 X52.773 Y50.242 E0.26814
G1 X53.802 Y49.746 E0.31516
G1 X55.09 Y49.435 E0.3697
G1 X63.676 Y49.435 E0.72309
G1 X63.59 Y48.999 E0.74138
G1 X63.59 Y38.158 E1.18759
G1 X63.893 Y36.719 E1.24812
G1 X64.493 Y35.498 E1.30411
G1 X65.334 Y34.439 E1.35978
G1 X66.567 Y33.575 E1.42174
G1 X67.524 Y33.18 E1.46436
G1 X68.801 Y32.879 E1.51836
G1 X79.61 Y32.899 E1.96325
G1 X80.755 Y33.054 E2.01081
G1 X81.076 Y33.144 E2.02453
G1 X82.279 Y33.737 E2.07973
G1 X83.409 Y34.594 E2.13811
G1 X84.365 Y35.957 E2.20663
G1 X84.733 Y36.998 E2.25208
G1 X84.99 Y38.089 E2.29821
G1 X84.99 Y48.936 E2.74467
G1 X84.898 Y49.435 E2.76555
G1 X91.406 Y49.435 E3.03342
G1 X92.555 Y49.614 E3.08128
G1 X94.293 Y50.234 E3.15723
G1 X96.028 Y51.314 E3.24135
G1 X97.51 Y52.791 E3.32747
G1 X98.615 Y54.531 E3.4123
G1 X99.342 Y56.584 E3.50195
G1 X99.509 Y58.409 E3.57738
G1 X99.534 Y62.198 E3.73333
G1 X99.897 Y65.317 E3.86257
G1 X100.568 Y68.795 E4.00837
G1 X100.975 Y71.195 E4.10856
G1 X101.166 Y74.804 E4.25731
G1 X100.98 Y77.577 E4.3717
G1 X100.523 Y80.241 E4.48295
G1 X99.489 Y83.725 E4.63254
G1 X98.394 Y86.253 E4.74593
G1 X96.724 Y89.141 E4.88324
G1 X95.245 Y91.091 E4.98397
G1 X93.694 Y92.714 E5.07637
G1 X91.427 Y94.558 E5.19665
G1 X89.356 Y95.839 E5.29688
G1 X86.867 Y96.973 E5.40946
G1 X84.477 Y97.717 E5.51249
G1 X81.858 Y98.188 E5.62201
G1 X79.665 Y98.327 E5.71246
G1 X65.046 Y98.67 E6.31433
G1 X64.609 Y98.968 E6.3361
G1 X63.347 Y99.756 E6.39734
G1 X61.242 Y100.446 E6.48852
G1 X60.087 Y100.597 E6.53646
G1 X58.441 Y100.554 E6.60423
G1 X56.604 Y100.108 E6.68204
G1 X55.99 Y99.849 E6.70947
G1 X53.897 Y98.522 E6.81147
G1 X52.787 Y97.587 E6.8712
G1 X50.888 Y95.58 E6.98493
G1 X49.99 Y94.124 E7.05534
G1 X49.322 Y92.535 E7.12628
G1 X49.056 Y91.322 E7.1774
G1 X48.843 Y89.91 E7.23617
G1 X48.858 Y88.159 E7.30824
G1 X49.4 Y86.041 E7.39823
G1 X49.775 Y84.914 E7.44712
G1 X49.686 Y58.177 E8.5476
G1 X49.725 Y57.803 E8.56308
G1 X49.731 Y55.749 E8.64762
G1 X50.154 Y53.802 E8.72963
G1 X50.553 Y52.655 E8.77961
G1 X50.832 Y52.145 E8.80354
G1 X51.376 Y51.446 E8.84
G0 F1620 X51.744 Y50.973
G0 F5100 X52.163 Y51.412
G1 F1800 X53.079 Y50.761 E8.88625
G1 X54.007 Y50.314 E8.92865
G1 X55.161 Y50.035 E8.97751
G1 X64.434 Y50.035 E9.35918
G1 X64.19 Y48.999 E9.40299
G1 X64.19 Y38.219 E9.84669
G1 X64.464 Y36.916 E9.90149
G1 X65.002 Y35.822 E9.95167
G1 X65.751 Y34.879 E10.00124
G1 X66.857 Y34.104 E10.05683
G1 X67.706 Y33.753 E10.09464
G1 X68.87 Y33.479 E10.14386
G1 X79.53 Y33.494 E10.58262
G1 X80.675 Y33.649 E10.63017
G1 X80.86 Y33.706 E10.63814
G1 X81.963 Y34.25 E10.68876
G1 X82.972 Y35.015 E10.74088
G1 X83.826 Y36.233 E10.80211
G1 X84.149 Y37.136 E10.84158
G1 X84.39 Y38.159 E10.88484
G1 X84.39 Y48.936 E11.32841
G1 X84.159 Y50.035 E11.37464
G1 X91.359 Y50.035 E11.67098
G1 X92.407 Y50.198 E11.71464
G1 X94.032 Y50.778 E11.78565
G1 X95.653 Y51.787 E11.86424
G1 X97.039 Y53.168 E11.94477
G1 X98.071 Y54.793 E12.02401
G1 X98.751 Y56.713 E12.10784
G1 X98.911 Y58.464 E12.18021
G1 X98.934 Y62.234 E12.33539
G1 X99.304 Y65.408 E12.46691
G1 X99.976 Y68.895 E12.61307
G1 X100.383 Y71.295 E12.71327
G1 X100.567 Y74.764 E12.85625
G1 X100.381 Y77.537 E12.97064
G1 X99.948 Y80.071 E13.07645
G1 X98.938 Y83.487 E13.22307
G1 X97.874 Y85.953 E13.33361
G1 X96.245 Y88.779 E13.46787
G1 X94.811 Y90.676 E13.56575
G1 X93.26 Y92.299 E13.65815
G1 X91.049 Y94.092 E13.77531
G1 X89.106 Y95.293 E13.86933
G1 X86.688 Y96.4 E13.97879
G1 X84.371 Y97.126 E14.07873
G1 X81.752 Y97.597 E14.18825
G1 X79.651 Y97.727 E14.27489
G1 X64.854 Y98.074 E14.8841
G1 X64.291 Y98.459 E14.91217
G1 X63.09 Y99.209 E14.97045
G1 X61.11 Y99.858 E15.05621
G1 X60.056 Y99.996 E15.09996
G1 X58.52 Y99.956 E15.16321
G1 X56.793 Y99.536 E15.23636
G1 X56.266 Y99.314 E15.2599
G1 X54.284 Y98.063 E15.35637
G1 X53.174 Y97.128 E15.4161
G1 X51.368 Y95.214 E15.52441
G1 X50.523 Y93.845 E15.59063
G1 X49.897 Y92.355 E15.65715
G1 X49.649 Y91.232 E15.70449
G1 X49.443 Y89.869 E15.76122
G1 X49.457 Y88.235 E15.82848
G1 X49.969 Y86.23 E15.91365
G1 X50.375 Y85.009 E15.96662
G1 X50.283 Y58.239 E17.06846
G1 X50.325 Y57.837 E17.0851
G1 X50.331 Y55.816 E17.16828
G1 X50.721 Y53.999 E17.24477
G1 X51.12 Y52.852 E17.29475
G1 X51.305 Y52.514 E17.31061
G1 X51.795 Y51.885 E17.34343
G0 F1620 X52.163 Y51.412
G0 F5100 X52.582 Y51.851
G1 F1800 X53.385 Y51.28 E17.38399
G1 X54.212 Y50.882 E17.42176
G1 X55.232 Y50.635 E17.46496
G1 X65.31 Y50.635 E17.87976
G1 X65.036 Y49.972 E17.90929
G1 X64.79 Y48.929 E17.9534
G1 X64.79 Y38.281 E18.39166
G1 X65.036 Y37.112 E18.44083
G1 X65.511 Y36.146 E18.48514
G1 X66.168 Y35.319 E18.52861
G1 X67.144 Y34.635 E18.57767
G1 X67.892 Y34.326 E18.61098
G1 X68.94 Y34.079 E18.65529
G1 X79.45 Y34.089 E19.08788
G1 X80.595 Y34.244 E19.13544
G1 X81.644 Y34.761 E19.18357
G1 X82.535 Y35.437 E19.22961
G1 X83.289 Y36.512 E19.28365
G1 X83.565 Y37.274 E19.31701
G1 X83.79 Y38.229 E19.35739
G1 X83.79 Y48.875 E19.79557
G1 X83.542 Y50.056 E19.84524
G1 X83.252 Y50.635 E19.8719
G1 X91.312 Y50.635 E20.20364
G1 X92.261 Y50.783 E20.24317
G1 X93.77 Y51.321 E20.30911
G1 X95.278 Y52.26 E20.38223
G1 X96.568 Y53.545 E20.45717
G1 X97.527 Y55.055 E20.5308
G1 X98.16 Y56.842 E20.60883
G1 X98.313 Y58.519 E20.67814
G1 X98.334 Y62.271 E20.83257
G1 X98.71 Y65.495 E20.96617
G1 X99.384 Y68.995 E21.11288
G1 X99.791 Y71.395 E21.21307
G1 X99.968 Y74.724 E21.35028
G1 X99.782 Y77.497 E21.46467
G1 X99.357 Y79.969 E21.56791
G1 X98.387 Y83.249 E21.7087
G1 X97.323 Y85.715 E21.81924
G1 X95.766 Y88.418 E21.94763
G1 X94.377 Y90.261 E22.04262
G1 X92.826 Y91.884 E22.13502
G1 X90.672 Y93.625 E22.24901
G1 X88.856 Y94.747 E22.33688
G1 X86.438 Y95.854 E22.44633
G1 X84.264 Y96.536 E22.54011
G1 X81.715 Y96.998 E22.64674
G1 X79.637 Y97.127 E22.73243
G1 X64.664 Y97.478 E23.34888
G1 X63.973 Y97.95 E23.38332
G1 X62.833 Y98.662 E23.43865
G1 X60.977 Y99.27 E23.51903
G1 X60.025 Y99.395 E23.55855
G1 X58.599 Y99.358 E23.61727
G1 X56.935 Y98.953 E23.68775
G1 X56.585 Y98.806 E23.70338
G1 X54.669 Y97.603 E23.7965
G1 X53.61 Y96.716 E23.85335
G1 X51.848 Y94.848 E23.95905
G1 X51.058 Y93.568 E24.02096
G1 X50.471 Y92.172 E24.08329
G1 X50.235 Y91.103 E24.12835
G1 X50.043 Y89.829 E24.18138
G1 X50.056 Y88.311 E24.24386
G1 X50.538 Y86.419 E24.32422
G1 X50.975 Y85.104 E24.38125
G1 X50.88 Y58.301 E25.48446
G1 X50.925 Y57.871 E25.50225
G1 X50.931 Y55.882 E25.58412
G1 X51.308 Y54.125 E25.65808
G1 X51.686 Y53.051 E25.70495
G1 X51.778 Y52.883 E25.71283
G1 X52.214 Y52.324 E25.74201
G0 F1620 X52.582 Y51.851
G0 F5100 X53.001 Y52.29
G1 F1800 X53.691 Y51.799 E25.77686
G1 X54.417 Y51.45 E25.81002
G1 X55.303 Y51.235 E25.84755
G1 X66.441 Y51.235 E26.30598
G1 X65.878 Y50.439 E26.34611
G1 X65.61 Y49.791 E26.37497
G1 X65.39 Y48.859 E26.41439
G1 X65.39 Y38.343 E26.84722
G1 X65.608 Y37.308 E26.89075
G1 X66.02 Y36.47 E26.92919
G1 X66.585 Y35.759 E26.96657
G1 X67.431 Y35.166 E27.00909
G1 X68.078 Y34.899 E27.0379
G1 X69.01 Y34.679 E27.07731
G1 X79.37 Y34.684 E27.50372
G1 X80.419 Y34.826 E27.54729
G1 X81.328 Y35.274 E27.58901
G1 X82.097 Y35.857 E27.62873
G1 X82.752 Y36.791 E27.67568
G1 X82.981 Y37.412 E27.70292
G1 X83.19 Y38.299 E27.74043
G1 X83.19 Y48.814 E28.17322
G1 X82.971 Y49.857 E28.21709
G1 X82.557 Y50.682 E28.25508
G1 X82.286 Y51.058 E28.27416
G1 X82.104 Y51.235 E28.2846
G1 X91.265 Y51.235 E28.66167
G1 X92.113 Y51.367 E28.69699
G1 X93.509 Y51.865 E28.75799
G1 X94.901 Y52.731 E28.82547
G1 X96.096 Y53.922 E28.89491
G1 X96.984 Y55.321 E28.96312
G1 X97.569 Y56.971 E29.03517
G1 X97.715 Y58.573 E29.10138
G1 X97.734 Y62.307 E29.25507
G1 X98.116 Y65.583 E29.39083
G1 X98.792 Y69.095 E29.53803
G1 X99.199 Y71.495 E29.63822
G1 X99.369 Y74.684 E29.76967
G1 X99.183 Y77.457 E29.88406
G1 X98.766 Y79.867 E29.98473
G1 X97.836 Y83.011 E30.11967
G1 X96.772 Y85.477 E30.23022
G1 X95.286 Y88.058 E30.3528
G1 X93.943 Y89.846 E30.44484
G1 X92.392 Y91.469 E30.53724
G1 X90.355 Y93.115 E30.64503
G1 X88.606 Y94.201 E30.72977
G1 X86.188 Y95.308 E30.83923
G1 X84.086 Y95.963 E30.92985
G1 X81.678 Y96.399 E31.03057
G1 X79.623 Y96.527 E31.11532
G1 X64.472 Y96.882 E31.7391
G1 X63.655 Y97.441 E31.77984
G1 X62.576 Y98.115 E31.8322
G1 X60.844 Y98.682 E31.90721
G1 X59.994 Y98.794 E31.9425
G1 X58.678 Y98.76 E31.99669
G1 X57.077 Y98.37 E32.06451
G1 X56.903 Y98.297 E32.07228
G1 X55.053 Y97.142 E32.16204
G1 X54.047 Y96.304 E32.21593
G1 X52.326 Y94.479 E32.31918
G1 X51.593 Y93.291 E32.37664
G1 X51.046 Y91.99 E32.43473
G1 X50.821 Y90.973 E32.4776
G1 X50.643 Y89.789 E32.52688
G1 X50.655 Y88.391 E32.58442
G1 X51.108 Y86.607 E32.66018
G1 X51.526 Y85.339 E32.71513
G1 X51.575 Y85.229 E32.72009
G1 X51.487 Y59.374 E33.78427
G1 X51.477 Y58.364 E33.82584
G1 X51.525 Y57.906 E33.8448
G1 X51.531 Y55.948 E33.92539
G1 X51.895 Y54.251 E33.99682
G1 X52.251 Y53.252 E34.04048
G1 X52.633 Y52.763 E34.06602
G0 F1620 X53.001 Y52.29
G0 F5100 X53.42 Y52.729
G1 F1800 X53.997 Y52.318 E34.09517
G1 X54.621 Y52.018 E34.12367
G1 X55.375 Y51.835 E34.15561
G1 X68.906 Y51.835 E34.71253
G1 X68.216 Y51.69 E34.74156
G1 X67.505 Y51.34 E34.77417
G1 X66.91 Y50.867 E34.80546
G1 X66.407 Y50.149 E34.84154
G1 X66.183 Y49.608 E34.86564
G1 X65.99 Y48.789 E34.90027
G1 X65.99 Y38.404 E35.32772
G1 X66.179 Y37.505 E35.36553
G1 X66.529 Y36.794 E35.39814
G1 X67.002 Y36.199 E35.42943
G1 X67.72 Y35.696 E35.46551
G1 X68.261 Y35.472 E35.48961
G1 X69.08 Y35.279 E35.52425
G1 X79.29 Y35.279 E35.94448
G1 X80.243 Y35.408 E35.98407
G1 X81.012 Y35.787 E36.01935
G1 X81.66 Y36.278 E36.05282
G1 X82.216 Y37.071 E36.09268
G1 X82.397 Y37.55 E36.11375
G1 X82.59 Y38.369 E36.14839
G1 X82.59 Y48.753 E36.57579
G1 X82.4 Y49.658 E36.61385
G1 X82.062 Y50.343 E36.64529
G1 X81.867 Y50.628 E36.6595
G1 X81.264 Y51.215 E36.69414
G1 X80.506 Y51.653 E36.73017
G1 X79.691 Y51.835 E36.76454
G1 X91.218 Y51.835 E37.23899
G1 X91.965 Y51.951 E37.2701
G1 X93.248 Y52.409 E37.32617
G1 X94.526 Y53.204 E37.38812
G1 X95.624 Y54.298 E37.45192
G1 X96.442 Y55.587 E37.51475
G1 X96.978 Y57.098 E37.58074
G1 X97.117 Y58.627 E37.64394
G1 X97.134 Y62.343 E37.79689
G1 X97.522 Y65.671 E37.93479
G1 X98.2 Y69.195 E38.0825
G1 X98.607 Y71.595 E38.18269
G1 X98.77 Y74.644 E38.30836
G1 X98.584 Y77.417 E38.42276
G1 X98.175 Y79.764 E38.52081
G1 X97.285 Y82.773 E38.64997
G1 X96.221 Y85.239 E38.76051
G1 X94.806 Y87.698 E38.87728
G1 X93.509 Y89.431 E38.96638
G1 X91.958 Y91.054 E39.05878
G1 X90.038 Y92.605 E39.16036
G1 X88.289 Y93.691 E39.2451
G1 X86.01 Y94.735 E39.34828
G1 X83.908 Y95.39 E39.4389
G1 X81.641 Y95.8 E39.53372
G1 X79.609 Y95.927 E39.61752
G1 X64.28 Y96.286 E40.24862
G1 X63.337 Y96.932 E40.29567
G1 X62.319 Y97.568 E40.34508
G1 X60.712 Y98.094 E40.41467
G1 X59.962 Y98.193 E40.44581
G1 X58.757 Y98.162 E40.49542
G1 X57.219 Y97.787 E40.56058
G1 X55.436 Y96.68 E40.64696
G1 X54.484 Y95.892 E40.69783
G1 X52.804 Y94.11 E40.79863
G1 X52.128 Y93.014 E40.85163
G1 X51.621 Y91.808 E40.90548
G1 X51.407 Y90.843 E40.94616
G1 X51.243 Y89.749 E40.99169
G1 X51.254 Y88.471 E41.0443
G1 X51.69 Y86.755 E41.11717
G1 X52.075 Y85.581 E41.16802
G1 X52.175 Y85.354 E41.17823
G1 X52.087 Y59.372 E42.24764
G1 X52.074 Y58.427 E42.28654
G1 X52.125 Y57.941 E42.30666
G1 X52.131 Y56.014 E42.38597
G1 X52.482 Y54.377 E42.45488
G1 X52.783 Y53.545 E42.4913
G1 X53.051 Y53.202 E42.50921
G0 F1620 X53.42 Y52.729
G0 F5100 X53.838 Y53.168
G1 F1800 X54.303 Y52.837 E42.53271
G1 X54.825 Y52.586 E42.55655
G1 X55.447 Y52.435 E42.58289
G1 X91.171 Y52.435 E44.05327
G1 X91.819 Y52.536 E44.08026
G1 X92.986 Y52.952 E44.13126
G1 X94.151 Y53.677 E44.18773
G1 X95.152 Y54.674 E44.24588
G1 X95.9 Y55.853 E44.30335
G1 X96.387 Y57.225 E44.36328
G1 X96.519 Y58.681 E44.42345
G1 X96.534 Y62.38 E44.5757
G1 X96.928 Y65.758 E44.71568
G1 X97.608 Y69.295 E44.86393
G1 X98.015 Y71.695 E44.96412
G1 X98.171 Y74.605 E45.08407
G1 X97.993 Y77.314 E45.19581
G1 X97.584 Y79.661 E45.29386
G1 X96.734 Y82.535 E45.41722
G1 X95.67 Y85.001 E45.52776
G1 X94.325 Y87.339 E45.63878
G1 X93.075 Y89.016 E45.72487
G1 X91.524 Y90.639 E45.81727
G1 X89.721 Y92.095 E45.91266
G1 X87.972 Y93.181 E45.9974
G1 X85.832 Y94.162 E46.09429
G1 X83.73 Y94.817 E46.18491
G1 X81.603 Y95.201 E46.27387
G1 X79.595 Y95.327 E46.35668
G1 X64.08 Y95.69 E46.99545
G1 X63.688 Y95.971 E47.0153
G1 X63.019 Y96.423 E47.04853
G1 X62.062 Y97.021 E47.09498
G1 X60.58 Y97.506 E47.15916
G1 X59.93 Y97.592 E47.18614
G1 X58.836 Y97.564 E47.23119
G1 X57.455 Y97.227 E47.2897
G1 X55.817 Y96.216 E47.36892
G1 X54.921 Y95.48 E47.41665
G1 X53.282 Y93.741 E47.51501
G1 X52.661 Y92.735 E47.56367
G1 X52.196 Y91.628 E47.61309
G1 X51.993 Y90.713 E47.65166
G1 X51.843 Y89.709 E47.69345
G1 X51.853 Y88.55 E47.74115
G1 X52.26 Y86.942 E47.80942
G1 X52.645 Y85.768 E47.86028
G1 X52.775 Y85.482 E47.87321
G1 X52.687 Y59.37 E48.94797
G1 X52.671 Y58.49 E48.98419
G1 X52.725 Y57.977 E49.00542
G1 X52.731 Y56.078 E49.08359
G1 X53.046 Y54.581 E49.14655
G1 X53.314 Y53.839 E49.17902
G1 X53.469 Y53.641 E49.18937
G0 F1620 X53.838 Y53.168
G0 F5100 X54.258 Y53.605
G1 F1800 X54.579 Y53.37 E49.20575
G1 X54.967 Y53.169 E49.22373
G1 X55.519 Y53.035 E49.24711
G1 X91.124 Y53.035 E50.71259
G1 X91.671 Y53.12 E50.73538
G1 X92.725 Y53.496 E50.78144
G1 X93.776 Y54.15 E50.83239
G1 X94.68 Y55.05 E50.88489
G1 X95.358 Y56.119 E50.93699
G1 X95.796 Y57.352 E50.99085
G1 X95.921 Y58.735 E51.04801
G1 X95.934 Y62.416 E51.19951
G1 X96.334 Y65.846 E51.34165
G1 X97.016 Y69.395 E51.4904
G1 X97.423 Y71.795 E51.59059
G1 X97.572 Y74.567 E51.70485
G1 X97.402 Y77.211 E51.8139
G1 X96.993 Y79.558 E51.91195
G1 X96.183 Y82.298 E52.02956
G1 X95.149 Y84.703 E52.13731
G1 X93.843 Y86.981 E52.24538
G1 X92.641 Y88.601 E52.32841
G1 X91.09 Y90.224 E52.42081
G1 X89.404 Y91.585 E52.50999
G1 X87.655 Y92.671 E52.59473
G1 X85.652 Y93.59 E52.68544
G1 X83.622 Y94.227 E52.77301
G1 X81.565 Y94.602 E52.85907
G1 X79.581 Y94.727 E52.94089
G1 X63.881 Y95.094 E53.58727
G1 X63.352 Y95.474 E53.61408
G1 X62.701 Y95.914 E53.64642
G1 X61.805 Y96.474 E53.68991
G1 X60.448 Y96.918 E53.74867
G1 X59.898 Y96.991 E53.77151
G1 X58.915 Y96.966 E53.81198
G1 X57.691 Y96.667 E53.86384
G1 X56.198 Y95.752 E53.93592
G1 X55.302 Y95.016 E53.98364
G1 X53.759 Y93.372 E54.07644
G1 X53.196 Y92.461 E54.12052
G1 X52.771 Y91.448 E54.16574
G1 X52.579 Y90.583 E54.20221
G1 X52.443 Y89.67 E54.2402
G1 X52.452 Y88.628 E54.28309
G1 X52.831 Y87.127 E54.34681
G1 X53.192 Y86.016 E54.39489
G1 X53.375 Y85.612 E54.41315
G1 X53.287 Y59.368 E55.49334
G1 X53.268 Y58.553 E55.52689
G1 X53.325 Y58.013 E55.54924
G1 X53.331 Y56.14 E55.62634
G1 X53.633 Y54.704 E55.68673
G1 X53.845 Y54.134 E55.71176
G1 X53.889 Y54.078 E55.7147
G0 F1620 X54.258 Y53.605
G0 F5100 X54.682 Y54.038
G1 F1800 X54.855 Y53.903 E55.72373
G1 X55.243 Y53.702 E55.74171
G1 X55.519 Y53.635 E55.7534
G1 X91.124 Y53.635 E57.21888
G1 X91.47 Y53.685 E57.23327
G1 X92.463 Y54.039 E57.27666
G1 X93.401 Y54.623 E57.32214
G1 X94.208 Y55.426 E57.369
G1 X94.816 Y56.385 E57.41574
G1 X95.206 Y57.482 E57.46366
G1 X95.321 Y58.737 E57.51553
G1 X95.334 Y62.453 E57.66848
G1 X95.74 Y65.933 E57.81268
G1 X96.424 Y69.495 E57.96197
G1 X96.831 Y71.895 E58.06217
G1 X96.973 Y74.529 E58.17074
G1 X96.811 Y77.108 E58.2771
G1 X96.402 Y79.455 E58.37515
