;FLAVOR:Marlin
;TIME:2653
;Filament used: 3.15594m
;Layer height: 0.3
;MINX:83.843
;MINY:67.879
;MINZ:0.15
;MAXX:136.166
;MAXY:135.593
;MAXZ:18.75
;TARGET_MACHINE.NAME:Unknown
;Generated with Cura_SteamEngine 5.8.1
M140 S60
M105
M190 S60
M104 S245
M105
M109 S245
M82 ;absolute extrusion mode
; Ender 3 Custom Start G-code
G92 E0 ; Reset Extruder
G28 ; Home all axes
G1 Z2.0 F3000 ; Move Z Axis up little to prevent scratching of Heat Bed
G1 X0.1 Y20 Z0.3 F5000.0 ; Move to start position
G1 X0.1 Y200.0 Z0.3 F1500.0 E15 ; Draw the first line
G1 X0.4 Y200.0 Z0.3 F5000.0 ; Move to side a little
G1 X0.4 Y20 Z0.3 F1500.0 E30 ; Draw the second line
G92 E0 ; Reset Extruder
G1 Z2.0 F3000 ; Move Z Axis up little to prevent scratching of Heat Bed
G1 X5 Y20 Z0.3 F5000.0 ; Move over to prevent blob squish
G92 E0
G92 E0
G1 F2400 E-6.5
;LAYER_COUNT:61
;LAYER:0
M107
G1 F1200 Z0.75
G0 F5100 X99.493 Y70.498 Z0.75
;TYPE:SKIRT
G1 F1200 Z0.15
G1 F2400 E0.21619
G1 F1800 X100.334 Y69.439 E0.27185
G1 X101.567 Y68.575 E0.33382
G1 X102.524 Y68.18 E0.37643
G1 X103.801 Y67.879 E0.43043
G1 X114.61 Y67.899 E0.87533
G1 X115.755 Y68.054 E0.92288
G1 X116.076 Y68.144 E0.93661
G1 X117.279 Y68.737 E0.99181
G1 X118.409 Y69.594 E1.05018
G1 X119.365 Y70.957 E1.11871
G1 X119.733 Y71.998 E1.16415
G1 X119.99 Y73.089 E1.21029
G1 X119.99 Y83.939 E1.65687
G1 X119.898 Y84.437 E1.67771
G1 X126.44 Y84.454 E1.94698
G1 X127.504 Y84.595 E1.99115
G1 X129.237 Y85.196 E2.06665
G1 X131.033 Y86.316 E2.15377
G1 X132.506 Y87.785 E2.23939
G1 X133.615 Y89.532 E2.32456
G1 X134.342 Y91.585 E2.4142
G1 X134.51 Y93.431 E2.4905
G1 X134.534 Y97.198 E2.64555
G1 X134.897 Y100.317 E2.77479
G1 X135.563 Y103.769 E2.91949
G1 X135.975 Y106.195 E3.02078
G1 X136.166 Y109.804 E3.16953
G1 X135.98 Y112.577 E3.28392
G1 X135.523 Y115.241 E3.39517
G1 X134.489 Y118.725 E3.54475
G1 X133.394 Y121.253 E3.65814
G1 X131.724 Y124.141 E3.79546
G1 X130.245 Y126.091 E3.89619
G1 X128.694 Y127.714 E3.98859
G1 X126.427 Y129.558 E4.10887
G1 X124.356 Y130.839 E4.2091
G1 X121.867 Y131.973 E4.32168
G1 X119.477 Y132.717 E4.4247
G1 X116.858 Y133.188 E4.53423
G1 X114.665 Y133.327 E4.62467
G1 X100.05 Y133.67 E5.22638
G1 X99.612 Y133.964 E5.2481
G1 X98.33 Y134.767 E5.31036
G1 X96.142 Y135.473 E5.40499
G1 X94.892 Y135.593 E5.45667
G1 X93.441 Y135.554 E5.51642
G1 X91.604 Y135.108 E5.59422
G1 X90.99 Y134.849 E5.62165
G1 X88.897 Y133.522 E5.72366
G1 X87.737 Y132.54 E5.78621
G1 X85.89 Y130.582 E5.897
G1 X84.994 Y129.128 E5.9673
G1 X84.322 Y127.53 E6.03865
G1 X84.065 Y126.373 E6.08743
G1 X83.843 Y124.918 E6.14801
G1 X83.858 Y123.159 E6.22041
G1 X84.4 Y121.041 E6.3104
G1 X84.775 Y119.914 E6.35928
G1 X84.687 Y94.483 E7.40601
G1 X84.667 Y93.669 E7.43953
G1 X84.725 Y92.881 E7.47205
G1 X84.731 Y90.749 E7.5598
G1 X85.154 Y88.802 E7.64181
G1 X85.553 Y87.655 E7.69179
G1 X85.832 Y87.145 E7.71572
G1 X86.744 Y85.973 E7.77684
G1 X87.773 Y85.242 E7.8288
G1 X88.802 Y84.746 E7.87581
G1 X90.09 Y84.435 E7.93035
G1 X98.676 Y84.435 E8.28374
G1 X98.59 Y83.999 E8.30204
G1 X98.59 Y73.158 E8.74825
G1 X98.893 Y71.719 E8.80877
G1 X99.229 Y71.036 E8.8401
G0 F1620 X99.493 Y70.498
G0 F5100 X100.002 Y70.822
G1 F1800 X100.751 Y69.879 E8.88967
G1 X101.857 Y69.104 E8.94525
G1 X102.706 Y68.753 E8.98307
G1 X103.87 Y68.479 E9.03229
G1 X114.53 Y68.494 E9.47105
G1 X115.675 Y68.649 E9.5186
G1 X115.86 Y68.706 E9.52657
G1 X116.963 Y69.25 E9.57719
G1 X117.972 Y70.015 E9.62931
G1 X118.826 Y71.233 E9.69054
G1 X119.149 Y72.136 E9.73001
G1 X119.39 Y73.159 E9.77327
G1 X119.39 Y83.939 E10.21697
G1 X119.159 Y85.036 E10.26311
G1 X126.361 Y85.049 E10.55954
G1 X127.365 Y85.182 E10.60122
G1 X128.979 Y85.742 E10.67154
G1 X130.655 Y86.787 E10.75283
G1 X132.036 Y88.164 E10.8331
G1 X133.071 Y89.795 E10.91261
G1 X133.751 Y91.714 E10.99641
G1 X133.912 Y93.485 E11.0696
G1 X133.934 Y97.234 E11.22391
G1 X134.304 Y100.408 E11.35543
G1 X134.971 Y103.869 E11.50051
G1 X135.383 Y106.295 E11.60179
G1 X135.567 Y109.764 E11.74477
G1 X135.381 Y112.537 E11.85917
G1 X134.948 Y115.071 E11.96498
G1 X133.938 Y118.487 E12.11159
G1 X132.874 Y120.953 E12.22214
G1 X131.245 Y123.779 E12.35639
G1 X129.811 Y125.676 E12.45427
G1 X128.26 Y127.299 E12.54667
G1 X126.049 Y129.092 E12.66384
G1 X124.106 Y130.293 E12.75785
G1 X121.688 Y131.4 E12.86731
G1 X119.371 Y132.126 E12.96725
G1 X116.752 Y132.597 E13.07678
G1 X114.651 Y132.727 E13.16342
G1 X99.862 Y133.074 E13.77229
G1 X99.293 Y133.456 E13.8005
G1 X98.075 Y134.219 E13.85966
G1 X96.02 Y134.882 E13.94853
G1 X94.908 Y134.993 E13.99453
G1 X93.52 Y134.956 E14.05168
G1 X91.793 Y134.536 E14.12483
G1 X91.266 Y134.314 E14.14837
G1 X89.284 Y133.063 E14.24484
G1 X88.174 Y132.128 E14.30457
G1 X86.368 Y130.213 E14.41292
G1 X85.527 Y128.849 E14.47887
G1 X84.897 Y127.35 E14.5458
G1 X84.651 Y126.243 E14.59247
G1 X84.443 Y124.876 E14.64938
G1 X84.457 Y123.235 E14.71693
G1 X84.969 Y121.23 E14.8021
G1 X85.375 Y120.009 E14.85506
G1 X85.287 Y94.481 E15.90579
G1 X85.267 Y93.654 E15.93984
G1 X85.325 Y92.902 E15.97088
G1 X85.331 Y90.816 E16.05674
G1 X85.721 Y88.999 E16.13323
G1 X86.12 Y87.852 E16.18321
G1 X86.305 Y87.514 E16.19907
G1 X87.163 Y86.412 E16.25656
G1 X88.079 Y85.761 E16.30281
G1 X89.007 Y85.314 E16.34521
G1 X90.161 Y85.035 E16.39407
G1 X99.434 Y85.035 E16.77575
G1 X99.19 Y83.999 E16.81955
G1 X99.19 Y73.219 E17.26325
G1 X99.464 Y71.916 E17.31806
G1 X99.738 Y71.36 E17.34357
G0 F1620 X100.002 Y70.822
G0 F5100 X100.511 Y71.146
G1 F1800 X101.168 Y70.319 E17.38704
G1 X102.144 Y69.635 E17.4361
G1 X102.892 Y69.326 E17.46941
G1 X103.94 Y69.079 E17.51372
G1 X114.45 Y69.089 E17.94631
G1 X115.595 Y69.244 E17.99387
G1 X116.644 Y69.761 E18.042
G1 X117.535 Y70.437 E18.08803
G1 X118.289 Y71.512 E18.14208
G1 X118.565 Y72.274 E18.17544
G1 X118.79 Y73.229 E18.21582
G1 X118.79 Y83.877 E18.65409
G1 X118.544 Y85.046 E18.70326
G1 X118.254 Y85.635 E18.73028
G1 X126.282 Y85.644 E19.06071
G1 X127.226 Y85.769 E19.0999
G1 X128.719 Y86.287 E19.16494
G1 X130.279 Y87.26 E19.24062
G1 X131.566 Y88.543 E19.31542
G1 X132.529 Y90.061 E19.38941
G1 X133.16 Y91.84 E19.4671
G1 X133.314 Y93.539 E19.53732
G1 X133.334 Y97.271 E19.69093
G1 X133.71 Y100.495 E19.82452
G1 X134.379 Y103.969 E19.97014
G1 X134.791 Y106.395 E20.07142
G1 X134.968 Y109.724 E20.20863
G1 X134.782 Y112.497 E20.32302
G1 X134.357 Y114.969 E20.42626
G1 X133.387 Y118.249 E20.56705
G1 X132.323 Y120.715 E20.67759
G1 X130.766 Y123.418 E20.80598
G1 X129.377 Y125.261 E20.90097
G1 X127.826 Y126.884 E20.99337
G1 X125.672 Y128.625 E21.10737
G1 X123.856 Y129.747 E21.19523
G1 X121.438 Y130.854 E21.30468
G1 X119.264 Y131.536 E21.39846
G1 X116.715 Y131.998 E21.50509
G1 X114.637 Y132.127 E21.59078
G1 X99.674 Y132.478 E22.20682
G1 X98.974 Y132.948 E22.24152
G1 X97.82 Y133.671 E22.29757
G1 X95.898 Y134.291 E22.3807
G1 X94.924 Y134.393 E22.42101
G1 X93.599 Y134.358 E22.47556
G1 X91.935 Y133.953 E22.54605
G1 X91.585 Y133.806 E22.56167
G1 X89.669 Y132.603 E22.65479
G1 X88.61 Y131.716 E22.71165
G1 X86.848 Y129.848 E22.81734
G1 X86.06 Y128.57 E22.87914
G1 X85.472 Y127.17 E22.94164
G1 X85.237 Y126.113 E22.98621
G1 X85.043 Y124.835 E23.03941
G1 X85.056 Y123.311 E23.10214
G1 X85.538 Y121.419 E23.1825
G1 X85.975 Y120.104 E23.23954
G1 X85.887 Y94.479 E24.29425
G1 X85.867 Y93.64 E24.32879
G1 X85.925 Y92.927 E24.35824
G1 X85.931 Y90.882 E24.44241
G1 X86.308 Y89.125 E24.51637
G1 X86.686 Y88.051 E24.56324
G1 X86.778 Y87.883 E24.57112
G1 X87.582 Y86.851 E24.62496
G1 X88.385 Y86.28 E24.66552
G1 X89.212 Y85.882 E24.7033
G1 X90.232 Y85.635 E24.74649
G1 X100.31 Y85.635 E25.1613
G1 X100.036 Y84.972 E25.19082
G1 X99.79 Y83.929 E25.23493
G1 X99.79 Y73.281 E25.6732
G1 X100.036 Y72.112 E25.72237
G1 X100.247 Y71.684 E25.74201
G0 F1620 X100.511 Y71.146
G0 F5100 X101.02 Y71.47
G1 F1800 X101.585 Y70.759 E25.77939
G1 X102.431 Y70.166 E25.82191
G1 X103.078 Y69.899 E25.85072
G1 X104.01 Y69.679 E25.89013
G1 X114.37 Y69.684 E26.31654
G1 X115.419 Y69.826 E26.36011
G1 X116.328 Y70.274 E26.40182
G1 X117.097 Y70.857 E26.44154
G1 X117.752 Y71.791 E26.4885
G1 X117.981 Y72.412 E26.51574
G1 X118.19 Y73.299 E26.55325
G1 X118.19 Y83.815 E26.98608
G1 X117.972 Y84.85 E27.02962
G1 X117.532 Y85.744 E27.07063
G1 X117.11 Y86.234 E27.09724
G1 X126.203 Y86.239 E27.47151
G1 X127.087 Y86.356 E27.50821
G1 X128.461 Y86.833 E27.56807
G1 X129.901 Y87.731 E27.63792
G1 X131.096 Y88.922 E27.70736
G1 X131.985 Y90.323 E27.77566
G1 X132.569 Y91.97 E27.84758
G1 X132.716 Y93.593 E27.91466
G1 X132.734 Y97.307 E28.06753
G1 X133.116 Y100.583 E28.20328
G1 X133.787 Y104.069 E28.34939
G1 X134.199 Y106.495 E28.45068
G1 X134.369 Y109.684 E28.58212
G1 X134.183 Y112.457 E28.69651
G1 X133.766 Y114.867 E28.79718
G1 X132.836 Y118.011 E28.93213
G1 X131.772 Y120.477 E29.04267
G1 X130.286 Y123.058 E29.16525
G1 X128.943 Y124.846 E29.25729
G1 X127.392 Y126.469 E29.34969
G1 X125.355 Y128.115 E29.45749
G1 X123.606 Y129.201 E29.54222
G1 X121.188 Y130.308 E29.65168
G1 X119.086 Y130.963 E29.7423
G1 X116.678 Y131.399 E29.84302
G1 X114.623 Y131.527 E29.92777
G1 X99.484 Y131.882 E30.55105
G1 X98.655 Y132.44 E30.59219
G1 X97.565 Y133.123 E30.64513
G1 X95.772 Y133.701 E30.72267
G1 X94.94 Y133.793 E30.75712
G1 X93.678 Y133.76 E30.80908
G1 X92.077 Y133.37 E30.87691
G1 X91.903 Y133.297 E30.88467
G1 X90.053 Y132.142 E30.97444
G1 X89.047 Y131.304 E31.02833
G1 X87.326 Y129.479 E31.13158
G1 X86.593 Y128.291 E31.18903
G1 X86.047 Y126.99 E31.2471
G1 X85.823 Y125.983 E31.28957
G1 X85.643 Y124.794 E31.33906
G1 X85.655 Y123.391 E31.39681
G1 X86.108 Y121.607 E31.47257
G1 X86.526 Y120.339 E31.52752
G1 X86.575 Y120.229 E31.53248
G1 X86.487 Y94.477 E32.59242
G1 X86.465 Y93.689 E32.62487
G1 X86.525 Y92.952 E32.6553
G1 X86.531 Y90.948 E32.73779
G1 X86.895 Y89.251 E32.80922
G1 X87.251 Y88.252 E32.85287
G1 X88.001 Y87.29 E32.90308
G1 X88.691 Y86.799 E32.93794
G1 X89.417 Y86.45 E32.97109
G1 X90.303 Y86.235 E33.00862
G1 X101.441 Y86.235 E33.46705
G1 X100.878 Y85.439 E33.50718
G1 X100.61 Y84.791 E33.53604
G1 X100.39 Y83.859 E33.57546
G1 X100.39 Y73.343 E34.00829
G1 X100.608 Y72.308 E34.05183
G1 X100.756 Y72.008 E34.06559
G0 F1620 X101.02 Y71.47
G0 F5100 X101.529 Y71.794
G1 F1800 X102.002 Y71.199 E34.09688
G1 X102.72 Y70.696 E34.13296
G1 X103.261 Y70.472 E34.15706
G1 X104.08 Y70.279 E34.1917
G1 X114.29 Y70.279 E34.61193
G1 X115.243 Y70.408 E34.65152
G1 X116.012 Y70.787 E34.6868
G1 X116.66 Y71.278 E34.72027
G1 X117.216 Y72.071 E34.76013
G1 X117.397 Y72.55 E34.7812
G1 X117.59 Y73.369 E34.81584
G1 X117.59 Y83.754 E35.24328
G1 X117.401 Y84.653 E35.28109
G1 X116.994 Y85.479 E35.31899
G1 X116.509 Y85.999 E35.34826
G1 X115.791 Y86.551 E35.38553
G1 X114.786 Y86.834 E35.42851
G1 X126.124 Y86.834 E35.89517
G1 X126.948 Y86.943 E35.92938
G1 X128.203 Y87.379 E35.98407
G1 X129.526 Y88.204 E36.04824
G1 X130.624 Y89.298 E36.11204
G1 X131.442 Y90.587 E36.17487
G1 X131.979 Y92.102 E36.24103
G1 X132.116 Y93.596 E36.30278
G1 X132.134 Y97.343 E36.45701
G1 X132.522 Y100.671 E36.59491
G1 X133.195 Y104.169 E36.74153
G1 X133.607 Y106.595 E36.84281
G1 X133.77 Y109.644 E36.96849
G1 X133.584 Y112.417 E37.08288
G1 X133.175 Y114.764 E37.18094
G1 X132.285 Y117.773 E37.31009
G1 X131.221 Y120.239 E37.42063
G1 X129.806 Y122.698 E37.5374
G1 X128.509 Y124.431 E37.6265
G1 X126.958 Y126.054 E37.7189
G1 X125.038 Y127.605 E37.82049
G1 X123.289 Y128.691 E37.90522
G1 X121.01 Y129.735 E38.0084
G1 X118.908 Y130.39 E38.09902
G1 X116.641 Y130.8 E38.19384
G1 X114.609 Y130.927 E38.27764
G1 X99.294 Y131.286 E38.90817
G1 X98.337 Y131.932 E38.95569
G1 X97.312 Y132.574 E39.00548
G1 X95.647 Y133.111 E39.07748
G1 X94.956 Y133.193 E39.10612
G1 X93.757 Y133.162 E39.15549
G1 X92.219 Y132.787 E39.22065
G1 X90.436 Y131.68 E39.30703
G1 X89.484 Y130.892 E39.35789
G1 X87.804 Y129.11 E39.4587
G1 X87.128 Y128.014 E39.5117
G1 X86.621 Y126.808 E39.56554
G1 X86.409 Y125.853 E39.60581
G1 X86.243 Y124.753 E39.6516
G1 X86.254 Y123.471 E39.70436
G1 X86.69 Y121.755 E39.77724
G1 X87.075 Y120.581 E39.82809
G1 X87.175 Y120.354 E39.8383
G1 X87.087 Y94.457 E40.90421
G1 X87.063 Y93.738 E40.93382
G1 X87.125 Y92.977 E40.96525
G1 X87.131 Y91.014 E41.04604
G1 X87.482 Y89.377 E41.11495
G1 X87.783 Y88.545 E41.15137
G1 X88.42 Y87.729 E41.19398
G1 X88.997 Y87.318 E41.22314
G1 X89.621 Y87.018 E41.25163
G1 X90.375 Y86.835 E41.28357
G1 X103.904 Y86.835 E41.84041
G1 X103.215 Y86.69 E41.86939
G1 X102.505 Y86.34 E41.90198
G1 X101.91 Y85.867 E41.93326
G1 X101.407 Y85.149 E41.96934
G1 X101.183 Y84.608 E41.99344
G1 X100.99 Y83.789 E42.02808
G1 X100.99 Y73.404 E42.45552
G1 X101.179 Y72.505 E42.49333
G1 X101.264 Y72.332 E42.50126
G0 F1620 X101.529 Y71.794
G0 F5100 X102.038 Y72.118
G1 F1800 X102.417 Y71.641 E42.52634
G1 X103.064 Y71.188 E42.55885
G1 X103.399 Y71.056 E42.57367
G1 X104.15 Y70.879 E42.60543
G1 X114.29 Y70.879 E43.02278
G1 X115.066 Y70.989 E43.05504
G1 X115.693 Y71.298 E43.08381
G1 X116.224 Y71.701 E43.11125
G1 X116.681 Y72.353 E43.14402
G1 X116.813 Y72.688 E43.15884
G1 X116.99 Y73.439 E43.1906
G1 X116.99 Y83.692 E43.61261
G1 X116.829 Y84.457 E43.64478
G1 X116.496 Y85.134 E43.67584
G1 X116.104 Y85.554 E43.69948
G1 X115.518 Y86.004 E43.72989
G1 X114.542 Y86.279 E43.77163
G1 X104.177 Y86.279 E44.19825
G1 X103.412 Y86.118 E44.23042
G1 X102.829 Y85.831 E44.25717
G1 X102.352 Y85.452 E44.28224
G1 X101.899 Y84.805 E44.31475
G1 X101.767 Y84.47 E44.32957
G1 X101.59 Y83.719 E44.36133
G1 X101.59 Y73.466 E44.78334
G1 X101.751 Y72.701 E44.81552
G1 X101.774 Y72.656 E44.8176
G0 F1620 X102.038 Y72.118
G0 F5100 X102.547 Y72.442
G1 F1800 X102.834 Y72.081 E44.83658
G1 X103.349 Y71.72 E44.86246
G1 X103.537 Y71.64 E44.87087
G1 X104.22 Y71.479 E44.89976
G1 X114.29 Y71.479 E45.31423
G1 X114.886 Y71.569 E45.33904
G1 X115.427 Y71.836 E45.36387
G1 X115.788 Y72.123 E45.38285
G1 X116.149 Y72.638 E45.40874
G1 X116.229 Y72.826 E45.41715
G1 X116.39 Y73.509 E45.44603
G1 X116.39 Y83.631 E45.86265
G1 X116.258 Y84.26 E45.8891
G1 X115.997 Y84.79 E45.91342
G1 X115.739 Y85.078 E45.92933
G1 X115.245 Y85.457 E45.95496
G1 X114.457 Y85.679 E45.98865
G1 X104.238 Y85.679 E46.40926
G1 X103.609 Y85.547 E46.43572
G1 X103.153 Y85.322 E46.45664
G1 X102.792 Y85.035 E46.47563
G1 X102.431 Y84.52 E46.50151
G1 X102.351 Y84.332 E46.50992
G1 X102.19 Y83.649 E46.5388
G1 X102.19 Y73.527 E46.95542
G1 X102.304 Y72.987 E46.97814
G0 F1620 X102.322 Y72.898
G0 X102.547 Y72.442
G0 F5100 X103.085 Y72.707
G1 F1800 X103.287 Y72.475 E46.9908
G1 X103.675 Y72.224 E47.00982
G1 X104.29 Y72.079 E47.03582
G1 X114.29 Y72.079 E47.44742
G1 X114.706 Y72.149 E47.46478
G1 X115.162 Y72.374 E47.48571
G1 X115.394 Y72.576 E47.49837
G1 X115.645 Y72.964 E47.51739
G1 X115.79 Y73.579 E47.5434
G1 X115.79 Y83.579 E47.95499
G1 X115.72 Y83.995 E47.97236
G1 X115.495 Y84.451 E47.99329
G1 X115.365 Y84.608 E48.00168
G1 X114.993 Y84.904 E48.02124
G1 X114.372 Y85.079 E48.0478
G1 X104.29 Y85.079 E48.46277
G1 X103.874 Y85.009 E48.48013
G1 X103.418 Y84.784 E48.50106
G1 X103.186 Y84.582 E48.51372
G1 X102.935 Y84.194 E48.53274
G1 X102.79 Y83.579 E48.55875
G1 X102.79 Y73.579 E48.97034
G1 X102.845 Y73.253 E48.98395
G0 F1620 X102.86 Y73.163
G0 X103.085 Y72.707
G0 F5100 X104.029 Y73.43
G1 F1800 X104.137 Y73.321 E48.99027
G1 X104.29 Y73.279 E48.9968
G1 X114.29 Y73.279 E49.40839
G1 X114.439 Y73.318 E49.41473
G1 X114.548 Y73.426 E49.42105
G1 X114.59 Y73.579 E49.42758
G1 X114.59 Y83.579 E49.83917
G1 X114.551 Y83.728 E49.84551
G1 X114.443 Y83.837 E49.85182
G1 X114.29 Y83.879 E49.85836
G1 X104.29 Y83.879 E50.26995
G1 X104.141 Y83.84 E50.27629
G1 X104.032 Y83.732 E50.2826
G1 X103.99 Y83.579 E50.28913
G1 X103.99 Y74.025 E50.68237
G0 F1620 X103.99 Y73.579
G0 X104.029 Y73.43
G0 F5100 X103.449 Y73.278
G1 F1800 X103.605 Y73.006 E50.69528
G1 X103.713 Y72.897 E50.70159
G1 X103.978 Y72.742 E50.71423
G1 X104.29 Y72.679 E50.72733
G1 X114.29 Y72.679 E51.13892
G1 X114.591 Y72.738 E51.15155
G1 X114.863 Y72.894 E51.16446
G1 X114.972 Y73.002 E51.17077
G1 X115.127 Y73.267 E51.18341
G1 X115.19 Y73.579 E51.19651
G1 X115.19 Y83.579 E51.6081
G1 X115.131 Y83.88 E51.62073
G1 X114.975 Y84.152 E51.63363
G1 X114.722 Y84.368 E51.64732
G1 X114.29 Y84.479 E51.66568
G1 X104.29 Y84.479 E52.07728
G1 X103.989 Y84.42 E52.0899
G1 X103.717 Y84.264 E52.10281
