;FLAVOR:Marlin
;TIME:6162
;Filament used: 9.49598m
;Layer height: 0.3
;MINX:78.44
;MINY:73.033
;MINZ:0.15
;MAXX:141.633
;MAXY:152.509
;MAXZ:25.05
;TARGET_MACHINE.NAME:Unknown
;Generated with Cura_SteamEngine 5.8.1
M140 S60
M105
M190 S60
M104 S245
M105
M109 S245
M82 ;absolute extrusion mode
; Ender 3 Custom Start G-code
G92 E0 ; Reset Extruder
G28 ; Home all axes
G1 Z2.0 F3000 ; Move Z Axis up little to prevent scratching of Heat Bed
G1 X0.1 Y20 Z0.3 F5000.0 ; Move to start position
G1 X0.1 Y200.0 Z0.3 F1500.0 E15 ; Draw the first line
G1 X0.4 Y200.0 Z0.3 F5000.0 ; Move to side a little
G1 X0.4 Y20 Z0.3 F1500.0 E30 ; Draw the second line
G92 E0 ; Reset Extruder
G1 Z2.0 F3000 ; Move Z Axis up little to prevent scratching of Heat Bed
G1 X5 Y20 Z0.3 F5000.0 ; Move over to prevent blob squish
G92 E0
G92 E0
G1 F2400 E-6.5
;LAYER_COUNT:82
;LAYER:0
M107
G1 F1200 Z0.75
G0 F5100 X92.208 Y84.462 Z0.75
;TYPE:SKIRT
G1 F1200 Z0.15
G1 F2400 E0.21619
G1 F1800 X100.831 Y75.138 E0.73892
G1 X102.758 Y73.926 E0.83262
G1 X104.759 Y73.228 E0.91985
G1 X106.433 Y73.054 E0.98912
G1 X112.253 Y73.033 E1.22867
G1 X113.57 Y73.336 E1.28429
G1 X114.438 Y73.697 E1.32298
G1 X115.707 Y74.567 E1.38631
G1 X116.557 Y75.664 E1.44343
G1 X116.688 Y75.898 E1.45447
G1 X116.747 Y75.898 E1.4569
G1 X117.506 Y74.793 E1.51207
G1 X118.627 Y73.924 E1.57045
G1 X119.855 Y73.301 E1.62713
G1 X120.035 Y73.243 E1.63491
G1 X121.402 Y73.033 E1.69184
G1 X127.225 Y73.071 E1.93151
G1 X128.705 Y73.243 E1.99284
G1 X130.72 Y73.949 E2.08072
G1 X132.507 Y75.073 E2.16761
G1 X134.035 Y76.601 E2.25655
G1 X135.165 Y78.405 E2.34417
G1 X135.444 Y79.209 E2.3792
G1 X137.543 Y80.791 E2.48738
G1 X139.032 Y82.154 E2.57047
G1 X140.486 Y84.319 E2.67781
G1 X141.154 Y86.233 E2.76125
G1 X141.338 Y87.274 E2.80476
G1 X141.338 Y91.025 E2.95915
G1 X141.411 Y91.419 E2.97564
G1 X141.561 Y93.019 E3.04178
G1 X141.57 Y94.45 E3.10068
G1 X141.633 Y95.354 E3.13798
G1 X141.617 Y96.038 E3.16614
G1 X141.519 Y124.018 E4.31779
G1 X140.978 Y125.951 E4.40041
G1 X140.294 Y127.038 E4.45327
G1 X139.449 Y128.078 E4.50842
G1 X138.119 Y129.026 E4.57565
G1 X136.902 Y129.578 E4.63065
G1 X136.114 Y129.746 E4.66381
G1 X135.783 Y130.937 E4.71469
G1 X134.918 Y132.311 E4.78152
G1 X134.123 Y133.167 E4.8296
G1 X132.985 Y133.981 E4.88719
G1 X131.708 Y134.576 E4.94518
G1 X130.205 Y134.898 E5.00844
G1 X127.646 Y134.898 E5.11377
G1 X127.525 Y135.753 E5.14931
G1 X127.11 Y138.121 E5.24826
G1 X127.047 Y138.363 E5.25856
G1 X126.852 Y139.456 E5.30425
G1 X126.8 Y139.924 E5.32364
G1 X126.558 Y141.27 E5.37992
G1 X126.446 Y141.98 E5.40951
G1 X126.238 Y142.84 E5.44593
G1 X125.751 Y143.903 E5.49405
G1 X125.034 Y144.873 E5.5437
G1 X123.731 Y146.141 E5.61853
G1 X123.194 Y146.999 E5.66019
G1 X122.008 Y148.155 E5.72836
G1 X121.219 Y148.753 E5.76911
G1 X119.535 Y149.566 E5.84608
G1 X117.794 Y149.923 E5.91923
G1 X115.621 Y149.893 E6.00868
G1 X114.488 Y149.728 E6.0558
G1 X112.967 Y149.14 E6.12292
G1 X111.917 Y148.577 E6.17196
G1 X110.297 Y147.071 E6.263
G1 X109.698 Y146.109 E6.30964
G1 X109.417 Y145.841 E6.32562
G1 X109.282 Y146.313 E6.34583
G1 X108.584 Y147.798 E6.41337
G1 X107.662 Y149.118 E6.47964
G1 X106.485 Y150.299 E6.54827
G1 X105.141 Y151.234 E6.61565
G1 X103.709 Y151.919 E6.68099
G1 X102.03 Y152.376 E6.75261
G1 X100.35 Y152.509 E6.82198
G1 X98.793 Y152.374 E6.8863
G1 X97.116 Y151.917 E6.95784
G1 X95.594 Y151.18 E7.02745
G1 X94.314 Y150.266 E7.09218
G1 X93.098 Y149.035 E7.1634
G1 X92.178 Y147.679 E7.23085
G1 X91.524 Y146.252 E7.29546
G1 X91.083 Y144.584 E7.36647
G1 X90.959 Y142.974 E7.43293
G1 X89.385 Y142.929 E7.49774
G1 X87.902 Y142.704 E7.55948
G1 X86.456 Y142.292 E7.62137
G1 X84.933 Y141.637 E7.6896
G1 X83.832 Y140.996 E7.74204
G1 X82.971 Y140.37 E7.78586
G1 X81.582 Y139.066 E7.86427
G1 X80.647 Y137.907 E7.92556
G1 X79.761 Y136.448 E7.99582
G1 X79.205 Y135.197 E8.05217
G1 X78.801 Y133.895 E8.10828
G1 X78.539 Y132.508 E8.16638
G1 X78.44 Y130.663 E8.24242
G1 X78.514 Y129.615 E8.28567
G1 X78.921 Y127.61 E8.36987
G1 X79.422 Y126.203 E8.43135
G1 X79.796 Y125.418 E8.46714
G1 X80.979 Y123.586 E8.5569
G1 X81.611 Y122.84 E8.59714
G1 X82.781 Y121.745 E8.66309
G1 X82.499 Y120.801 E8.70365
G1 X82.337 Y119.847 E8.74347
G1 X82.337 Y112.401 E9.04995
G1 X82.446 Y111.825 E9.07408
G1 X81.849 Y111.235 E9.10862
G1 X81.197 Y110.419 E9.15161
G1 X80.165 Y108.748 E9.23245
G1 X79.751 Y107.834 E9.27375
G1 X79.259 Y106.331 E9.33884
G1 X78.964 Y104.774 E9.40407
G1 X78.877 Y102.985 E9.47779
G1 X78.983 Y101.677 E9.5318
G1 X79.199 Y100.535 E9.57964
G1 X79.87 Y98.524 E9.6669
G1 X80.394 Y97.473 E9.71523
G1 X81.444 Y95.897 E9.79318
G1 X82.424 Y94.793 E9.85394
G1 X83.204 Y94.086 E9.89727
G1 X84.642 Y93.062 E9.96993
G1 X85.712 Y92.489 E10.01989
G1 X89.885 Y87.998 E10.27221
G1 X91.012 Y86.943 E10.33575
G1 X91.948 Y85.002 E10.42445
G0 F1620 X92.208 Y84.462
G0 F5100 X92.709 Y84.804
G1 F1800 X101.218 Y75.603 E10.94028
G1 X103.017 Y74.472 E11.02774
G1 X104.892 Y73.818 E11.10947
G1 X106.495 Y73.651 E11.17581
G1 X112.185 Y73.633 E11.41001
G1 X113.386 Y73.909 E11.46073
G1 X114.151 Y74.228 E11.49484
G1 X115.292 Y75.01 E11.55178
G1 X116.083 Y76.031 E11.60494
G1 X116.318 Y76.498 E11.62645
G1 X117.112 Y76.498 E11.65913
G1 X117.237 Y76.246 E11.67071
G1 X117.949 Y75.209 E11.72249
G1 X118.951 Y74.432 E11.77468
G1 X120.126 Y73.836 E11.8289
G1 X121.445 Y73.633 E11.88383
G1 X127.156 Y73.667 E12.1189
G1 X128.571 Y73.831 E12.17753
G1 X130.457 Y74.492 E12.25978
G1 X132.131 Y75.545 E12.34118
G1 X133.561 Y76.975 E12.42442
G1 X134.62 Y78.666 E12.50654
G1 X134.937 Y79.578 E12.54628
G1 X137.138 Y81.234 E12.65965
G1 X138.574 Y82.548 E12.73977
G1 X139.944 Y84.588 E12.84091
G1 X140.572 Y86.388 E12.91938
G1 X140.738 Y87.327 E12.95863
G1 X140.738 Y91.081 E13.11314
G1 X140.814 Y91.476 E13.12969
G1 X140.961 Y93.023 E13.19366
G1 X140.97 Y94.466 E13.25305
G1 X141.033 Y95.34 E13.28912
G1 X141.017 Y96.024 E13.31728
G1 X140.919 Y123.934 E14.46604
G1 X140.424 Y125.705 E14.54173
G1 X139.786 Y126.718 E14.59101
G1 X139.036 Y127.635 E14.63976
G1 X137.816 Y128.505 E14.70144
G1 X136.715 Y129.004 E14.75119
G1 X135.633 Y129.235 E14.79673
G1 X135.229 Y130.69 E14.85888
G1 X134.439 Y131.945 E14.91992
G1 X133.724 Y132.715 E14.96317
G1 X132.681 Y133.461 E15.01595
G1 X131.518 Y134.003 E15.06876
G1 X130.14 Y134.298 E15.12676
G1 X127.141 Y134.298 E15.2502
G1 X126.971 Y135.287 E15.2915
G1 X126.928 Y135.689 E15.30815
G1 X126.529 Y137.971 E15.4035
G1 X126.46 Y138.238 E15.41485
G1 X126.257 Y139.375 E15.46238
G1 X126.209 Y139.818 E15.48073
G1 X125.967 Y141.164 E15.53701
G1 X125.853 Y141.886 E15.5671
G1 X125.669 Y142.64 E15.59904
G1 X125.23 Y143.599 E15.64246
G1 X124.583 Y144.474 E15.68725
G1 X123.261 Y145.761 E15.76319
G1 X122.724 Y146.619 E15.80485
G1 X121.589 Y147.725 E15.87007
G1 X120.903 Y148.239 E15.90536
G1 X119.343 Y148.993 E15.97667
G1 X117.737 Y149.322 E16.04415
G1 X115.707 Y149.299 E16.12771
G1 X114.64 Y149.144 E16.17208
G1 X113.251 Y148.611 E16.23332
G1 X112.265 Y148.082 E16.27937
G1 X110.764 Y146.687 E16.36372
G1 X110.165 Y145.725 E16.41036
G1 X109.097 Y144.704 E16.47117
G1 X108.739 Y146.058 E16.52882
G1 X108.064 Y147.494 E16.59413
G1 X107.197 Y148.735 E16.65644
G1 X106.099 Y149.837 E16.72047
G1 X104.839 Y150.714 E16.78365
G1 X103.501 Y151.354 E16.8447
G1 X101.925 Y151.783 E16.91193
G1 X100.355 Y151.907 E16.97675
G1 X98.897 Y151.78 E17.03699
G1 X97.327 Y151.353 E17.10395
G1 X95.902 Y150.663 E17.16912
G1 X94.706 Y149.809 E17.22961
G1 X93.564 Y148.653 E17.29649
G1 X92.7 Y147.379 E17.35985
G1 X92.091 Y146.05 E17.42002
G1 X91.677 Y144.484 E17.48669
G1 X91.556 Y142.931 E17.5508
G1 X91.612 Y142.295 E17.57708
G1 X90.795 Y142.369 E17.61085
G1 X89.402 Y142.329 E17.66821
G1 X88.064 Y142.126 E17.72391
G1 X86.692 Y141.74 E17.78257
G1 X85.235 Y141.118 E17.84778
G1 X84.134 Y140.477 E17.90021
G1 X83.38 Y139.931 E17.93853
G1 X82.049 Y138.689 E18.01346
G1 X81.114 Y137.53 E18.07475
G1 X80.309 Y136.204 E18.1386
G1 X79.753 Y134.953 E18.19495
G1 X79.391 Y133.784 E18.24531
G1 X79.129 Y132.397 E18.30341
G1 X79.039 Y130.705 E18.37315
G1 X79.113 Y129.657 E18.41639
G1 X79.487 Y127.81 E18.49396
G1 X79.964 Y126.461 E18.55285
G1 X80.338 Y125.676 E18.58864
G1 X81.437 Y123.974 E18.67203
G1 X82.069 Y123.228 E18.71227
G1 X83.27 Y122.109 E18.77984
G1 X83.545 Y121.913 E18.79374
G1 X83.344 Y121.546 E18.81096
G1 X83.075 Y120.632 E18.85017
G1 X82.937 Y119.796 E18.88505
G1 X82.937 Y112.401 E19.18942
G1 X83.101 Y111.626 E19.22203
G1 X82.318 Y110.86 E19.26711
G1 X81.666 Y110.044 E19.3101
G1 X80.711 Y108.498 E19.3849
G1 X80.321 Y107.646 E19.42346
G1 X79.849 Y106.219 E19.48533
G1 X79.554 Y104.662 E19.55055
G1 X79.475 Y103.032 E19.61772
G1 X79.573 Y101.789 E19.66904
G1 X79.789 Y100.647 E19.71688
G1 X80.407 Y98.792 E19.79736
G1 X80.931 Y97.741 E19.84569
G1 X81.894 Y96.294 E19.91723
G1 X82.827 Y95.238 E19.97523
G1 X83.607 Y94.531 E20.01856
G1 X84.925 Y93.591 E20.08519
G1 X86.084 Y92.971 E20.13929
G1 X90.295 Y88.436 E20.39401
G1 X91.503 Y87.305 E20.46213
G1 X92.449 Y85.344 E20.55174
G0 F1620 X92.709 Y84.804
G0 F5100 X93.211 Y85.144
G1 F1800 X101.603 Y76.07 E21.06046
G1 X103.276 Y75.018 E21.1418
G1 X105.025 Y74.408 E21.21804
G1 X106.557 Y74.248 E21.28144
G1 X112.117 Y74.233 E21.51029
G1 X113.201 Y74.482 E21.55607
G1 X113.864 Y74.759 E21.58564
G1 X114.877 Y75.453 E21.63618
G1 X115.571 Y76.349 E21.68283
G1 X115.948 Y77.098 E21.71734
G1 X117.498 Y77.098 E21.78114
G1 X117.732 Y76.585 E21.80435
G1 X118.39 Y75.626 E21.85222
G1 X119.275 Y74.94 E21.89831
G1 X120.311 Y74.415 E21.94611
G1 X121.49 Y74.233 E21.99521
G1 X127.087 Y74.263 E22.22558
G1 X128.436 Y74.419 E22.28148
G1 X130.193 Y75.035 E22.35811
G1 X131.757 Y76.019 E22.43417
G1 X133.087 Y77.349 E22.51158
G1 X134.075 Y78.927 E22.58821
G1 X134.43 Y79.948 E22.6327
G1 X136.733 Y81.677 E22.75123
G1 X138.118 Y82.944 E22.82849
G1 X139.403 Y84.858 E22.92338
G1 X139.989 Y86.537 E22.99658
G1 X140.138 Y87.38 E23.03181
G1 X140.138 Y91.139 E23.18653
G1 X140.217 Y91.534 E23.20311
G1 X140.361 Y93.027 E23.26485
G1 X140.37 Y94.486 E23.3249
G1 X140.433 Y95.326 E23.35957
G1 X140.417 Y96.01 E23.38773
G1 X140.319 Y123.851 E24.53366
G1 X139.87 Y125.458 E24.60233
G1 X139.278 Y126.398 E24.64806
G1 X138.624 Y127.192 E24.6904
G1 X137.517 Y127.981 E24.74635
G1 X136.524 Y128.431 E24.79122
G1 X135.334 Y128.685 E24.8413
G1 X135.12 Y128.698 E24.85013
G1 X135.098 Y128.918 E24.85923
G1 X134.674 Y130.445 E24.92446
G1 X133.962 Y131.577 E24.9795
G1 X133.325 Y132.263 E25.01803
G1 X132.379 Y132.939 E25.06589
G1 X131.325 Y133.431 E25.11376
G1 X130.076 Y133.698 E25.16633
G1 X126.672 Y133.698 E25.30644
G1 X126.558 Y134.15 E25.32562
G1 X126.374 Y135.223 E25.37043
G1 X126.331 Y135.625 E25.38707
G1 X125.948 Y137.821 E25.47882
G1 X125.872 Y138.115 E25.49132
G1 X125.662 Y139.29 E25.54045
G1 X125.612 Y139.754 E25.55966
G1 X125.374 Y141.072 E25.61479
G1 X125.27 Y141.744 E25.64277
G1 X125.1 Y142.44 E25.67226
G1 X124.709 Y143.295 E25.71096
G1 X124.132 Y144.075 E25.75089
G1 X122.791 Y145.381 E25.82794
G1 X122.254 Y146.239 E25.8696
G1 X121.17 Y147.295 E25.93189
G1 X120.59 Y147.724 E25.96158
G1 X119.151 Y148.419 E26.02736
G1 X117.678 Y148.721 E26.08924
G1 X115.793 Y148.705 E26.16683
G1 X114.792 Y148.56 E26.20846
G1 X113.535 Y148.082 E26.26382
G1 X112.616 Y147.589 E26.30674
G1 X111.232 Y146.303 E26.3845
G1 X110.635 Y145.343 E26.43103
G1 X109.478 Y144.237 E26.49691
G1 X108.823 Y143.434 E26.53956
G1 X108.663 Y143.14 E26.55334
G1 X108.559 Y144.391 E26.60501
G1 X108.172 Y145.853 E26.66725
G1 X107.544 Y147.19 E26.72805
G1 X106.732 Y148.352 E26.7864
G1 X105.713 Y149.375 E26.84583
G1 X104.537 Y150.194 E26.90482
G1 X103.292 Y150.789 E26.96161
G1 X101.821 Y151.189 E27.02435
G1 X100.36 Y151.305 E27.08468
G1 X99.002 Y151.187 E27.14078
G1 X97.536 Y150.788 E27.20332
G1 X96.21 Y150.146 E27.26396
G1 X95.098 Y149.352 E27.32019
G1 X94.03 Y148.271 E27.38274
G1 X93.225 Y147.084 E27.44177
G1 X92.657 Y145.843 E27.49795
G1 X92.271 Y144.383 E27.5601
G1 X92.158 Y142.937 E27.6198
G1 X92.273 Y141.63 E27.67381
G1 X90.812 Y141.769 E27.73421
G1 X89.419 Y141.729 E27.79157
G1 X88.225 Y141.548 E27.84128
G1 X86.926 Y141.187 E27.89677
G1 X85.537 Y140.599 E27.95885
G1 X84.436 Y139.958 E28.01129
G1 X83.734 Y139.446 E28.04705
G1 X82.516 Y138.312 E28.11555
G1 X81.581 Y137.153 E28.17684
G1 X80.857 Y135.96 E28.23428
G1 X80.301 Y134.709 E28.29062
G1 X79.981 Y133.673 E28.33525
G1 X79.719 Y132.286 E28.39335
G1 X79.638 Y130.747 E28.45678
G1 X79.712 Y129.699 E28.50002
G1 X80.053 Y128.009 E28.57098
G1 X80.506 Y126.719 E28.62726
G1 X80.88 Y125.934 E28.66305
G1 X81.895 Y124.362 E28.74007
G1 X82.527 Y123.616 E28.78031
G1 X83.618 Y122.598 E28.84173
G1 X84.35 Y122.076 E28.87873
G1 X83.919 Y121.373 E28.91267
G1 X83.667 Y120.534 E28.94873
G1 X83.537 Y119.746 E28.9816
G1 X83.537 Y112.464 E29.28132
G1 X83.757 Y111.426 E29.325
G1 X82.787 Y110.485 E29.38062
G1 X82.135 Y109.669 E29.42361
G1 X81.257 Y108.248 E29.49236
G1 X80.867 Y107.396 E29.53093
G1 X80.439 Y106.107 E29.58683
G1 X80.144 Y104.55 E29.65206
G1 X80.073 Y103.078 E29.71271
G1 X80.163 Y101.901 E29.7613
G1 X80.379 Y100.759 E29.80914
G1 X80.945 Y99.057 E29.88296
G1 X81.431 Y98.072 E29.92817
G1 X82.345 Y96.69 E29.99637
G1 X83.23 Y95.683 E30.05155
G1 X84.01 Y94.976 E30.09488
G1 X85.211 Y94.118 E30.15563
G1 X86.261 Y93.548 E30.2048
G1 X86.436 Y93.474 E30.21262
G1 X90.705 Y88.874 E30.47093
G1 X91.776 Y87.871 E30.53132
G1 X92.046 Y87.561 E30.54824
G1 X92.951 Y85.684 E30.63401
G0 F1620 X93.211 Y85.144
G1 F2400 E24.13401
G1 F1200 Z0.75
G0 F5100 X106.32 Y134.553 Z0.75
G1 F1200 Z0.15
G1 F2400 E30.8502
G1 F1800 X104.481 Y135.09 E30.92905
G1 X104.904 Y135.3 E30.94849
G1 X106.156 Y136.191 E31.01174
G1 X106.701 Y136.747 E31.04379
G1 X106.597 Y136.307 E31.0624
G1 X106.506 Y135.657 E31.08941
G1 X106.372 Y134.865 E31.12247
G0 F1620 X106.32 Y134.553
G0 F5100 X106.866 Y134.181
G1 F1800 X106.827 Y133.78 E31.13905
G1 X102.62 Y135.008 E31.31944
G1 X103.292 Y135.19 E31.34809
G1 X104.556 Y135.789 E31.40567
G1 X105.767 Y136.651 E31.46685
G1 X106.757 Y137.66 E31.52503
G1 X107.562 Y138.824 E31.58328
G1 X107.74 Y139.191 E31.60007
G1 X107.665 Y138.614 E31.62402
G1 X107.572 Y138.079 E31.64637
G1 X107.453 Y137.539 E31.66913
G1 X107.419 Y137.153 E31.68508
G1 X107.191 Y136.223 E31.72449
G1 X107.104 Y135.609 E31.75001
G1 X107.078 Y135.282 E31.76351
G1 X106.997 Y134.953 E31.77746
G1 X106.966 Y134.772 E31.78502
G0 F1620 X106.866 Y134.181
G0 F5100 X107.458 Y134.081
G1 F1800 X107.436 Y133.771 E31.79781
G1 X107.295 Y133.018 E31.82934
G1 X99.7 Y135.235 E32.15499
G1 X99.649 Y135.34 E32.1598
G1 X100.467 Y135.275 E32.19357
G1 X101.721 Y135.385 E32.24538
G1 X103.084 Y135.755 E32.30351
G1 X104.249 Y136.308 E32.35659
G1 X105.378 Y137.111 E32.41362
G1 X106.291 Y138.041 E32.46726
G1 X107.068 Y139.165 E32.5235
G1 X107.609 Y140.348 E32.57704
G1 X107.965 Y141.688 E32.63411
G1 X108.07 Y143.034 E32.68968
G1 X107.965 Y144.288 E32.74147
G1 X107.605 Y145.648 E32.79938
G1 X107.024 Y146.886 E32.85566
G1 X106.27 Y147.965 E32.90984
G1 X105.323 Y148.915 E32.96505
G1 X104.234 Y149.674 E33.01969
G1 X103.083 Y150.224 E33.07219
G1 X101.718 Y150.595 E33.13041
G1 X100.364 Y150.703 E33.18632
G1 X99.107 Y150.594 E33.23825
G1 X97.745 Y150.223 E33.29636
G1 X96.518 Y149.629 E33.35246
G1 X95.49 Y148.895 E33.40445
G1 X94.494 Y147.887 E33.46278
G1 X93.749 Y146.787 E33.51746
G1 X93.224 Y145.641 E33.56935
G1 X92.865 Y144.282 E33.6272
G1 X92.76 Y142.942 E33.68252
G1 X92.865 Y141.703 E33.7337
G1 X93.102 Y140.8 E33.77213
G1 X92.065 Y141.047 E33.816
G1 X90.827 Y141.169 E33.86721
G1 X89.506 Y141.135 E33.9216
G1 X88.386 Y140.97 E33.96819
G1 X87.087 Y140.609 E34.02368
G1 X85.838 Y140.08 E34.07951
G1 X84.79 Y139.473 E34.12936
G1 X84.088 Y138.961 E34.16512
G1 X82.983 Y137.935 E34.22719
G1 X82.048 Y136.776 E34.28848
G1 X81.405 Y135.715 E34.33954
G1 X80.874 Y134.53 E34.39299
G1 X80.571 Y133.562 E34.43474
G1 X80.309 Y132.175 E34.49284
G1 X80.237 Y130.789 E34.54996
G1 X80.311 Y129.741 E34.5932
G1 X80.62 Y128.206 E34.65765
G1 X81.048 Y126.977 E34.71121
G1 X81.422 Y126.192 E34.747
G1 X82.353 Y124.75 E34.81765
G1 X82.985 Y124.004 E34.85789
G1 X84.026 Y123.038 E34.91635
G1 X85.137 Y122.255 E34.97229
G1 X85.137 Y122.119 E34.97789
