;FLAVOR:Marlin
;TIME:10129
;Filament used: 18.597m
;Layer height: 0.3
;MINX:27.804
;MINY:28.079
;MINZ:0.15
;MAXX:186.868
;MAXY:187.169
;MAXZ:62.55
;TARGET_MACHINE.NAME:Unknown
;Generated with Cura_SteamEngine 5.8.1
M140 S60
M105
M190 S60
M104 S245
M105
M109 S245
M82 ;absolute extrusion mode
; Ender 3 Custom Start G-code
G92 E0 ; Reset Extruder
G28 ; Home all axes
G1 Z2.0 F3000 ; Move Z Axis up little to prevent scratching of Heat Bed
G1 X0.1 Y20 Z0.3 F5000.0 ; Move to start position
G1 X0.1 Y200.0 Z0.3 F1500.0 E15 ; Draw the first line
G1 X0.4 Y200.0 Z0.3 F5000.0 ; Move to side a little
G1 X0.4 Y20 Z0.3 F1500.0 E30 ; Draw the second line
G92 E0 ; Reset Extruder
G1 Z2.0 F3000 ; Move Z Axis up little to prevent scratching of Heat Bed
G1 X5 Y20 Z0.3 F5000.0 ; Move over to prevent blob squish
G92 E0
G92 E0
G1 F2400 E-6.5
;LAYER_COUNT:207
;LAYER:0
M107
G1 F1200 Z0.75
G0 F5100 X101.489 Y37.08 Z0.75
;TYPE:SKIRT
G1 F1200 Z0.15
G1 F2400 E0.21619
G1 F1800 X102.343 Y35.915 E0.27565
G1 X108.786 Y29.472 E0.65068
G1 X109.961 Y28.683 E0.70893
G1 X111.108 Y28.29 E0.75884
G1 X112.436 Y28.079 E0.81418
G1 X113.789 Y28.242 E0.87028
G1 X115.164 Y28.705 E0.92999
G1 X116.328 Y29.552 E0.98924
G1 X116.477 Y29.69 E0.9976
G1 X117.751 Y29.458 E1.0509
G1 X119.167 Y29.647 E1.1097
G1 X120.459 Y30.08 E1.16578
G1 X120.629 Y30.17 E1.1737
G1 X121.733 Y31.008 E1.23075
G1 X123.76 Y33.019 E1.34827
G1 X124.497 Y34.03 E1.39977
G1 X124.965 Y35.131 E1.44901
G1 X125.186 Y35.942 E1.48361
G1 X125.251 Y37.06 E1.5297
G1 X124.85 Y40.465 E1.67082
G1 X124.626 Y41.127 E1.69958
G1 X124.517 Y41.726 E1.72464
G1 X124.378 Y42.156 E1.74324
G1 X124.293 Y42.731 E1.76717
G1 X124.123 Y43.24 E1.78925
G1 X124.034 Y43.827 E1.81369
G1 X123.845 Y44.341 E1.83623
G1 X123.695 Y45.03 E1.86525
G1 X123.52 Y45.534 E1.88721
G1 X185.454 Y107.468 E5.49228
G1 X186.153 Y108.451 E5.54193
G1 X186.752 Y110.002 E5.61036
G1 X186.868 Y111.694 E5.68016
G1 X186.496 Y113.286 E5.74746
G1 X185.919 Y114.325 E5.79637
G1 X185.399 Y115.047 E5.83299
G1 X114.677 Y185.77 E9.94962
G1 X113.513 Y186.59 E10.00823
G1 X111.997 Y187.082 E10.07383
G1 X111.021 Y187.169 E10.11416
G1 X109.897 Y187.097 E10.16052
G1 X108.509 Y186.668 E10.22031
G1 X107.203 Y185.83 E10.28418
G1 X45.26 Y123.887 E13.88977
G1 X44.233 Y124.168 E13.9336
G1 X43.935 Y124.208 E13.94597
G1 X43.391 Y124.383 E13.96949
G1 X42.898 Y124.458 E13.99002
G1 X42.393 Y124.615 E14.01179
G1 X41.882 Y124.703 E14.03313
G1 X41.307 Y124.904 E14.0582
G1 X40.828 Y124.959 E14.07804
G1 X40.283 Y125.151 E14.10183
G1 X36.902 Y125.558 E14.24199
G1 X35.631 Y125.495 E14.29437
G1 X34.462 Y125.183 E14.34417
G1 X33.647 Y124.793 E14.38136
G1 X32.841 Y124.221 E14.42204
G1 X30.546 Y121.926 E14.55563
G1 X29.757 Y120.751 E14.61388
G1 X29.364 Y119.604 E14.66378
G1 X29.181 Y118.45 E14.71187
G1 X29.257 Y117.201 E14.76338
G1 X29.37 Y116.791 E14.78088
G1 X28.554 Y115.731 E14.83594
G1 X28.37 Y115.393 E14.85178
G1 X27.99 Y114.3 E14.89941
G1 X27.804 Y113.182 E14.94606
G1 X27.844 Y112.006 E14.99449
G1 X28.25 Y110.544 E15.05694
G1 X29.015 Y109.296 E15.11719
G1 X30.37 Y107.771 E15.20116
G1 X30.59 Y107.394 E15.21912
G1 X30.834 Y106.76 E15.24708
G1 X31.473 Y105.78 E15.29524
G1 X32.254 Y105.013 E15.34029
G1 X33.244 Y104.322 E15.38998
G1 X34.211 Y103.928 E15.43296
G1 X34.537 Y103.692 E15.44953
G1 X35.67 Y102.625 E15.51359
G1 X36.467 Y102.036 E15.55438
G1 X37.235 Y101.644 E15.58987
G1 X38.712 Y101.217 E15.65315
G1 X40.004 Y101.245 E15.70634
G1 X41.148 Y101.483 E15.75443
G1 X42.211 Y101.928 E15.80186
G1 X42.718 Y102.282 E15.82732
G1 X101.963 Y43.035 E19.27592
G1 X101.459 Y42.289 E19.31297
G1 X101.071 Y41.158 E19.36219
G1 X100.86 Y39.816 E19.4181
G1 X101.024 Y38.463 E19.4742
G1 X101.298 Y37.648 E19.50959
G0 F1620 X101.489 Y37.08
G0 F5100 X102.029 Y37.359
G1 F1800 X102.802 Y36.304 E19.56342
G1 X109.167 Y29.939 E19.93392
G1 X110.23 Y29.225 E19.98662
G1 X111.252 Y28.875 E20.03109
G1 X112.448 Y28.685 E20.08093
G1 X113.656 Y28.831 E20.13101
G1 X114.886 Y29.245 E20.18443
G1 X115.975 Y30.037 E20.23985
G1 X116.298 Y30.362 E20.25871
G1 X116.514 Y30.293 E20.26804
G1 X117.764 Y30.065 E20.32034
G1 X119.031 Y30.234 E20.37295
G1 X120.268 Y30.649 E20.42666
G1 X121.31 Y31.434 E20.48035
G1 X123.305 Y33.413 E20.59601
G1 X123.971 Y34.327 E20.64256
G1 X124.386 Y35.289 E20.68568
G1 X124.591 Y36.04 E20.71773
G1 X124.649 Y37.042 E20.75904
G1 X124.261 Y40.335 E20.89551
G1 X124.043 Y40.98 E20.92354
G1 X123.946 Y41.542 E20.94701
G1 X123.791 Y42.022 E20.96777
G1 X123.699 Y42.643 E20.99361
G1 X123.539 Y43.089 E21.01311
G1 X123.451 Y43.674 E21.03746
G1 X123.267 Y44.173 E21.05935
G1 X123.128 Y44.833 E21.08711
G1 X122.83 Y45.692 E21.12453
G1 X184.992 Y107.854 E24.74287
G1 X185.62 Y108.737 E24.78747
G1 X186.159 Y110.133 E24.84906
G1 X186.263 Y111.647 E24.91153
G1 X185.931 Y113.067 E24.97155
G1 X185.432 Y113.974 E25.01416
G1 X184.938 Y114.66 E25.04895
G1 X114.29 Y185.309 E29.16127
G1 X113.243 Y186.047 E29.214
G1 X111.877 Y186.49 E29.2731
G1 X111.013 Y186.567 E29.30881
G1 X110.004 Y186.502 E29.35042
G1 X108.765 Y186.119 E29.4038
G1 X107.58 Y185.359 E29.46174
G1 X45.387 Y123.166 E33.08189
G1 X45.134 Y123.299 E33.09365
G1 X44.153 Y123.573 E33.13557
G1 X43.804 Y123.62 E33.15007
G1 X43.252 Y123.798 E33.17394
G1 X42.761 Y123.872 E33.19438
G1 X42.215 Y124.042 E33.21791
G1 X41.734 Y124.119 E33.23796
G1 X41.174 Y124.315 E33.26238
G1 X40.692 Y124.371 E33.28236
G1 X40.147 Y124.563 E33.30614
G1 X36.877 Y124.956 E33.4417
G1 X35.726 Y124.899 E33.48913
G1 X34.671 Y124.618 E33.53407
G1 X33.954 Y124.274 E33.5668
G1 X33.226 Y123.758 E33.60353
G1 X31.013 Y121.545 E33.73234
G1 X30.299 Y120.482 E33.78505
G1 X29.949 Y119.46 E33.82951
G1 X29.784 Y118.419 E33.8729
G1 X29.856 Y117.237 E33.92164
G1 X30.055 Y116.624 E33.94816
G1 X29.781 Y116.342 E33.96435
G1 X29.029 Y115.365 E34.01509
G1 X28.937 Y115.196 E34.02301
G1 X28.573 Y114.15 E34.0686
G1 X28.406 Y113.144 E34.11057
G1 X28.442 Y112.095 E34.15377
G1 X28.805 Y110.786 E34.20968
G1 X29.498 Y109.656 E34.26424
G1 X30.858 Y108.125 E34.34853
G1 X31.133 Y107.654 E34.37098
G1 X31.371 Y107.036 E34.39824
G1 X31.941 Y106.162 E34.44118
G1 X32.641 Y105.474 E34.48158
G1 X33.531 Y104.853 E34.52625
G1 X34.505 Y104.456 E34.56954
G1 X34.918 Y104.158 E34.5905
G1 X36.081 Y103.062 E34.65628
G1 X36.783 Y102.548 E34.69209
G1 X37.457 Y102.204 E34.72323
G1 X38.789 Y101.819 E34.7803
G1 X39.939 Y101.844 E34.82765
G1 X40.969 Y102.058 E34.87095
G1 X41.979 Y102.481 E34.91602
G1 X42.777 Y103.071 E34.95686
G1 X102.736 Y43.11 E38.44703
G1 X102.003 Y42.023 E38.50099
G1 X101.656 Y41.011 E38.54502
G1 X101.466 Y39.806 E38.59523
G1 X101.612 Y38.597 E38.64536
G1 X101.838 Y37.927 E38.67446
G0 F1620 X102.029 Y37.359
G0 F5100 X102.568 Y37.639
G1 F1800 X103.261 Y36.693 E38.72273
G1 X109.548 Y30.406 E39.08868
G1 X110.499 Y29.767 E39.13584
G1 X111.396 Y29.46 E39.17486
G1 X112.46 Y29.291 E39.2192
G1 X113.523 Y29.42 E39.26328
G1 X114.608 Y29.785 E39.3104
G1 X115.581 Y30.492 E39.3599
G1 X116.143 Y31.058 E39.39273
G1 X116.622 Y30.883 E39.41372
G1 X117.777 Y30.672 E39.46205
G1 X118.895 Y30.821 E39.50847
G1 X119.985 Y31.187 E39.55579
G1 X120.887 Y31.86 E39.60211
G1 X122.85 Y33.807 E39.71591
G1 X123.446 Y34.625 E39.75757
G1 X123.835 Y35.527 E39.798
G1 X123.996 Y36.137 E39.82397
G1 X124.047 Y37.023 E39.8605
G1 X123.672 Y40.205 E39.99237
G1 X123.459 Y40.836 E40.01978
G1 X123.375 Y41.358 E40.04154
G1 X123.204 Y41.889 E40.06451
G1 X123.114 Y42.497 E40.0898
G1 X122.955 Y42.939 E40.10914
G1 X122.867 Y43.523 E40.13344
G1 X122.688 Y44.009 E40.15476
G1 X122.561 Y44.637 E40.18113
G1 X122.284 Y45.437 E40.21598
G1 X122.071 Y45.781 E40.23263
G1 X184.53 Y108.24 E43.86826
G1 X185.087 Y109.023 E43.90781
G1 X185.566 Y110.264 E43.96256
G1 X185.658 Y111.6 E44.01768
G1 X185.366 Y112.849 E44.07047
G1 X184.945 Y113.623 E44.10674
G1 X184.477 Y114.273 E44.13971
G1 X113.903 Y184.848 E48.24772
G1 X112.973 Y185.504 E48.29456
G1 X111.757 Y185.898 E48.34718
G1 X111.005 Y185.965 E48.37825
G1 X110.111 Y185.907 E48.41512
G1 X109.021 Y185.57 E48.46208
G1 X107.957 Y184.888 E48.5141
G1 X45.468 Y122.399 E52.15147
G1 X44.969 Y122.722 E52.17594
G1 X44.073 Y122.978 E52.21429
G1 X43.673 Y123.032 E52.23091
G1 X43.114 Y123.212 E52.25508
G1 X42.62 Y123.287 E52.27564
G1 X42.121 Y123.449 E52.29724
G1 X41.588 Y123.534 E52.31945
G1 X41.039 Y123.727 E52.3434
G1 X40.556 Y123.783 E52.36342
G1 X40.011 Y123.975 E52.3872
G1 X36.853 Y124.354 E52.51812
G1 X35.821 Y124.303 E52.56064
G1 X34.878 Y124.052 E52.60081
G1 X34.258 Y123.755 E52.6291
G1 X33.614 Y123.298 E52.66161
G1 X31.48 Y121.164 E52.78582
G1 X30.841 Y120.213 E52.83298
G1 X30.534 Y119.316 E52.872
G1 X30.387 Y118.389 E52.91064
G1 X30.455 Y117.274 E52.95661
G1 X30.752 Y116.471 E52.99185
G1 X30.256 Y115.976 E53.02069
G1 X29.504 Y114.999 E53.07144
G1 X29.157 Y114.001 E53.11493
G1 X29.008 Y113.106 E53.15227
G1 X29.04 Y112.184 E53.19025
G1 X29.36 Y111.028 E53.23962
G1 X29.981 Y110.016 E53.28849
G1 X31.346 Y108.479 E53.37309
G1 X31.676 Y107.914 E53.40002
G1 X31.908 Y107.312 E53.42658
G1 X32.411 Y106.541 E53.46447
G1 X33.023 Y105.94 E53.49977
G1 X33.819 Y105.384 E53.53974
G1 X34.794 Y104.986 E53.58308
G1 X35.306 Y104.618 E53.60904
G1 X36.493 Y103.499 E53.67618
G1 X37.098 Y103.061 E53.70692
G1 X37.681 Y102.764 E53.73385
G1 X38.866 Y102.421 E53.78463
G1 X39.874 Y102.443 E53.82613
G1 X40.79 Y102.633 E53.86463
G1 X41.68 Y103.006 E53.90435
G1 X42.455 Y103.579 E53.94402
G1 X42.789 Y103.908 E53.96332
G1 X103.587 Y43.107 E57.50235
G1 X103.164 Y42.671 E57.52735
G1 X102.546 Y41.755 E57.57283
G1 X102.241 Y40.865 E57.61155
G1 X102.072 Y39.795 E57.65614
G1 X102.201 Y38.73 E57.70029
G1 X102.377 Y38.207 E57.72301
G0 F1620 X102.568 Y37.639
G0 F5100 X103.107 Y37.919
G1 F1800 X103.72 Y37.082 E57.76571
G1 X109.929 Y30.873 E58.12712
G1 X110.768 Y30.309 E58.16873
G1 X111.54 Y30.045 E58.20232
G1 X112.471 Y29.897 E58.24112
G1 X113.391 Y30.009 E58.27926
G1 X114.331 Y30.325 E58.32008
G1 X115.187 Y30.947 E58.36363
G1 X116.024 Y31.79 E58.41253
G1 X116.253 Y31.658 E58.42341
G1 X116.73 Y31.473 E58.44446
G1 X117.79 Y31.279 E58.48882
G1 X118.759 Y31.408 E58.52905
G1 X119.703 Y31.725 E58.57004
G1 X120.528 Y32.341 E58.61242
G1 X122.393 Y34.198 E58.72074
G1 X122.921 Y34.923 E58.75766
G1 X123.284 Y35.765 E58.7954
G1 X123.4 Y36.23 E58.81512
G1 X123.445 Y37.005 E58.84708
G1 X123.084 Y40.07 E58.9741
G1 X122.876 Y40.687 E59.0009
G1 X122.783 Y41.262 E59.02488
G1 X122.619 Y41.747 E59.04595
G1 X122.53 Y42.346 E59.07087
G1 X122.371 Y42.788 E59.09021
G1 X122.283 Y43.372 E59.11452
G1 X122.108 Y43.847 E59.13535
G1 X121.994 Y44.441 E59.16025
G1 X121.717 Y45.241 E59.19509
G1 X121.291 Y45.848 E59.22561
G1 X184.068 Y108.626 E62.87978
G1 X184.554 Y109.309 E62.91428
G1 X184.973 Y110.395 E62.96219
G1 X185.053 Y111.553 E63.00997
G1 X184.8 Y112.633 E63.05562
G1 X184.458 Y113.272 E63.08546
G1 X184.016 Y113.886 E63.11659
G1 X113.516 Y184.387 E67.2203
G1 X112.703 Y184.961 E67.26126
G1 X111.637 Y185.306 E67.30738
G1 X110.997 Y185.363 E67.33383
G1 X110.218 Y185.312 E67.36596
G1 X109.277 Y185.021 E67.4065
G1 X108.334 Y184.417 E67.45259
G1 X45.549 Y121.632 E71.10719
G1 X44.718 Y122.17 E71.14794
G1 X43.908 Y122.401 E71.18261
G1 X43.543 Y122.443 E71.19773
G1 X43.023 Y122.619 E71.22033
G1 X42.48 Y122.702 E71.24294
G1 X41.936 Y122.878 E71.26647
G1 X41.445 Y122.948 E71.28688
G1 X40.903 Y123.139 E71.31054
G1 X40.42 Y123.195 E71.33055
G1 X39.875 Y123.387 E71.35433
G1 X36.829 Y123.752 E71.4806
G1 X35.916 Y123.707 E71.51822
G1 X35.087 Y123.487 E71.55353
G1 X34.565 Y123.236 E71.57737
G1 X33.999 Y122.835 E71.60592
G1 X31.947 Y120.783 E71.72536
G1 X31.383 Y119.944 E71.76697
G1 X31.119 Y119.172 E71.80055
G1 X30.99 Y118.359 E71.83443
G1 X31.049 Y117.399 E71.87402
G1 X31.367 Y116.539 E71.91176
G1 X31.474 Y116.344 E71.92092
G1 X30.68 Y115.551 E71.9671
G1 X30.039 Y114.711 E72.01059
G1 X29.74 Y113.851 E72.04807
G1 X29.61 Y113.068 E72.08074
G1 X29.638 Y112.273 E72.11348
G1 X29.915 Y111.27 E72.15631
G1 X30.464 Y110.376 E72.19949
G1 X31.835 Y108.832 E72.28448
G1 X32.218 Y108.176 E72.31574
G1 X32.445 Y107.586 E72.34176
G1 X32.876 Y106.926 E72.37421
G1 X33.408 Y106.403 E72.40491
G1 X34.108 Y105.914 E72.44006
G1 X35.085 Y105.516 E72.48348
G1 X35.69 Y105.081 E72.51415
G1 X36.845 Y103.985 E72.57969
G1 X37.411 Y103.575 E72.60845
G1 X37.905 Y103.324 E72.63126
G1 X38.943 Y103.023 E72.67574
G1 X39.809 Y103.042 E72.71139
G1 X40.608 Y103.208 E72.74498
G1 X41.383 Y103.532 E72.77956
G1 X42.098 Y104.061 E72.81616
G1 X42.786 Y104.759 E72.8565
G1 X104.437 Y43.105 E76.44519
G1 X103.662 Y42.336 E76.49012
G1 X103.089 Y41.486 E76.53232
G1 X102.826 Y40.719 E76.56569
G1 X102.678 Y39.784 E76.60465
G1 X102.79 Y38.863 E76.64284
G1 X102.917 Y38.487 E76.65917
G0 F1620 X103.107 Y37.919
G0 F5100 X103.647 Y38.197
G1 F1800 X104.177 Y37.473 E76.6961
G1 X110.31 Y31.34 E77.0531
G1 X111.037 Y30.851 E77.08916
G1 X111.684 Y30.63 E77.1173
G1 X112.482 Y30.503 E77.15056
G1 X113.259 Y30.598 E77.18278
G1 X114.054 Y30.865 E77.21729
G1 X114.793 Y31.402 E77.25489
G1 X115.935 Y32.553 E77.32163
G1 X116.485 Y32.211 E77.34829
G1 X116.838 Y32.063 E77.36404
G1 X117.803 Y31.886 E77.40442
G1 X118.623 Y31.995 E77.43847
G1 X119.421 Y32.263 E77.47312
G1 X120.169 Y32.822 E77.51155
G1 X121.935 Y34.588 E77.61435
G1 X122.396 Y35.222 E77.64661
G1 X122.706 Y35.927 E77.67831
G1 X122.801 Y36.265 E77.69276
G1 X122.843 Y36.987 E77.72253
G1 X122.495 Y39.937 E77.84479
G1 X122.29 Y40.547 E77.87128
G1 X122.215 Y41.069 E77.89299
G1 X122.034 Y41.603 E77.91619
G1 X121.946 Y42.195 E77.94083
G1 X121.787 Y42.637 E77.96016
G1 X121.7 Y43.219 E77.98438
G1 X121.528 Y43.685 E78.00483
G1 X121.427 Y44.244 E78.02821
G1 X121.176 Y44.968 E78.05975
G1 X120.705 Y45.64 E78.09352
G1 X120.467 Y45.872 E78.1072
G1 X183.606 Y109.012 E81.78244
G1 X184.021 Y109.595 E81.81189
G1 X184.38 Y110.526 E81.85296
G1 X184.448 Y111.506 E81.8934
G1 X184.234 Y112.419 E81.93199
G1 X183.929 Y112.989 E81.9586
G1 X183.558 Y113.496 E81.98446
G1 X113.129 Y183.926 E86.08404
G1 X112.433 Y184.417 E86.11909
G1 X111.52 Y184.714 E86.15861
G1 X110.989 Y184.761 E86.18055
G1 X110.327 Y184.718 E86.20786
G1 X109.53 Y184.471 E86.2422
G1 X108.713 Y183.948 E86.28213
G1 X45.552 Y120.787 E89.95862
G1 X45.196 Y121.152 E89.9796
G1 X44.469 Y121.617 E90.01512
G1 X43.792 Y121.81 E90.0441
G1 X43.409 Y121.855 E90.05997
G1 X42.831 Y122.05 E90.08508
G1 X42.347 Y122.114 E90.10517
G1 X41.751 Y122.307 E90.13096
G1 X41.31 Y122.36 E90.14924
G1 X40.767 Y122.551 E90.17293
G1 X40.284 Y122.607 E90.19294
G1 X39.739 Y122.799 E90.21673
G1 X36.805 Y123.15 E90.33835
G1 X36.011 Y123.111 E90.37107
G1 X35.29 Y122.92 E90.40177
G1 X34.912 Y122.746 E90.4189
G1 X34.384 Y122.372 E90.44553
G1 X32.414 Y120.402 E90.5602
G1 X31.925 Y119.675 E90.59626
G1 X31.704 Y119.028 E90.6244
G1 X31.593 Y118.329 E90.65353
G1 X31.643 Y117.524 E90.68673
G1 X31.93 Y116.747 E90.72082
G1 X32.234 Y116.253 E90.7447
G1 X31.157 Y115.187 E90.80707
G1 X30.575 Y114.424 E90.84657
G1 X30.324 Y113.702 E90.87803
G1 X30.212 Y113.03 E90.90607
G1 X30.236 Y112.362 E90.93358
G1 X30.47 Y111.515 E90.96975
G1 X30.95 Y110.732 E91.00755
G1 X32.323 Y109.186 E91.09265
G1 X32.76 Y108.438 E91.12831
G1 X32.982 Y107.86 E91.15379
G1 X33.341 Y107.311 E91.18079
G1 X33.793 Y106.866 E91.2069
G1 X34.397 Y106.444 E91.23723
G1 X35.36 Y106.052 E91.28002
G1 X35.69 Y105.847 E91.29601
G1 X36.083 Y105.535 E91.31667
G1 X37.197 Y104.471 E91.38007
G1 X37.763 Y104.061 E91.40884
G1 X38.072 Y103.9 E91.42318
G1 X39.02 Y103.625 E91.46381
G1 X39.739 Y103.641 E91.49341
G1 X40.434 Y103.785 E91.52262
G1 X41.083 Y104.057 E91.55158
G1 X41.702 Y104.514 E91.58325
G1 X42.782 Y105.611 E91.64661
G1 X105.287 Y43.103 E95.28501
G1 X104.126 Y41.951 E95.35232
G1 X103.632 Y41.217 E95.38874
G1 X103.411 Y40.573 E95.41676
G1 X103.284 Y39.773 E95.4501
G1 X103.379 Y38.995 E95.48236
G1 X103.457 Y38.765 E95.49236
G0 F1620 X103.647 Y38.197
G0 F5100 X104.187 Y38.475
G1 F1800 X104.634 Y37.864 E95.52352
G1 X110.691 Y31.807 E95.87609
G1 X111.306 Y31.393 E95.9066
G1 X111.828 Y31.215 E95.9293
G1 X112.493 Y31.109 E95.95702
G1 X113.127 Y31.187 E95.98331
G1 X113.777 Y31.405 E96.01153
G1 X114.399 Y31.857 E96.04317
G1 X115.433 Y32.899 E96.10359
G1 X115.834 Y33.409 E96.1303
