;FLAVOR:Marlin
;TIME:9255
;Filament used: 15.5091m
;Layer height: 0.3
;MINX:39.172
;MINY:44.437
;MINZ:0.02
;MAXX:180.778
;MAXY:179.268
;MAXZ:30.5
;TARGET_MACHINE.NAME:Unknown
;Generated with Cura_SteamEngine 5.8.1
M140 S60
M105
M190 S60
M104 S245
M105
M109 S245
M82 ;absolute extrusion mode
; Ender 3 Custom Start G-code
G92 E0 ; Reset Extruder
G28 ; Home all axes
G1 Z2.0 F3000 ; Move Z Axis up little to prevent scratching of Heat Bed
G1 X0.1 Y20 Z0.3 F5000.0 ; Move to start position
G1 X0.1 Y200.0 Z0.3 F1500.0 E15 ; Draw the first line
G1 X0.4 Y200.0 Z0.3 F5000.0 ; Move to side a little
G1 X0.4 Y20 Z0.3 F1500.0 E30 ; Draw the second line
G92 E0 ; Reset Extruder
G1 Z2.0 F3000 ; Move Z Axis up little to prevent scratching of Heat Bed
G1 X5 Y20 Z0.3 F5000.0 ; Move over to prevent blob squish
G92 E0
G92 E0
G1 F2400 E-6.5
;LAYER_COUNT:100
;LAYER:0
M107
G1 F1200 Z0.8
G0 F5100 X79.63 Y47.467 Z0.8
;TYPE:SKIRT
G1 F1200 Z0.2
G1 F2400 E0.21619
G1 F1800 X80.128 Y46.675 E0.26753
G1 X81.026 Y45.737 E0.3388
G1 X81.793 Y45.236 E0.38907
G1 X82.925 Y44.665 E0.45865
G1 X84.364 Y44.438 E0.5386
G1 X158.962 Y44.437 E4.63248
G1 X160.41 Y44.741 E4.71368
G1 X161.523 Y45.285 E4.78166
G1 X162.645 Y46.132 E4.85881
G1 X163.61 Y47.496 E4.95051
G1 X164.11 Y48.855 E5.02998
G1 X164.265 Y50.495 E5.12038
G1 X163.986 Y52.016 E5.20524
G1 X163.466 Y53.264 E5.27944
G1 X162.553 Y54.386 E5.35883
G1 X161.533 Y55.211 E5.43082
G1 X160.333 Y55.742 E5.50283
G1 X159.565 Y55.914 E5.54603
G1 X159.966 Y56.193 E5.57284
G1 X161.209 Y57.599 E5.67583
G1 X161.79 Y58.53 E5.73605
G1 X162.152 Y59.633 E5.79976
G1 X162.215 Y60.064 E5.82366
G1 X162.332 Y60.433 E5.84491
G1 X162.486 Y61.189 E5.88725
G1 X162.487 Y62.894 E5.98082
G1 X162.472 Y63.048 E5.98931
G1 X162.566 Y63.201 E5.99916
G1 X163.157 Y64.462 E6.07559
G1 X163.541 Y66.289 E6.17804
G1 X163.377 Y67.805 E6.26173
G1 X162.972 Y69.134 E6.33797
G1 X162.463 Y70.355 E6.41057
G1 X161.693 Y71.589 E6.49039
G1 X161.129 Y72.154 E6.5342
G1 X163.545 Y72.154 E6.66679
G1 X164.851 Y72.455 E6.74034
G1 X165.725 Y72.821 E6.79234
G1 X166.994 Y73.689 E6.87672
G1 X167.877 Y74.828 E6.95581
G1 X168.528 Y76.12 E7.03521
G1 X168.755 Y77.559 E7.11515
G1 X168.755 Y96.6 E8.16011
G1 X168.454 Y97.906 E8.23366
G1 X168.088 Y98.78 E8.28566
G1 X167.22 Y100.049 E8.37003
G1 X166.081 Y100.932 E8.44913
G1 X164.789 Y101.583 E8.52852
G1 X163.351 Y101.81 E8.60842
G1 X159.571 Y101.818 E8.81586
G1 X158.482 Y101.745 E8.87576
G1 X157.532 Y101.726 E8.9279
G1 X156.429 Y101.769 E8.98848
G1 X155.858 Y101.83 E9.01999
G1 X155.543 Y101.967 E9.03885
G1 X155.412 Y102.086 E9.04856
G1 X155.233 Y102.384 E9.06764
G1 X155.194 Y102.738 E9.08718
G1 X155.234 Y102.926 E9.09773
G1 X155.395 Y103.211 E9.11569
G1 X155.55 Y103.351 E9.12715
G1 X155.849 Y103.486 E9.14516
G1 X156.426 Y103.548 E9.17701
G1 X157.532 Y103.591 E9.23775
G1 X158.507 Y103.572 E9.29127
G1 X159.943 Y103.494 E9.37019
G1 X160.291 Y103.508 E9.3893
G1 X163.545 Y103.508 E9.56788
G1 X164.851 Y103.809 E9.64143
G1 X165.725 Y104.175 E9.69343
G1 X166.994 Y105.043 E9.77781
G1 X167.877 Y106.182 E9.8569
G1 X168.528 Y107.474 E9.93629
G1 X168.755 Y108.913 E10.01624
G1 X168.755 Y126.155 E10.96247
G1 X175.568 Y126.155 E11.33636
G1 X176.874 Y126.456 E11.40991
G1 X177.748 Y126.822 E11.46191
G1 X179.017 Y127.69 E11.54629
G1 X179.9 Y128.829 E11.62538
G1 X180.551 Y130.121 E11.70477
G1 X180.778 Y131.56 E11.78472
G1 X180.778 Y168.588 E13.81679
G1 X180.473 Y170.045 E13.89848
G1 X179.908 Y171.197 E13.9689
G1 X179.292 Y171.978 E14.02348
G1 X178.554 Y172.681 E14.07942
G1 X178.004 Y173.074 E14.11652
G1 X176.958 Y173.555 E14.1797
G1 X175.538 Y173.874 E14.25957
G1 X145.454 Y173.874 E15.91056
G1 X145.439 Y174.123 E15.92425
G1 X145.153 Y175.361 E15.99398
G1 X144.785 Y176.24 E16.04627
G1 X143.924 Y177.498 E16.12993
G1 X142.83 Y178.363 E16.20647
G1 X141.615 Y178.976 E16.28115
G1 X140.195 Y179.268 E16.36071
G1 X102.908 Y179.268 E18.40699
G1 X101.651 Y178.958 E18.47804
G1 X100.764 Y178.601 E18.53052
G1 X99.486 Y177.726 E18.61551
G1 X98.616 Y176.601 E18.69356
G1 X97.962 Y175.3 E18.77347
G1 X97.735 Y173.863 E18.85331
G1 X97.735 Y168.379 E19.15427
G1 X65.009 Y168.379 E20.95025
G1 X63.752 Y168.069 E21.0213
G1 X62.865 Y167.712 E21.07377
G1 X61.587 Y166.837 E21.15877
G1 X60.717 Y165.712 E21.23682
G1 X60.063 Y164.411 E21.31673
G1 X59.836 Y162.974 E21.39657
G1 X59.836 Y131.963 E23.09843
G1 X44.345 Y131.963 E23.94856
G1 X43.088 Y131.653 E24.01961
G1 X42.201 Y131.296 E24.07208
G1 X40.923 Y130.421 E24.15708
G1 X40.053 Y129.296 E24.23513
G1 X39.399 Y127.995 E24.31504
G1 X39.172 Y126.558 E24.39488
G1 X39.172 Y89.453 E26.43117
G1 X39.473 Y88.147 E26.50472
G1 X39.839 Y87.273 E26.55672
G1 X40.707 Y86.004 E26.6411
G1 X41.846 Y85.121 E26.72019
G1 X43.138 Y84.47 E26.79959
G1 X44.577 Y84.243 E26.87953
G1 X74.373 Y84.243 E28.51472
G1 X74.373 Y77.364 E28.89223
G1 X74.674 Y76.058 E28.96578
G1 X75.04 Y75.184 E29.01778
G1 X75.908 Y73.915 E29.10216
G1 X77.047 Y73.032 E29.18125
G1 X78.339 Y72.381 E29.26064
G1 X79.778 Y72.154 E29.34059
G1 X85.011 Y72.154 E29.62777
G1 X85.06 Y71.937 E29.63998
G1 X85.054 Y71.331 E29.67324
G1 X85.171 Y70.403 E29.72457
G1 X85.408 Y69.742 E29.76311
G1 X85.001 Y68.713 E29.82384
G1 X84.856 Y67.373 E29.8978
G1 X84.704 Y67.216 E29.9098
G1 X84.099 Y66.407 E29.96523
G1 X83.596 Y65.365 E30.02873
G1 X83.284 Y64.085 E30.10103
G1 X83.284 Y60.694 E30.28713
G1 X83.587 Y59.255 E30.36783
G1 X84.187 Y58.034 E30.44249
G1 X84.975 Y57.042 E30.51202
G1 X85.315 Y56.774 E30.53578
G1 X85.261 Y56.038 E30.57628
G1 X84.164 Y56.038 E30.63648
G1 X82.761 Y55.695 E30.71574
G1 X82.074 Y55.429 E30.75617
G1 X80.863 Y54.601 E30.83668
G1 X80.587 Y54.339 E30.85757
G1 X79.812 Y53.325 E30.92761
G1 X79.387 Y52.425 E30.98223
G1 X79.089 Y51.551 E31.0329
G1 X78.938 Y49.981 E31.11946
G1 X79.217 Y48.464 E31.20411
G1 X79.458 Y47.882 E31.23868
G0 F1620 X79.63 Y47.467
G0 F5100 X80.165 Y47.744
G1 F1800 X80.602 Y47.049 E31.28373
G1 X81.414 Y46.2 E31.3482
G1 X82.063 Y45.772 E31.39087
G1 X83.111 Y45.243 E31.45529
G1 X84.413 Y45.038 E31.52763
G1 X158.901 Y45.037 E35.61547
G1 X160.212 Y45.312 E35.68898
G1 X161.206 Y45.798 E35.7497
G1 X162.21 Y46.556 E35.81874
G1 X163.074 Y47.778 E35.90087
G1 X163.52 Y48.99 E35.97175
G1 X163.66 Y50.468 E36.05322
G1 X163.408 Y51.843 E36.12994
G1 X162.945 Y52.954 E36.19599
G1 X162.128 Y53.958 E36.26703
G1 X161.218 Y54.694 E36.33126
G1 X160.14 Y55.171 E36.39595
G1 X158.949 Y55.438 E36.46293
G1 X157.262 Y55.438 E36.55552
G1 X157.279 Y55.5 E36.55904
G1 X158.122 Y55.731 E36.60701
G1 X159.517 Y56.59 E36.69692
G1 X160.724 Y57.955 E36.79691
G1 X161.243 Y58.787 E36.85073
G1 X161.565 Y59.768 E36.90739
G1 X161.628 Y60.199 E36.9313
G1 X161.744 Y60.553 E36.95174
G1 X161.886 Y61.25 E36.99078
G1 X161.887 Y62.894 E37.081
G1 X161.848 Y63.196 E37.09771
G1 X162.023 Y63.456 E37.11491
G1 X162.585 Y64.654 E37.18753
G1 X162.934 Y66.317 E37.28078
G1 X162.786 Y67.687 E37.3564
G1 X162.418 Y68.903 E37.42613
G1 X161.926 Y70.082 E37.49624
G1 X161.222 Y71.211 E37.56925
G1 X160.024 Y72.412 E37.66235
G1 X159.398 Y72.754 E37.70149
G1 X163.475 Y72.754 E37.92524
G1 X164.67 Y73.029 E37.99253
G1 X165.436 Y73.35 E38.03811
G1 X166.577 Y74.131 E38.11399
G1 X167.367 Y75.15 E38.18475
G1 X167.95 Y76.306 E38.2558
G1 X168.155 Y77.608 E38.32814
G1 X168.155 Y96.53 E39.36656
G1 X167.88 Y97.725 E39.43386
G1 X167.559 Y98.491 E39.47944
G1 X166.778 Y99.632 E39.55532
G1 X165.759 Y100.422 E39.62608
G1 X164.603 Y101.005 E39.69713
G1 X163.302 Y101.21 E39.76941
G1 X160.2 Y101.211 E39.93964
G1 X159.611 Y101.219 E39.97197
G1 X158.513 Y101.145 E40.03236
G1 X157.52 Y101.126 E40.08687
G1 X156.386 Y101.17 E40.14915
G1 X155.733 Y101.24 E40.18519
G1 X155.44 Y101.335 E40.20209
G1 X155.189 Y101.479 E40.21797
G1 X154.963 Y101.684 E40.23472
G1 X154.77 Y101.949 E40.25271
G1 X154.659 Y102.198 E40.26767
G1 X154.594 Y102.508 E40.28505
G1 X154.594 Y102.802 E40.30119
G1 X154.66 Y103.111 E40.31853
G1 X154.785 Y103.394 E40.33551
G1 X154.948 Y103.616 E40.35062
G1 X155.191 Y103.836 E40.36861
G1 X155.454 Y103.988 E40.38528
G1 X155.727 Y104.077 E40.40104
G1 X156.383 Y104.147 E40.43724
G1 X157.52 Y104.191 E40.49969
G1 X158.524 Y104.172 E40.5548
G1 X159.919 Y104.094 E40.63147
G1 X160.267 Y104.108 E40.65059
G1 X163.475 Y104.108 E40.82664
G1 X164.67 Y104.383 E40.89393
G1 X165.436 Y104.704 E40.93951
G1 X166.577 Y105.485 E41.01539
G1 X167.367 Y106.504 E41.08615
G1 X167.95 Y107.66 E41.1572
G1 X168.155 Y108.962 E41.22954
G1 X168.155 Y126.755 E42.206
G1 X175.498 Y126.755 E42.60898
G1 X176.693 Y127.03 E42.67628
G1 X177.459 Y127.351 E42.72186
G1 X178.6 Y128.132 E42.79774
G1 X179.39 Y129.151 E42.8685
G1 X179.973 Y130.307 E42.93955
G1 X180.178 Y131.609 E43.01188
G1 X180.178 Y168.527 E45.03791
G1 X179.902 Y169.847 E45.11192
G1 X179.397 Y170.876 E45.17482
G1 X178.876 Y171.546 E45.2214
G1 X178.205 Y172.193 E45.27256
G1 X177.702 Y172.552 E45.30647
G1 X176.763 Y172.984 E45.36319
G1 X175.473 Y173.274 E45.43575
G1 X144.854 Y173.274 E47.1161
G1 X144.854 Y173.988 E47.15528
G1 X144.579 Y175.18 E47.22242
G1 X144.256 Y175.951 E47.26829
G1 X143.481 Y177.083 E47.34358
G1 X142.505 Y177.855 E47.41187
G1 X141.42 Y178.403 E47.47858
G1 X140.132 Y178.668 E47.55075
G1 X102.983 Y178.668 E49.58946
G1 X101.795 Y178.375 E49.65661
G1 X101.049 Y178.069 E49.70086
G1 X99.904 Y177.285 E49.77701
G1 X99.126 Y176.279 E49.8468
G1 X98.54 Y175.114 E49.91837
G1 X98.335 Y173.814 E49.99059
G1 X98.335 Y167.779 E50.32179
G1 X65.084 Y167.779 E52.14658
G1 X63.896 Y167.486 E52.21373
G1 X63.15 Y167.18 E52.25798
G1 X62.005 Y166.396 E52.33413
G1 X61.227 Y165.39 E52.40393
G1 X60.641 Y164.225 E52.47549
G1 X60.436 Y162.925 E52.54772
G1 X60.436 Y131.363 E54.27982
G1 X44.42 Y131.363 E55.15876
G1 X43.232 Y131.07 E55.22591
G1 X42.486 Y130.764 E55.27016
G1 X41.341 Y129.98 E55.34632
G1 X40.563 Y128.974 E55.41611
G1 X39.977 Y127.809 E55.48768
G1 X39.772 Y126.509 E55.5599
G1 X39.772 Y89.523 E57.58966
G1 X40.047 Y88.328 E57.65696
G1 X40.368 Y87.562 E57.70254
G1 X41.149 Y86.421 E57.77842
G1 X42.168 Y85.631 E57.84918
G1 X43.324 Y85.048 E57.92023
G1 X44.626 Y84.843 E57.99256
G1 X74.973 Y84.843 E59.65798
G1 X74.973 Y77.434 E60.06458
G1 X75.248 Y76.239 E60.13188
G1 X75.569 Y75.473 E60.17746
G1 X76.35 Y74.332 E60.25334
G1 X77.369 Y73.542 E60.3241
G1 X78.525 Y72.959 E60.39515
G1 X79.827 Y72.754 E60.46748
G1 X85.425 Y72.754 E60.7747
G1 X85.608 Y72.271 E60.80304
G1 X85.661 Y71.985 E60.819
G1 X85.649 Y71.406 E60.85079
G1 X85.757 Y70.546 E60.89835
G1 X86.05 Y69.732 E60.94583
G1 X85.588 Y68.566 E61.01466
G1 X85.453 Y67.341 E61.08229
G1 X85.462 Y67.121 E61.09438
G1 X85.184 Y66.857 E61.11542
G1 X84.616 Y66.098 E61.16744
G1 X84.164 Y65.16 E61.22458
G1 X83.884 Y64.013 E61.28938
G1 X83.884 Y60.755 E61.46818
G1 X84.158 Y59.452 E61.54125
G1 X84.696 Y58.358 E61.60815
G1 X85.445 Y57.415 E61.67424
G1 X85.937 Y57.07 E61.70722
G1 X85.856 Y55.948 E61.76895
G1 X85.948 Y55.438 E61.79739
G1 X84.235 Y55.438 E61.8914
G1 X82.978 Y55.135 E61.96236
G1 X82.353 Y54.893 E61.99914
G1 X81.202 Y54.106 E62.07566
G1 X81.064 Y53.975 E62.0861
G1 X80.327 Y53.01 E62.15274
G1 X79.955 Y52.231 E62.20012
G1 X79.679 Y51.422 E62.24703
G1 X79.543 Y50.007 E62.32504
G1 X79.795 Y48.635 E62.40159
G1 X79.993 Y48.159 E62.42988
G0 F1620 X80.165 Y47.744
G0 F5100 X80.698 Y48.024
G1 F1800 X81.078 Y47.42 E62.46905
G1 X81.803 Y46.662 E62.52661
G1 X82.333 Y46.308 E62.56159
G1 X83.297 Y45.822 E62.62083
G1 X84.463 Y45.638 E62.68561
G1 X158.84 Y45.637 E66.76736
G1 X160.014 Y45.883 E66.83319
G1 X160.889 Y46.311 E66.88665
G1 X161.775 Y46.98 E66.94758
G1 X162.538 Y48.06 E67.02014
G1 X162.93 Y49.125 E67.08242
G1 X163.055 Y50.441 E67.15497
G1 X162.83 Y51.67 E67.22354
G1 X162.424 Y52.644 E67.28145
G1 X161.703 Y53.53 E67.34414
G1 X160.903 Y54.177 E67.4006
G1 X159.947 Y54.6 E67.45797
G1 X158.885 Y54.838 E67.5177
G1 X156.48 Y54.838 E67.64968
G1 X156.715 Y55.713 E67.6994
G1 X156.731 Y55.972 E67.71365
G1 X157.883 Y56.288 E67.7792
G1 X159.126 Y57.053 E67.8593
G1 X160.243 Y58.317 E67.95187
G1 X160.695 Y59.042 E67.99876
G1 X160.978 Y59.904 E68.04855
G1 X161.042 Y60.34 E68.07273
G1 X161.156 Y60.673 E68.09205
G1 X161.286 Y61.311 E68.12778
G1 X161.287 Y62.894 E68.21465
G1 X161.219 Y63.35 E68.23996
G1 X161.48 Y63.711 E68.2644
G1 X162.013 Y64.846 E68.33322
G1 X162.328 Y66.348 E68.41744
G1 X162.196 Y67.563 E68.48451
G1 X161.864 Y68.672 E68.54804
G1 X161.391 Y69.806 E68.61547
G1 X160.749 Y70.835 E68.68203
G1 X159.661 Y71.926 E68.76659
G1 X158.433 Y72.597 E68.84338
G1 X157.887 Y72.791 E68.87518
G1 X156.774 Y72.984 E68.93717
G1 X156.852 Y73.354 E68.95793
G1 X163.405 Y73.354 E69.31755
G1 X164.486 Y73.603 E69.37843
G1 X165.149 Y73.88 E69.41786
G1 X166.162 Y74.574 E69.48525
G1 X166.855 Y75.469 E69.54737
G1 X167.371 Y76.492 E69.61025
G1 X167.555 Y77.658 E69.67503
G1 X167.555 Y96.46 E70.70687
G1 X167.306 Y97.541 E70.76774
G1 X167.029 Y98.204 E70.80718
G1 X166.335 Y99.217 E70.87456
G1 X165.44 Y99.91 E70.93668
G1 X164.417 Y100.426 E70.99956
G1 X163.252 Y100.61 E71.06429
G1 X160.19 Y100.611 E71.23233
G1 X159.652 Y100.62 E71.26186
G1 X158.545 Y100.545 E71.32275
G1 X157.508 Y100.526 E71.37967
G1 X156.343 Y100.571 E71.44365
G1 X155.611 Y100.649 E71.48405
G1 X155.194 Y100.785 E71.50812
G1 X154.835 Y100.991 E71.53084
G1 X154.512 Y101.284 E71.55477
G1 X154.25 Y101.643 E71.57916
G1 X154.085 Y102.015 E71.60149
G1 X153.994 Y102.446 E71.62567
G1 X153.994 Y102.867 E71.64877
G1 X154.086 Y103.297 E71.6729
G1 X154.261 Y103.693 E71.69666
G1 X154.5 Y104.02 E71.71889
G1 X154.839 Y104.326 E71.74395
G1 X155.208 Y104.539 E71.76733
G1 X155.602 Y104.667 E71.79007
G1 X156.34 Y104.746 E71.8308
G1 X157.508 Y104.791 E71.89495
G1 X158.545 Y104.772 E71.95187
G1 X159.895 Y104.694 E72.02608
G1 X160.243 Y104.708 E72.04519
G1 X163.405 Y104.708 E72.21872
G1 X164.486 Y104.957 E72.2796
G1 X165.149 Y105.234 E72.31903
G1 X166.162 Y105.928 E72.38642
G1 X166.855 Y106.823 E72.44854
G1 X167.371 Y107.846 E72.51142
G1 X167.555 Y109.012 E72.5762
G1 X167.555 Y127.355 E73.58285
G1 X175.428 Y127.355 E74.01491
G1 X176.509 Y127.604 E74.07579
G1 X177.172 Y127.881 E74.11522
G1 X178.185 Y128.575 E74.18261
G1 X178.878 Y129.47 E74.24473
G1 X179.394 Y130.493 E74.30761
G1 X179.578 Y131.659 E74.37239
G1 X179.578 Y168.466 E76.39233
G1 X179.331 Y169.649 E76.45865
G1 X178.885 Y170.558 E76.51422
G1 X178.457 Y171.116 E76.55281
G1 X177.846 Y171.712 E76.59965
G1 X177.451 Y172.007 E76.62671
G1 X176.567 Y172.414 E76.68012
G1 X175.409 Y172.674 E76.74525
G1 X144.254 Y172.674 E78.45501
G1 X144.254 Y173.918 E78.52328
G1 X144.005 Y174.999 E78.58416
G1 X143.727 Y175.662 E78.62361
G1 X143.038 Y176.668 E78.69053
G1 X142.182 Y177.345 E78.75042
G1 X141.22 Y177.831 E78.80957
G1 X140.069 Y178.068 E78.87406
G1 X103.058 Y178.068 E80.9052
G1 X101.939 Y177.792 E80.96845
G1 X101.337 Y177.539 E81.00428
G1 X100.322 Y176.844 E81.07179
G1 X99.636 Y175.957 E81.13333
G1 X99.119 Y174.929 E81.19648
G1 X98.935 Y173.764 E81.2612
G1 X98.935 Y167.179 E81.62258
G1 X65.159 Y167.179 E83.47618
G1 X64.04 Y166.903 E83.53943
G1 X63.438 Y166.65 E83.57527
G1 X62.423 Y165.955 E83.64278
G1 X61.737 Y165.068 E83.70432
G1 X61.22 Y164.04 E83.76747
G1 X61.036 Y162.875 E83.83219
G1 X61.036 Y130.763 E85.59447
G1 X44.495 Y130.763 E86.50223
G1 X43.376 Y130.487 E86.56548
G1 X42.774 Y130.234 E86.60132
G1 X41.759 Y129.539 E86.66883
G1 X41.073 Y128.652 E86.73036
G1 X40.556 Y127.624 E86.79351
G1 X40.372 Y126.459 E86.85824
G1 X40.372 Y89.593 E88.88142
G1 X40.621 Y88.512 E88.9423
G1 X40.898 Y87.849 E88.98173
G1 X41.592 Y86.836 E89.04912
G1 X42.487 Y86.143 E89.11124
G1 X43.51 Y85.627 E89.17411
G1 X44.676 Y85.443 E89.2389
G1 X75.573 Y85.443 E90.9345
G1 X75.573 Y77.504 E91.37018
G1 X75.822 Y76.423 E91.43106
G1 X76.099 Y75.76 E91.4705
G1 X76.793 Y74.747 E91.53788
G1 X77.688 Y74.054 E91.6
G1 X78.711 Y73.538 E91.66288
G1 X79.877 Y73.354 E91.72766
G1 X85.869 Y73.354 E92.0565
G1 X85.911 Y73.163 E92.06723
G1 X86.188 Y72.435 E92.10998
G1 X86.263 Y72.027 E92.13274
G1 X86.244 Y71.481 E92.16273
G1 X86.343 Y70.69 E92.20647
G1 X86.616 Y69.929 E92.25084
G1 X86.744 Y69.686 E92.26592
G1 X86.557 Y69.382 E92.2855
G1 X86.175 Y68.418 E92.34241
G1 X86.049 Y67.275 E92.40552
G1 X86.091 Y66.879 E92.42737
G1 X85.664 Y66.498 E92.45878
