;FLAVOR:Marlin
;TIME:9219
;Filament used: 15.1641m
;Layer height: 0.3
;MINX:4.172
;MINY:8.127
;MINZ:0.15
;MAXX:145.778
;MAXY:144.268
;MAXZ:29.25
;TARGET_MACHINE.NAME:Printrbot Simple
;Generated with Cura_SteamEngine 5.8.1
M140 S60
M105
M190 S60
M82 ;absolute extrusion mode


M106
M109 S245.0
G21;
G90;
M82;
G28
G90
G1 Z3 F150;

G1 Z5.0

G28 X0 Y0 ;move X/Y to min endstops
G29
M109 S245.0
G92 E0.0 ; reset extruder distance position
G1 Z0.4 F200.0

G91          ;relative positioning
G1 Y-160 X30 F500 ;move Z up a bit and retract filament even more
G90
G1 X-20.0 E20 F220.0 ; intro line
G92 E0.0 ; reset extruder distance position
G92 E0
M106
M109 S245.0
G21;
G90;
M82;
G28
G90
G1 Z3 F150;

G1 Z5.0

G28 X0 Y0 ;move X/Y to min endstops
G29
M109 S245.0
G92 E0.0 ; reset extruder distance position
G1 Z0.8 F200.0
G1 Y-2.0 F500.0 ; go outside print area
G1 X-20.0 E20 F200.0 ; intro line
G92 E0.0 ; reset extruder distance position
G92 E0
G1 F2400 E-6.5
;LAYER_COUNT:96
;LAYER:0
M107
G1 F1200 Z0.75
G0 F5100 X44.26 Y12.031 Z0.75
;TYPE:SKIRT
G1 F1200 Z0.15
G1 F2400 E0.21619
G1 F1800 X44.626 Y11.157 E0.25519
G1 X45.494 Y9.888 E0.31847
G1 X46.634 Y9.005 E0.37782
G1 X47.925 Y8.354 E0.43733
G1 X49.365 Y8.127 E0.49733
G1 X123.864 Y8.146 E3.56367
G1 X124.915 Y8.288 E3.60732
G1 X125.467 Y8.456 E3.63107
G1 X126.591 Y9.007 E3.68259
G1 X127.526 Y9.747 E3.73167
G1 X128.098 Y10.432 E3.7684
G1 X128.77 Y11.499 E3.8203
G1 X129.118 Y12.733 E3.87308
G1 X129.244 Y13.531 E3.90633
G1 X129.244 Y17.063 E4.0517
G1 X128.939 Y18.52 E4.11297
G1 X128.374 Y19.672 E4.16578
G1 X127.758 Y20.453 E4.20673
G1 X127.02 Y21.156 E4.24868
G1 X126.47 Y21.548 E4.27648
G1 X125.594 Y21.952 E4.31618
G1 X125.839 Y22.226 E4.33131
G1 X126.242 Y22.839 E4.3615
G1 X126.905 Y23.467 E4.39909
G1 X127.685 Y24.505 E4.45253
G1 X128.276 Y25.904 E4.51504
G1 X128.552 Y26.863 E4.55612
G1 X128.574 Y28.572 E4.62646
G1 X128.328 Y29.392 E4.6617
G1 X128.875 Y30.559 E4.71475
G1 X129.138 Y32.118 E4.77982
G1 X129.141 Y33.15 E4.8223
G1 X128.848 Y34.654 E4.88537
G1 X128.783 Y34.831 E4.89313
G1 X128.109 Y36.038 E4.95003
G1 X127.405 Y36.902 E4.9959
G1 X127.131 Y37.154 E5.01122
G1 X128.545 Y37.154 E5.06942
G1 X129.851 Y37.455 E5.12458
G1 X130.725 Y37.821 E5.16359
G1 X131.994 Y38.689 E5.22687
G1 X132.877 Y39.828 E5.28618
G1 X133.528 Y41.12 E5.34573
G1 X133.755 Y42.559 E5.40569
G1 X133.755 Y61.6 E6.18941
G1 X133.454 Y62.906 E6.24457
G1 X133.088 Y63.78 E6.28357
G1 X132.22 Y65.049 E6.34685
G1 X131.081 Y65.932 E6.40617
G1 X129.789 Y66.583 E6.46572
G1 X128.35 Y66.81 E6.52568
G1 X125.222 Y66.81 E6.65443
G1 X124.572 Y66.818 E6.68118
G1 X123.482 Y66.745 E6.72615
G1 X122.532 Y66.726 E6.76526
G1 X121.429 Y66.769 E6.81069
G1 X120.858 Y66.83 E6.83432
G1 X120.543 Y66.967 E6.84846
G1 X120.412 Y67.086 E6.85575
G1 X120.233 Y67.384 E6.87006
G1 X120.194 Y67.738 E6.88471
G1 X120.234 Y67.926 E6.89263
G1 X120.395 Y68.211 E6.9061
G1 X120.55 Y68.351 E6.91469
G1 X120.849 Y68.486 E6.9282
G1 X121.426 Y68.548 E6.95208
G1 X122.532 Y68.591 E6.99764
G1 X123.507 Y68.572 E7.03778
G1 X124.943 Y68.494 E7.09697
G1 X125.291 Y68.508 E7.11131
G1 X128.545 Y68.508 E7.24524
G1 X129.851 Y68.809 E7.3004
G1 X130.725 Y69.175 E7.3394
G1 X131.994 Y70.043 E7.40268
G1 X132.877 Y71.182 E7.462
G1 X133.528 Y72.474 E7.52155
G1 X133.755 Y73.913 E7.58151
G1 X133.755 Y91.155 E8.29118
G1 X140.568 Y91.155 E8.5716
G1 X141.874 Y91.456 E8.62676
G1 X142.748 Y91.822 E8.66576
G1 X144.017 Y92.69 E8.72904
G1 X144.9 Y93.829 E8.78836
G1 X145.551 Y95.121 E8.84791
G1 X145.778 Y96.56 E8.90787
G1 X145.778 Y133.588 E10.43192
G1 X145.473 Y135.045 E10.49319
G1 X144.908 Y136.197 E10.546
G1 X144.292 Y136.978 E10.58694
G1 X143.554 Y137.681 E10.62889
G1 X143.004 Y138.074 E10.65672
G1 X141.958 Y138.555 E10.7041
G1 X140.538 Y138.874 E10.76401
G1 X110.454 Y138.874 E12.00225
G1 X110.437 Y139.133 E12.01293
G1 X110.111 Y140.466 E12.06941
G1 X109.845 Y141.153 E12.09973
G1 X108.912 Y142.517 E12.16775
G1 X107.779 Y143.392 E12.22667
G1 X106.438 Y144.049 E12.28814
G1 X105.043 Y144.268 E12.34626
G1 X67.923 Y144.267 E13.87409
G1 X66.41 Y143.904 E13.93814
G1 X65.554 Y143.457 E13.97788
G1 X64.486 Y142.726 E14.03115
G1 X63.616 Y141.601 E14.08969
G1 X62.962 Y140.3 E14.14962
G1 X62.735 Y138.863 E14.2095
G1 X62.735 Y133.379 E14.43522
G1 X30.009 Y133.379 E15.7822
G1 X28.752 Y133.069 E15.83549
G1 X27.865 Y132.712 E15.87484
G1 X26.587 Y131.837 E15.93859
G1 X25.717 Y130.712 E15.99713
G1 X25.063 Y129.411 E16.05706
G1 X24.836 Y127.974 E16.11694
G1 X24.836 Y96.963 E17.39334
G1 X9.345 Y96.963 E18.03094
G1 X8.088 Y96.653 E18.08422
G1 X7.201 Y96.296 E18.12358
G1 X5.923 Y95.421 E18.18733
G1 X5.053 Y94.296 E18.24586
G1 X4.399 Y92.995 E18.3058
G1 X4.172 Y91.558 E18.36568
G1 X4.172 Y54.453 E19.8929
G1 X4.473 Y53.147 E19.94806
G1 X4.839 Y52.273 E19.98706
G1 X5.707 Y51.004 E20.05034
G1 X6.846 Y50.121 E20.10966
G1 X8.138 Y49.47 E20.16921
G1 X9.577 Y49.243 E20.22917
G1 X39.373 Y49.243 E21.45555
G1 X39.373 Y42.364 E21.73869
G1 X39.674 Y41.058 E21.79385
G1 X40.04 Y40.184 E21.83285
G1 X40.908 Y38.915 E21.89613
G1 X42.047 Y38.032 E21.95545
G1 X43.339 Y37.381 E22.015
G1 X44.778 Y37.154 E22.07496
G1 X49.993 Y37.154 E22.28961
G1 X50.578 Y35.993 E22.34312
G1 X51.69 Y34.735 E22.41222
G1 X52.716 Y34.089 E22.46213
G1 X52.124 Y33.964 E22.48703
G1 X50.903 Y33.364 E22.54302
G1 X49.844 Y32.523 E22.59869
G1 X48.98 Y31.29 E22.66065
G1 X48.585 Y30.333 E22.70327
G1 X48.284 Y29.056 E22.75727
G1 X48.284 Y25.608 E22.89919
G1 X48.587 Y24.169 E22.95971
G1 X49.187 Y22.948 E23.01571
G1 X49.662 Y22.349 E23.04717
G1 X49.104 Y22.334 E23.07015
G1 X47.863 Y22.048 E23.12257
G1 X46.989 Y21.682 E23.16157
G1 X45.72 Y20.814 E23.22485
G1 X44.837 Y19.675 E23.28417
G1 X44.186 Y18.383 E23.34371
G1 X43.959 Y16.944 E23.40367
G1 X43.959 Y13.337 E23.55214
G1 X44.126 Y12.615 E23.58264
G0 F1620 X44.26 Y12.031
G0 F5100 X44.834 Y12.212
G1 F1800 X45.155 Y11.446 E23.61682
G1 X45.936 Y10.305 E23.67373
G1 X46.955 Y9.515 E23.7268
G1 X48.111 Y8.933 E23.78007
G1 X49.415 Y8.727 E23.83441
G1 X123.784 Y8.741 E26.8954
G1 X124.835 Y8.883 E26.93905
G1 X125.203 Y8.995 E26.95488
G1 X126.272 Y9.519 E27.00388
G1 X127.102 Y10.176 E27.04745
G1 X127.59 Y10.752 E27.07852
G1 X128.216 Y11.746 E27.12687
G1 X128.525 Y12.827 E27.17315
G1 X128.644 Y13.581 E27.20457
G1 X128.644 Y17.002 E27.34537
G1 X128.368 Y18.322 E27.40088
G1 X127.863 Y19.351 E27.44806
G1 X127.342 Y20.021 E27.48299
G1 X126.671 Y20.668 E27.52136
G1 X126.168 Y21.027 E27.54679
G1 X125.229 Y21.46 E27.58935
G1 X124.415 Y21.642 E27.62368
G1 X124.644 Y21.816 E27.63552
G1 X125.338 Y22.556 E27.67728
G1 X125.781 Y23.229 E27.71044
G1 X126.458 Y23.87 E27.74881
G1 X127.161 Y24.807 E27.79703
G1 X127.699 Y26.07 E27.85353
G1 X127.953 Y26.953 E27.89135
G1 X127.973 Y28.486 E27.95445
G1 X127.687 Y29.438 E27.99536
G1 X128.296 Y30.738 E28.05445
G1 X128.538 Y32.172 E28.11431
G1 X128.541 Y33.092 E28.15218
G1 X128.259 Y34.539 E28.21285
G1 X127.611 Y35.7 E28.26758
G1 X126.94 Y36.523 E28.31129
G1 X126.15 Y37.217 E28.35457
G1 X125.171 Y37.754 E28.40053
G1 X128.475 Y37.754 E28.53652
G1 X129.67 Y38.029 E28.58699
G1 X130.436 Y38.35 E28.62117
G1 X131.577 Y39.131 E28.67808
G1 X132.367 Y40.15 E28.73115
G1 X132.95 Y41.306 E28.78444
G1 X133.155 Y42.608 E28.83869
G1 X133.155 Y61.53 E29.61751
G1 X132.88 Y62.725 E29.66798
G1 X132.559 Y63.491 E29.70216
G1 X131.778 Y64.632 E29.75908
G1 X130.759 Y65.422 E29.81215
G1 X129.603 Y66.005 E29.86543
G1 X128.301 Y66.21 E29.91968
G1 X125.213 Y66.21 E30.04678
G1 X124.612 Y66.219 E30.07152
G1 X123.513 Y66.145 E30.11686
G1 X122.52 Y66.126 E30.15774
G1 X121.386 Y66.17 E30.20445
G1 X120.733 Y66.24 E30.23148
G1 X120.44 Y66.335 E30.24416
G1 X120.189 Y66.479 E30.25607
G1 X119.963 Y66.684 E30.26863
G1 X119.77 Y66.949 E30.28212
G1 X119.659 Y67.198 E30.29334
G1 X119.594 Y67.508 E30.30638
G1 X119.594 Y67.802 E30.31848
G1 X119.66 Y68.111 E30.33148
G1 X119.785 Y68.394 E30.34422
G1 X119.948 Y68.616 E30.35555
G1 X120.191 Y68.836 E30.36905
G1 X120.454 Y68.988 E30.38155
G1 X120.727 Y69.077 E30.39337
G1 X121.383 Y69.147 E30.42052
G1 X122.52 Y69.191 E30.46735
G1 X123.524 Y69.172 E30.50869
G1 X124.919 Y69.094 E30.56619
G1 X125.267 Y69.108 E30.58053
G1 X128.475 Y69.108 E30.71257
G1 X129.67 Y69.383 E30.76304
G1 X130.436 Y69.704 E30.79722
G1 X131.577 Y70.485 E30.85413
G1 X132.367 Y71.504 E30.9072
G1 X132.95 Y72.66 E30.96049
G1 X133.155 Y73.962 E31.01474
G1 X133.155 Y91.755 E31.74709
G1 X140.498 Y91.755 E32.04932
G1 X141.693 Y92.03 E32.0998
G1 X142.459 Y92.351 E32.13398
G1 X143.6 Y93.132 E32.19089
G1 X144.39 Y94.151 E32.24396
G1 X144.973 Y95.307 E32.29725
G1 X145.178 Y96.609 E32.3515
G1 X145.178 Y133.527 E33.87102
G1 X144.902 Y134.847 E33.92653
G1 X144.397 Y135.876 E33.97371
G1 X143.876 Y136.546 E34.00864
G1 X143.205 Y137.193 E34.04701
G1 X142.702 Y137.552 E34.07244
G1 X141.763 Y137.984 E34.11498
G1 X140.473 Y138.274 E34.1694
G1 X109.854 Y138.274 E35.42966
G1 X109.854 Y138.992 E35.45922
G1 X109.551 Y140.249 E35.51244
G1 X109.309 Y140.874 E35.54002
G1 X108.471 Y142.099 E35.60111
G1 X107.458 Y142.881 E35.65378
G1 X106.263 Y143.469 E35.7086
G1 X104.995 Y143.668 E35.76143
G1 X67.992 Y143.667 E37.28445
G1 X66.623 Y143.338 E37.3424
G1 X65.893 Y142.962 E37.3762
G1 X64.904 Y142.285 E37.42553
G1 X64.126 Y141.279 E37.47788
G1 X63.54 Y140.114 E37.53155
G1 X63.335 Y138.814 E37.58572
G1 X63.335 Y132.779 E37.83412
G1 X30.084 Y132.779 E39.20271
G1 X28.896 Y132.486 E39.25307
G1 X28.15 Y132.18 E39.28626
G1 X27.005 Y131.396 E39.34337
G1 X26.227 Y130.39 E39.39572
G1 X25.641 Y129.225 E39.44939
G1 X25.436 Y127.925 E39.50356
G1 X25.436 Y96.363 E40.80264
G1 X9.42 Y96.363 E41.46184
G1 X8.232 Y96.07 E41.51221
G1 X7.486 Y95.764 E41.5454
G1 X6.341 Y94.98 E41.60251
G1 X5.563 Y93.974 E41.65486
G1 X4.977 Y92.809 E41.70853
G1 X4.772 Y91.509 E41.7627
G1 X4.772 Y54.523 E43.28502
G1 X5.047 Y53.328 E43.33549
G1 X5.368 Y52.562 E43.36968
G1 X6.149 Y51.421 E43.42659
G1 X7.168 Y50.631 E43.47966
G1 X8.324 Y50.048 E43.53295
G1 X9.626 Y49.843 E43.5872
G1 X39.973 Y49.843 E44.83626
G1 X39.973 Y42.434 E45.14121
G1 X40.248 Y41.239 E45.19168
G1 X40.569 Y40.473 E45.22587
G1 X41.35 Y39.332 E45.28278
G1 X42.369 Y38.542 E45.33585
G1 X43.525 Y37.959 E45.38914
G1 X44.827 Y37.754 E45.44339
G1 X50.363 Y37.754 E45.67124
G1 X51.079 Y36.332 E45.73677
G1 X52.083 Y35.196 E45.79917
G1 X54.105 Y33.924 E45.8975
G1 X54.759 Y33.667 E45.92642
G1 X53.624 Y33.667 E45.97313
G1 X52.321 Y33.393 E46.02794
G1 X51.227 Y32.855 E46.07812
G1 X50.284 Y32.106 E46.12768
G1 X49.509 Y31 E46.18327
G1 X49.158 Y30.151 E46.22108
G1 X48.884 Y28.987 E46.2703
G1 X48.884 Y25.669 E46.40687
G1 X49.158 Y24.366 E46.46167
G1 X49.696 Y23.272 E46.51185
G1 X50.395 Y22.391 E46.55814
G1 X50.899 Y22.009 E46.58417
G1 X50.863 Y21.749 E46.59497
G1 X49.239 Y21.749 E46.66182
G1 X48.044 Y21.474 E46.71229
G1 X47.278 Y21.153 E46.74647
G1 X46.137 Y20.372 E46.80338
G1 X45.347 Y19.353 E46.85645
G1 X44.764 Y18.197 E46.90974
G1 X44.559 Y16.895 E46.96399
G1 X44.559 Y13.407 E47.10755
G1 X44.7 Y12.796 E47.13336
G0 F1620 X44.834 Y12.212
G0 F5100 X45.408 Y12.396
G1 F1800 X45.685 Y11.733 E47.16294
G1 X46.379 Y10.72 E47.21348
G1 X47.274 Y10.027 E47.26007
G1 X48.297 Y9.511 E47.30723
G1 X49.464 Y9.327 E47.35585
G1 X123.704 Y9.336 E50.41153
G1 X124.755 Y9.478 E50.45518
G1 X124.939 Y9.534 E50.4631
G1 X125.953 Y10.031 E50.50958
G1 X126.682 Y10.608 E50.54784
G1 X127.082 Y11.072 E50.57306
G1 X127.663 Y11.995 E50.61795
G1 X127.932 Y12.92 E50.6576
G1 X128.044 Y13.63 E50.68718
G1 X128.044 Y16.941 E50.82346
G1 X127.797 Y18.124 E50.8732
G1 X127.351 Y19.033 E50.91488
G1 X126.923 Y19.591 E50.94382
G1 X126.312 Y20.187 E50.97895
G1 X125.917 Y20.482 E50.99925
G1 X125.033 Y20.889 E51.0393
G1 X123.875 Y21.149 E51.08815
G1 X122.239 Y21.149 E51.15549
G1 X123.296 Y21.603 E51.20284
G1 X124.206 Y22.226 E51.24823
G1 X124.865 Y22.929 E51.28789
G1 X125.319 Y23.618 E51.32185
G1 X126.008 Y24.27 E51.36089
G1 X126.638 Y25.11 E51.40411
G1 X127.122 Y26.236 E51.45456
G1 X127.354 Y27.043 E51.48912
G1 X127.372 Y28.401 E51.54502
G1 X127.047 Y29.484 E51.59156
G1 X127.717 Y30.915 E51.65659
G1 X127.938 Y32.226 E51.71131
G1 X127.941 Y33.034 E51.74457
G1 X127.688 Y34.331 E51.79896
G1 X127.113 Y35.362 E51.84755
G1 X126.508 Y36.104 E51.88695
G1 X125.803 Y36.723 E51.92557
G1 X124.658 Y37.351 E51.97932
G1 X123.383 Y37.673 E52.03345
G1 X121.71 Y37.673 E52.10231
G1 X121.903 Y38.089 E52.12118
G1 X121.975 Y38.354 E52.13248
G1 X128.405 Y38.354 E52.39714
G1 X129.486 Y38.603 E52.4428
G1 X130.149 Y38.88 E52.47237
G1 X131.162 Y39.574 E52.52291
G1 X131.855 Y40.469 E52.5695
G1 X132.371 Y41.492 E52.61666
G1 X132.555 Y42.658 E52.66525
G1 X132.555 Y61.46 E53.43913
G1 X132.306 Y62.541 E53.48479
G1 X132.029 Y63.204 E53.51436
G1 X131.335 Y64.217 E53.5649
G1 X130.44 Y64.91 E53.61149
G1 X129.417 Y65.426 E53.65865
G1 X128.251 Y65.61 E53.70724
G1 X125.202 Y65.61 E53.83273
G1 X124.653 Y65.62 E53.85533
G1 X123.545 Y65.545 E53.90104
G1 X122.508 Y65.526 E53.94373
G1 X121.343 Y65.571 E53.99172
G1 X120.611 Y65.649 E54.02201
G1 X120.194 Y65.785 E54.04007
G1 X119.835 Y65.991 E54.0571
G1 X119.512 Y66.284 E54.07505
G1 X119.25 Y66.643 E54.09335
G1 X119.085 Y67.015 E54.1101
G1 X118.994 Y67.446 E54.12823
G1 X118.994 Y67.867 E54.14555
G1 X119.086 Y68.297 E54.16365
G1 X119.261 Y68.693 E54.18147
G1 X119.5 Y69.02 E54.19814
G1 X119.839 Y69.326 E54.21694
G1 X120.208 Y69.539 E54.23448
G1 X120.602 Y69.667 E54.25153
G1 X121.34 Y69.746 E54.28208
G1 X122.508 Y69.791 E54.33019
G1 X123.545 Y69.772 E54.37288
G1 X124.895 Y69.694 E54.42854
G1 X125.243 Y69.708 E54.44287
G1 X128.405 Y69.708 E54.57302
G1 X129.486 Y69.957 E54.61868
G1 X130.149 Y70.234 E54.64825
G1 X131.162 Y70.928 E54.69879
G1 X131.855 Y71.823 E54.74538
G1 X132.371 Y72.846 E54.79254
G1 X132.555 Y74.012 E54.84113
G1 X132.555 Y92.355 E55.59611
G1 X140.428 Y92.355 E55.92016
G1 X141.509 Y92.604 E55.96582
G1 X142.172 Y92.881 E55.99539
G1 X143.185 Y93.575 E56.04593
G1 X143.878 Y94.47 E56.09252
G1 X144.394 Y95.493 E56.13968
G1 X144.578 Y96.659 E56.18827
G1 X144.578 Y133.466 E57.70322
G1 X144.331 Y134.649 E57.75297
G1 X143.885 Y135.558 E57.79464
G1 X143.457 Y136.116 E57.82358
G1 X142.846 Y136.712 E57.85872
G1 X142.451 Y137.007 E57.87901
G1 X141.567 Y137.414 E57.91906
G1 X140.409 Y137.674 E57.96791
G1 X109.254 Y137.674 E59.25023
G1 X109.254 Y138.92 E59.30152
G1 X108.991 Y140.032 E59.34855
G1 X108.773 Y140.595 E59.3734
G1 X108.03 Y141.681 E59.42756
G1 X107.137 Y142.371 E59.47401
G1 X106.082 Y142.89 E59.5224
G1 X104.947 Y143.068 E59.56969
G1 X68.061 Y143.067 E61.0879
G1 X66.834 Y142.772 E61.13984
G1 X66.232 Y142.467 E61.16761
G1 X65.322 Y141.844 E61.21301
G1 X64.636 Y140.957 E61.25916
G1 X64.119 Y139.929 E61.30652
G1 X63.935 Y138.764 E61.35507
G1 X63.935 Y132.179 E61.6261
G1 X30.159 Y132.179 E63.0163
G1 X29.04 Y131.903 E63.06374
G1 X28.438 Y131.65 E63.09062
G1 X27.423 Y130.955 E63.14125
G1 X26.737 Y130.068 E63.1874
G1 X26.22 Y129.04 E63.23476
G1 X26.036 Y127.875 E63.28331
G1 X26.036 Y95.763 E64.60502
G1 X9.495 Y95.763 E65.28584
G1 X8.376 Y95.487 E65.33327
G1 X7.774 Y95.234 E65.36015
G1 X6.759 Y94.539 E65.41078
G1 X6.073 Y93.652 E65.45694
G1 X5.556 Y92.624 E65.5043
G1 X5.372 Y91.459 E65.55284
G1 X5.372 Y54.593 E67.07023
G1 X5.621 Y53.512 E67.11588
G1 X5.898 Y52.849 E67.14546
G1 X6.592 Y51.836 E67.196
G1 X7.487 Y51.143 E67.24259
G1 X8.51 Y50.627 E67.28975
G1 X9.676 Y50.443 E67.33833
G1 X40.573 Y50.443 E68.61004
G1 X40.573 Y42.504 E68.9368
G1 X40.822 Y41.423 E68.98246
G1 X41.099 Y40.76 E69.01203
G1 X41.793 Y39.747 E69.06257
G1 X42.688 Y39.054 E69.10916
G1 X43.711 Y38.538 E69.15632
G1 X44.877 Y38.354 E69.20491
G1 X50.822 Y38.354 E69.4496
G1 X50.907 Y38.001 E69.46455
G1 X51.579 Y36.672 E69.52584
G1 X52.476 Y35.657 E69.5816
G1 X54.374 Y34.463 E69.67389
G1 X55.477 Y34.03 E69.72266
G1 X56.305 Y33.926 E69.75701
G1 X55.995 Y33.067 E69.7946
G1 X53.686 Y33.067 E69.88963
G1 X52.517 Y32.821 E69.9388
G1 X51.551 Y32.346 E69.98311
G1 X50.724 Y31.689 E70.02658
G1 X50.04 Y30.713 E70.07564
G1 X49.731 Y29.965 E70.10895
G1 X49.484 Y28.917 E70.15326
G1 X49.484 Y25.731 E70.2844
G1 X49.73 Y24.562 E70.33357
G1 X50.205 Y23.596 E70.37787
G1 X50.865 Y22.764 E70.42158
G1 X51.556 Y22.282 E70.45626
