;FLAVOR:Marlin
;TIME:1007
;Filament used: 1.45864m
;Layer height: 0.3
;MINX:82.684
;MINY:80.205
;MINZ:0.15
;MAXX:136.847
;MAXY:123.898
;MAXZ:14.85
;TARGET_MACHINE.NAME:Unknown
;Generated with Cura_SteamEngine 5.8.1
M140 S60
M105
M190 S60
M104 S245
M105
M109 S245
M82 ;absolute extrusion mode
; Ender 3 Custom Start G-code
G92 E0 ; Reset Extruder
G28 ; Home all axes
G1 Z2.0 F3000 ; Move Z Axis up little to prevent scratching of Heat Bed
G1 X0.1 Y20 Z0.3 F5000.0 ; Move to start position
G1 X0.1 Y200.0 Z0.3 F1500.0 E15 ; Draw the first line
G1 X0.4 Y200.0 Z0.3 F5000.0 ; Move to side a little
G1 X0.4 Y20 Z0.3 F1500.0 E30 ; Draw the second line
G92 E0 ; Reset Extruder
G1 Z2.0 F3000 ; Move Z Axis up little to prevent scratching of Heat Bed
G1 X5 Y20 Z0.3 F5000.0 ; Move over to prevent blob squish
G92 E0
G92 E0
G1 F2400 E-6.5
;LAYER_COUNT:48
;LAYER:0
M107
G1 F1200 Z0.75
G0 F5100 X84.428 Y81.765 Z0.75
;TYPE:SKIRT
G1 F1200 Z0.15
G1 F2400 E0.21619
G1 F1800 X85.661 Y80.901 E0.27816
G1 X86.618 Y80.506 E0.32077
G1 X87.895 Y80.205 E0.37477
G1 X98.704 Y80.225 E0.81967
G1 X99.849 Y80.38 E0.86722
G1 X100.17 Y80.47 E0.88095
G1 X101.373 Y81.063 E0.93615
G1 X102.503 Y81.92 E0.99452
G1 X103.459 Y83.283 E1.06305
G1 X103.827 Y84.324 E1.10849
G1 X104.084 Y85.415 E1.15463
G1 X104.084 Y96.327 E1.60376
G1 X103.9 Y97.2 E1.64048
G1 X131.637 Y97.2 E2.78212
G1 X132.943 Y97.501 E2.83728
G1 X133.817 Y97.867 E2.87628
G1 X135.086 Y98.735 E2.93956
G1 X135.969 Y99.874 E2.99888
G1 X136.62 Y101.166 E3.05843
G1 X136.847 Y102.605 E3.11839
G1 X136.847 Y117.59 E3.73516
G1 X136.546 Y118.896 E3.79033
G1 X136.18 Y119.77 E3.82933
G1 X135.312 Y121.039 E3.89261
G1 X134.173 Y121.922 E3.95193
G1 X132.881 Y122.573 E4.01147
G1 X131.442 Y122.8 E4.07143
G1 X95.104 Y122.801 E5.56708
G1 X94.934 Y122.928 E5.57582
G1 X94.419 Y123.221 E5.60021
G1 X93.557 Y123.595 E5.63888
G1 X92.063 Y123.898 E5.70162
G1 X90.032 Y123.73 E5.7855
G1 X89.239 Y123.56 E5.81889
G1 X88.517 Y123.314 E5.85028
G1 X87.143 Y122.47 E5.91665
G1 X86.296 Y121.523 E5.96894
G1 X85.763 Y120.654 E6.0109
G1 X85.339 Y119.614 E6.05713
G1 X85.138 Y118.399 E6.10782
G1 X85.137 Y101.48 E6.8042
G1 X85.301 Y100.701 E6.83696
G1 X84.244 Y99.861 E6.89253
G1 X83.38 Y98.628 E6.9545
G1 X82.985 Y97.671 E6.99711
G1 X82.684 Y96.394 E7.05111
G1 X82.684 Y85.484 E7.50016
G1 X82.987 Y84.045 E7.56069
G1 X83.587 Y82.824 E7.61669
G1 X84.055 Y82.234 E7.64768
G0 F1620 X84.428 Y81.765
G0 F5100 X84.845 Y82.205
G1 F1800 X85.951 Y81.43 E7.70327
G1 X86.8 Y81.079 E7.74108
G1 X87.964 Y80.805 E7.7903
G1 X98.624 Y80.82 E8.22906
G1 X99.769 Y80.975 E8.27662
G1 X99.954 Y81.032 E8.28459
G1 X101.057 Y81.576 E8.33521
G1 X102.066 Y82.341 E8.38732
G1 X102.92 Y83.559 E8.44855
G1 X103.243 Y84.462 E8.48802
G1 X103.484 Y85.485 E8.53128
G1 X103.484 Y96.265 E8.97498
G1 X103.225 Y97.496 E9.02676
G1 X103.096 Y97.8 E9.04035
G1 X131.567 Y97.8 E10.2122
G1 X132.762 Y98.075 E10.26267
G1 X133.528 Y98.396 E10.29685
G1 X134.669 Y99.177 E10.35377
G1 X135.459 Y100.196 E10.40683
G1 X136.042 Y101.352 E10.46012
G1 X136.247 Y102.654 E10.51437
G1 X136.247 Y117.52 E11.12625
G1 X135.972 Y118.715 E11.17672
G1 X135.651 Y119.481 E11.2109
G1 X134.87 Y120.622 E11.26782
G1 X133.851 Y121.412 E11.32089
G1 X132.695 Y121.995 E11.37417
G1 X131.393 Y122.2 E11.42842
G1 X94.892 Y122.201 E12.93078
G1 X94.637 Y122.406 E12.94425
G1 X94.122 Y122.699 E12.96864
G1 X93.377 Y123.019 E13.00201
G1 X92.033 Y123.294 E13.05847
G1 X90.158 Y123.143 E13.1359
G1 X89.365 Y122.973 E13.16928
G1 X88.772 Y122.767 E13.19512
G1 X87.532 Y122.005 E13.25502
G1 X86.78 Y121.164 E13.30146
G1 X86.299 Y120.379 E13.33935
G1 X85.92 Y119.452 E13.38057
G1 X85.738 Y118.349 E13.42658
G1 X85.737 Y101.542 E14.11835
G1 X85.984 Y100.368 E14.16773
G1 X85.578 Y100.154 E14.18662
G1 X84.684 Y99.444 E14.23361
G1 X83.909 Y98.338 E14.28919
G1 X83.558 Y97.489 E14.32701
G1 X83.284 Y96.325 E14.37623
G1 X83.284 Y85.545 E14.81992
G1 X83.558 Y84.242 E14.87473
G1 X84.096 Y83.148 E14.92491
G1 X84.472 Y82.674 E14.94981
G0 F1620 X84.845 Y82.205
G0 F5100 X85.262 Y82.645
G1 F1800 X86.238 Y81.961 E14.99886
G1 X86.986 Y81.652 E15.03217
G1 X88.034 Y81.405 E15.07649
G1 X98.544 Y81.415 E15.50908
G1 X99.689 Y81.57 E15.55663
G1 X100.738 Y82.087 E15.60477
G1 X101.629 Y82.763 E15.6508
G1 X102.383 Y83.838 E15.70485
G1 X102.659 Y84.6 E15.73821
G1 X102.884 Y85.555 E15.77859
G1 X102.884 Y96.203 E16.21685
G1 X102.638 Y97.372 E16.26602
G1 X102.132 Y98.4 E16.31318
G1 X131.497 Y98.4 E17.52183
G1 X132.578 Y98.649 E17.56749
G1 X133.241 Y98.926 E17.59706
G1 X134.254 Y99.62 E17.6476
G1 X134.947 Y100.515 E17.69419
G1 X135.463 Y101.538 E17.74135
G1 X135.647 Y102.704 E17.78994
G1 X135.647 Y117.45 E18.39688
G1 X135.398 Y118.531 E18.44253
G1 X135.121 Y119.194 E18.47211
G1 X134.427 Y120.207 E18.52265
G1 X133.532 Y120.9 E18.56924
G1 X132.509 Y121.416 E18.6164
G1 X131.343 Y121.6 E18.66498
G1 X94.671 Y121.601 E20.17438
G1 X94.336 Y121.887 E20.19251
G1 X93.885 Y122.148 E20.21396
G1 X93.198 Y122.443 E20.24473
G1 X91.995 Y122.689 E20.29527
G1 X90.284 Y122.556 E20.36591
G1 X89.491 Y122.386 E20.39929
G1 X89.03 Y122.221 E20.41944
G1 X87.921 Y121.54 E20.47301
G1 X87.263 Y120.804 E20.51364
G1 X86.835 Y120.106 E20.54734
G1 X86.501 Y119.289 E20.58367
G1 X86.338 Y118.3 E20.62493
G1 X86.337 Y101.603 E21.31216
G1 X86.569 Y100.496 E21.35872
G1 X86.754 Y100.079 E21.3775
G1 X85.951 Y99.684 E21.41433
G1 X85.124 Y99.027 E21.4578
G1 X84.44 Y98.051 E21.50686
G1 X84.131 Y97.303 E21.54017
G1 X83.884 Y96.255 E21.58448
G1 X83.884 Y85.607 E22.02275
G1 X84.13 Y84.438 E22.07192
G1 X84.605 Y83.472 E22.11622
G1 X84.889 Y83.114 E22.13503
G0 F1620 X85.262 Y82.645
G0 F5100 X85.679 Y83.085
G1 F1800 X86.525 Y82.492 E22.17756
G1 X87.172 Y82.225 E22.20637
G1 X88.104 Y82.005 E22.24578
G1 X98.464 Y82.01 E22.67219
G1 X99.513 Y82.152 E22.71576
G1 X100.422 Y82.6 E22.75747
G1 X101.191 Y83.183 E22.79719
G1 X101.846 Y84.117 E22.84415
G1 X102.075 Y84.738 E22.87139
G1 X102.284 Y85.625 E22.9089
G1 X102.284 Y96.141 E23.34173
G1 X102.066 Y97.176 E23.38526
G1 X101.587 Y98.15 E23.42994
G1 X101.006 Y98.773 E23.465
G1 X100.71 Y99 E23.48035
G1 X131.427 Y99 E24.74465
G1 X132.394 Y99.223 E24.78549
G1 X132.954 Y99.457 E24.81047
G1 X133.839 Y100.063 E24.85462
G1 X134.436 Y100.834 E24.89476
G1 X134.885 Y101.724 E24.93579
G1 X135.047 Y102.753 E24.97866
G1 X135.047 Y117.38 E25.5807
G1 X134.824 Y118.347 E25.62155
G1 X134.59 Y118.907 E25.64653
G1 X133.984 Y119.792 E25.69067
G1 X133.213 Y120.389 E25.73081
G1 X132.323 Y120.838 E25.77184
G1 X131.294 Y121 E25.81471
G1 X94.441 Y121.001 E27.33156
G1 X94.03 Y121.371 E27.35432
G1 X93.649 Y121.597 E27.37256
G1 X93.017 Y121.868 E27.40086
G1 X91.956 Y122.084 E27.44543
G1 X90.41 Y121.969 E27.50923
G1 X89.617 Y121.799 E27.54262
G1 X89.29 Y121.677 E27.55698
G1 X88.31 Y121.075 E27.60432
G1 X87.746 Y120.444 E27.63915
G1 X87.374 Y119.838 E27.66842
G1 X87.082 Y119.122 E27.70025
G1 X86.938 Y118.25 E27.73662
G1 X86.937 Y101.664 E28.41929
G1 X87.156 Y100.619 E28.46324
G1 X87.616 Y99.693 E28.5058
G1 X87.045 Y99.554 E28.52999
G1 X86.275 Y99.175 E28.56531
G1 X85.564 Y98.61 E28.60269
G1 X84.971 Y97.764 E28.64521
G1 X84.704 Y97.117 E28.67402
G1 X84.484 Y96.185 E28.71344
G1 X84.484 Y85.669 E29.14627
G1 X84.702 Y84.634 E29.1898
G1 X85.114 Y83.796 E29.22824
G1 X85.306 Y83.554 E29.24095
G0 F1620 X85.679 Y83.085
G0 F5100 X86.096 Y83.525
G1 F1800 X86.814 Y83.022 E29.27703
G1 X87.355 Y82.798 E29.30114
G1 X88.174 Y82.605 E29.33577
G1 X98.384 Y82.605 E29.75601
G1 X99.337 Y82.734 E29.79559
G1 X100.106 Y83.113 E29.83088
G1 X100.754 Y83.604 E29.86434
G1 X101.31 Y84.397 E29.9042
G1 X101.491 Y84.876 E29.92528
G1 X101.684 Y85.695 E29.95991
G1 X101.684 Y96.08 E30.38735
G1 X101.495 Y96.979 E30.42516
G1 X101.088 Y97.805 E30.46306
G1 X100.603 Y98.325 E30.49233
G1 X99.885 Y98.877 E30.52961
G1 X98.721 Y99.205 E30.57938
G1 X93.81 Y99.205 E30.78152
G1 X94.208 Y99.6 E30.8046
G1 X131.357 Y99.6 E32.33363
G1 X132.259 Y99.808 E32.37173
G1 X132.615 Y99.952 E32.38753
G1 X133.422 Y100.505 E32.4278
G1 X133.926 Y101.155 E32.46165
G1 X134.306 Y101.91 E32.49644
G1 X134.447 Y102.803 E32.53365
G1 X134.447 Y117.31 E33.13075
G1 X134.239 Y118.212 E33.16885
G1 X134.095 Y118.568 E33.18466
G1 X133.542 Y119.375 E33.22492
G1 X132.892 Y119.879 E33.25878
G1 X132.137 Y120.259 E33.29357
G1 X131.244 Y120.4 E33.33078
G1 X94.203 Y120.401 E34.85536
G1 X93.718 Y120.859 E34.88282
G1 X93.413 Y121.045 E34.89752
G1 X92.836 Y121.292 E34.92336
G1 X91.916 Y121.48 E34.96201
G1 X90.536 Y121.382 E35.01895
G1 X89.743 Y121.212 E35.05233
G1 X89.555 Y121.136 E35.06068
G1 X88.699 Y120.61 E35.10203
G1 X88.229 Y120.084 E35.13106
G1 X87.912 Y119.568 E35.15599
G1 X87.663 Y118.957 E35.18315
G1 X87.538 Y118.2 E35.21473
G1 X87.537 Y101.725 E35.89283
G1 X87.727 Y100.819 E35.93093
G1 X88.145 Y99.972 E35.96981
G1 X88.704 Y99.413 E36.00234
G1 X88.997 Y99.205 E36.01713
G1 X88.209 Y99.205 E36.04957
G1 X87.31 Y99.016 E36.08738
G1 X86.599 Y98.666 E36.12
G1 X86.004 Y98.193 E36.15128
G1 X85.501 Y97.475 E36.18736
G1 X85.277 Y96.934 E36.21146
G1 X85.084 Y96.115 E36.2461
G1 X85.084 Y85.73 E36.67354
G1 X85.273 Y84.831 E36.71135
G1 X85.623 Y84.12 E36.74397
G1 X85.723 Y83.994 E36.75059
G0 F1620 X86.096 Y83.525
G0 F5100 X86.511 Y83.967
G1 F1800 X87.158 Y83.514 E36.7831
G1 X87.493 Y83.382 E36.79792
G1 X88.244 Y83.205 E36.82967
G1 X98.384 Y83.205 E37.24703
G1 X99.16 Y83.315 E37.27929
G1 X99.787 Y83.624 E37.30806
G1 X100.318 Y84.027 E37.3355
G1 X100.775 Y84.679 E37.36827
G1 X100.907 Y85.014 E37.38309
G1 X101.084 Y85.765 E37.41485
G1 X101.084 Y96.018 E37.83685
G1 X100.923 Y96.783 E37.86903
G1 X100.59 Y97.46 E37.90009
G1 X100.198 Y97.88 E37.92373
G1 X99.612 Y98.33 E37.95414
G1 X98.636 Y98.605 E37.99588
G1 X88.271 Y98.605 E38.4225
G1 X87.506 Y98.444 E38.45467
G1 X86.923 Y98.157 E38.48142
G1 X86.446 Y97.778 E38.50649
G1 X85.993 Y97.131 E38.539
G1 X85.861 Y96.796 E38.55382
G1 X85.684 Y96.045 E38.58558
G1 X85.684 Y85.792 E39.00759
G1 X85.845 Y85.027 E39.03976
G1 X86.132 Y84.444 E39.06651
G1 X86.138 Y84.436 E39.06692
G0 F1620 X86.511 Y83.967
G1 F2400 E32.56692
G1 F1200 Z0.75
G0 F5100 X89.967 Y99.359 Z0.75
G1 F1200 Z0.15
G1 F2400 E39.28311
G1 F1800 X90.603 Y99.207 E39.31003
G1 X91.641 Y99.136 E39.35285
G1 X92.257 Y99.182 E39.37828
G1 X92.725 Y99.296 E39.3981
G1 X93.418 Y99.662 E39.43036
G1 X93.927 Y100.167 E39.45987
G1 X94.125 Y100.2 E39.46813
G1 X131.287 Y100.2 E40.9977
G1 X132.124 Y100.393 E41.03305
G1 X132.328 Y100.483 E41.04223
G1 X133.005 Y100.947 E41.07601
G1 X133.416 Y101.477 E41.10362
G1 X133.728 Y102.096 E41.13215
G1 X133.847 Y102.852 E41.16365
G1 X133.847 Y117.24 E41.75585
G1 X133.654 Y118.077 E41.7912
G1 X133.564 Y118.281 E41.80038
G1 X133.1 Y118.958 E41.83416
G1 X132.57 Y119.369 E41.86177
G1 X131.951 Y119.681 E41.8903
G1 X131.195 Y119.8 E41.9218
G1 X94.221 Y119.801 E43.44363
G1 X93.882 Y119.878 E43.45794
G1 X93.351 Y120.38 E43.48801
G1 X93.177 Y120.493 E43.49655
G1 X92.655 Y120.716 E43.51991
G1 X91.877 Y120.875 E43.5526
G1 X90.662 Y120.795 E43.60272
G1 X89.869 Y120.625 E43.6361
G1 X89.088 Y120.145 E43.67383
G1 X88.711 Y119.723 E43.69712
G1 X88.468 Y119.342 E43.71572
G1 X88.244 Y118.792 E43.74016
G1 X88.138 Y118.15 E43.76694
G1 X88.137 Y101.786 E44.44048
G1 X88.298 Y101.018 E44.47277
G1 X88.64 Y100.325 E44.50458
G1 X89.09 Y99.875 E44.53078
G1 X89.434 Y99.63 E44.54816
G0 F1620 X89.526 Y99.565
G0 X89.967 Y99.359
G0 F5100 X90.106 Y99.943
G1 F1800 X90.693 Y99.803 E44.573
G1 X91.682 Y99.735 E44.6138
G1 X92.206 Y99.78 E44.63545
G1 X92.511 Y99.861 E44.64844
G1 X93.059 Y100.151 E44.67395
G1 X93.422 Y100.491 E44.69443
G1 X93.568 Y100.715 E44.70543
G1 X94.073 Y100.8 E44.72651
G1 X131.217 Y100.8 E46.25533
G1 X131.989 Y100.978 E46.28794
G1 X132.589 Y101.389 E46.31788
G1 X132.88 Y101.747 E46.33687
G1 X133.15 Y102.282 E46.36153
G1 X133.247 Y102.9 E46.38728
G1 X133.247 Y117.17 E46.97462
G1 X133.069 Y117.942 E47.00723
G1 X132.658 Y118.542 E47.03717
G1 X132.3 Y118.833 E47.05616
G1 X131.765 Y119.103 E47.08082
G1 X131.147 Y119.2 E47.10657
G1 X94.139 Y119.201 E48.6298
G1 X93.862 Y119.278 E48.64163
G1 X93.571 Y119.3 E48.65364
G1 X93.44 Y119.476 E48.66267
G1 X92.942 Y119.941 E48.69072
G1 X92.478 Y120.139 E48.71148
G1 X91.841 Y120.271 E48.73826
G1 X90.701 Y120.196 E48.78528
G1 X90.096 Y120.06 E48.8108
G1 X89.477 Y119.68 E48.8407
G1 X89.217 Y119.4 E48.85642
G1 X88.974 Y119.019 E48.87502
G1 X88.836 Y118.694 E48.88956
G1 X88.738 Y118.1 E48.91434
G1 X88.737 Y101.847 E49.5833
G1 X88.869 Y101.217 E49.60979
G1 X89.135 Y100.678 E49.63453
G1 X89.444 Y100.359 E49.65281
G1 X89.594 Y100.249 E49.66047
G0 F1620 X89.798 Y100.1
G0 X90.106 Y99.943
G0 F5100 X90.361 Y100.486
G1 F1800 X90.734 Y100.402 E49.67621
G1 X91.723 Y100.334 E49.71701
G1 X92.145 Y100.377 E49.73447
G1 X92.337 Y100.435 E49.74272
G1 X92.766 Y100.675 E49.76296
G1 X92.989 Y100.907 E49.7762
G1 X93.207 Y101.301 E49.79473
G1 X93.697 Y101.321 E49.81492
G1 X93.993 Y101.4 E49.82753
G1 X131.147 Y101.4 E51.35677
G1 X131.745 Y101.538 E51.38203
G1 X132.14 Y101.787 E51.40124
G1 X132.344 Y102.017 E51.4139
G1 X132.572 Y102.469 E51.43474
G1 X132.647 Y102.9 E51.45274
G1 X132.647 Y117.1 E52.03721
G1 X132.509 Y117.698 E52.06247
G1 X132.26 Y118.093 E52.08168
G1 X132.03 Y118.297 E52.09434
G1 X131.578 Y118.525 E52.11517
G1 X131.147 Y118.6 E52.13318
G1 X94.057 Y118.601 E53.65978
G1 X93.701 Y118.7 E53.67499
G1 X93.21 Y118.7 E53.6952
G1 X93.031 Y119.037 E53.71091
G1 X92.609 Y119.431 E53.73467
G1 X92.355 Y119.552 E53.74625
G1 X91.804 Y119.667 E53.76942
G1 X90.74 Y119.597 E53.81331
G1 X90.325 Y119.497 E53.83088
G1 X89.902 Y119.257 E53.85089
G1 X89.723 Y119.077 E53.86134
G1 X89.48 Y118.696 E53.87994
G1 X89.395 Y118.477 E53.88961
G1 X89.338 Y118.1 E53.90531
G1 X89.337 Y101.899 E54.57213
G1 X89.407 Y101.483 E54.58949
G1 X89.632 Y101.028 E54.61038
G1 X89.798 Y100.843 E54.62061
G1 X89.855 Y100.801 E54.62353
G0 F1620 X90.152 Y100.584
G0 X90.361 Y100.486
G0 F5100 X90.684 Y101.641
G1 F1800 X90.816 Y101.6 E54.62922
G1 X91.805 Y101.532 E54.67002
G1 X91.956 Y101.561 E54.67635
G1 X92.076 Y101.671 E54.68305
G1 X92.126 Y101.831 E54.68995
G1 X92.126 Y118.165 E55.36225
G1 X92.087 Y118.314 E55.36859
G1 X91.97 Y118.425 E55.37522
G1 X91.806 Y118.464 E55.38216
G1 X90.818 Y118.399 E55.42292
G1 X90.673 Y118.35 E55.42922
G1 X90.57 Y118.236 E55.43554
G1 X90.538 Y118.1 E55.44129
G1 X90.537 Y102.192 E56.09605
G0 F1620 X90.537 Y101.899
G0 X90.576 Y101.751
G0 X90.684 Y101.641
G1 F2400 E49.59605
G1 F1200 Z0.75
G0 F5100 X92.365 Y102.651 Z0.75
G1 F1200 Z0.15
G1 F2400 E56.31225
G1 F1800 X92.473 Y102.542 E56.31856
G1 X92.626 Y102.5 E56.32509
G1 X93.541 Y102.501 E56.36275
G1 X93.69 Y102.54 E56.36909
G1 X93.751 Y102.6 E56.37261
G1 X131.147 Y102.6 E57.91181
G1 X131.296 Y102.639 E57.91815
G1 X131.405 Y102.747 E57.92447
G1 X131.447 Y102.9 E57.931
G1 X131.447 Y117.1 E58.51546
G1 X131.408 Y117.249 E58.5218
G1 X131.3 Y117.358 E58.52811
G1 X131.147 Y117.4 E58.53465
G1 X93.758 Y117.401 E60.07355
G1 X93.606 Y117.5 E60.08102
G1 X92.626 Y117.5 E60.12136
G1 X92.477 Y117.461 E60.1277
G1 X92.368 Y117.353 E60.13401
G1 X92.326 Y117.2 E60.14054
G1 X92.326 Y103.246 E60.71488
G0 F1620 X92.326 Y102.8
G0 X92.365 Y102.651
G0 F5100 X92.726 Y101.9
G1 F1800 X93.542 Y101.901 E60.74847
G1 X93.913 Y102 E60.76427
G1 X131.147 Y102 E62.2968
G1 X131.448 Y102.059 E62.30943
G1 X131.718 Y102.213 E62.32222
G1 X131.827 Y102.321 E62.32854
G1 X131.984 Y102.588 E62.34128
G1 X132.047 Y102.9 E62.35438
G1 X132.047 Y117.1 E62.93885
G1 X131.988 Y117.401 E62.95147
G1 X131.834 Y117.671 E62.96427
G1 X131.726 Y117.78 E62.97058
G1 X131.459 Y117.937 E62.98333
G1 X131.147 Y118 E62.99643
G1 X93.936 Y118.001 E64.52802
G1 X93.701 Y118.1 E64.53851
G1 X92.726 Y118.1 E64.57864
G1 X92.667 Y118.466 E64.5939
G1 X92.511 Y118.738 E64.60681
G1 X92.231 Y118.965 E64.62164
G1 X91.767 Y119.063 E64.64116
G1 X90.779 Y118.998 E64.68192
G1 X90.481 Y118.918 E64.69461
G1 X90.229 Y118.754 E64.70699
G1 X89.986 Y118.373 E64.72559
G1 X89.938 Y118.1 E64.737
G1 X89.937 Y101.899 E65.40382
G1 X89.996 Y101.598 E65.41645
G1 X90.152 Y101.327 E65.42932
G1 X90.506 Y101.068 E65.44737
G1 X90.775 Y101.001 E65.45878
G1 X91.764 Y100.933 E65.49958
G1 X92.069 Y100.972 E65.51224
G1 X92.36 Y101.117 E65.52562
