;FLAVOR:Marlin
;TIME:1565
;Filament used: 2.65981m
;Layer height: 0.3
;MINX:33.76
;MINY:42.091
;MINZ:0.15
;MAXX:119.068
;MAXY:98.508
;MAXZ:19.95
;TARGET_MACHINE.NAME:Printrbot Simple
;Generated with Cura_SteamEngine 5.8.1
M82 ;absolute extrusion mode


M106
M109 S245.0
G21;
G90;
M82;
G28
G90
G1 Z3 F150;

G1 Z5.0

G28 X0 Y0 ;move X/Y to min endstops
G29
M109 S245.0
G92 E0.0 ; reset extruder distance position
G1 Z0.4 F200.0

G91          ;relative positioning
G1 Y-160 X30 F500 ;move Z up a bit and retract filament even more
G90
G1 X-20.0 E20 F220.0 ; intro line
G92 E0.0 ; reset extruder distance position
G92 E0
M106
M109 S245.0
G21;
G90;
M82;
G28
G90
G1 Z3 F150;

G1 Z5.0

G28 X0 Y0 ;move X/Y to min endstops
G29
M109 S245.0
G92 E0.0 ; reset extruder distance position
G1 Z0.8 F200.0
G1 Y-2.0 F500.0 ; go outside print area
G1 X-20.0 E20 F200.0 ; intro line
G92 E0.0 ; reset extruder distance position
G92 E0
G1 F2400 E-6.5
;LAYER_COUNT:65
;LAYER:0
M107
G1 F1200 Z0.75
G0 F5100 X40.815 Y43.651 Z0.75
;TYPE:SKIRT
G1 F1200 Z0.15
G1 F2400 E0.21619
G1 F1800 X42.048 Y42.787 E0.27816
G1 X43.005 Y42.392 E0.32077
G1 X44.282 Y42.091 E0.37477
G1 X55.192 Y42.092 E0.82382
G1 X56.631 Y42.395 E0.88435
G1 X57.852 Y42.995 E0.94035
G1 X58.911 Y43.836 E0.99601
G1 X59.775 Y45.069 E1.05798
G1 X60.17 Y46.026 E1.10059
G1 X60.471 Y47.303 E1.15459
G1 X60.471 Y58.317 E1.60792
G1 X60.168 Y59.756 E1.66845
G1 X59.568 Y60.977 E1.72444
G1 X58.727 Y62.036 E1.7801
G1 X57.494 Y62.9 E1.84207
G1 X56.537 Y63.295 E1.88468
G1 X55.328 Y63.58 E1.93581
G1 X54.889 Y63.596 E1.95389
G1 X54.958 Y64.08 E1.97401
G1 X54.958 Y73.811 E2.37454
G1 X57.132 Y73.811 E2.46402
G1 X58.435 Y74.112 E2.51906
G1 X59.2 Y74.432 E2.55319
G1 X59.353 Y74.519 E2.56043
G1 X60.308 Y74.038 E2.60445
G1 X61.747 Y73.811 E2.66441
G1 X96.027 Y73.811 E4.07535
G1 X97.33 Y74.112 E4.13039
G1 X98.095 Y74.432 E4.16453
G1 X98.248 Y74.519 E4.17177
G1 X99.203 Y74.038 E4.21578
G1 X100.642 Y73.811 E4.27574
G1 X101.66 Y73.811 E4.31764
G1 X101.66 Y73.165 E4.34423
G1 X101.966 Y71.707 E4.40555
G1 X102.555 Y70.515 E4.46027
G1 X103.406 Y69.441 E4.51667
G1 X104.628 Y68.585 E4.57808
G1 X105.581 Y68.187 E4.62059
G1 X106.873 Y67.883 E4.67522
G1 X113.789 Y67.883 E4.95988
G1 X115.228 Y68.186 E5.02041
G1 X116.449 Y68.786 E5.0764
G1 X117.508 Y69.627 E5.13206
G1 X118.372 Y70.86 E5.19403
G1 X118.767 Y71.817 E5.23665
G1 X119.068 Y73.094 E5.29065
G1 X119.068 Y80.011 E5.57535
G1 X118.765 Y81.45 E5.63587
G1 X118.222 Y82.555 E5.68655
G1 X118.073 Y82.771 E5.69735
G1 X118.391 Y83.25 E5.72101
G1 X118.761 Y84.146 E5.76091
G1 X119.062 Y85.423 E5.81491
G1 X119.062 Y92.339 E6.09957
G1 X118.757 Y93.791 E6.16064
G1 X118.18 Y94.96 E6.2143
G1 X117.572 Y95.732 E6.25474
G1 X116.904 Y96.373 E6.29285
G1 X116.288 Y96.819 E6.32415
G1 X115.24 Y97.302 E6.37165
G1 X113.825 Y97.62 E6.43134
G1 X106.933 Y97.62 E6.71501
G1 X105.494 Y97.317 E6.77554
G1 X104.273 Y96.717 E6.83153
G1 X103.214 Y95.876 E6.88719
G1 X102.35 Y94.643 E6.94916
G1 X101.955 Y93.686 E6.99178
G1 X101.654 Y92.409 E7.04578
G1 X101.654 Y91.393 E7.0876
G1 X51.168 Y91.393 E9.16557
G1 X51.168 Y93.228 E9.2411
G1 X50.864 Y94.672 E9.30183
G1 X50.264 Y95.891 E9.35776
G1 X49.574 Y96.748 E9.40304
G1 X49.028 Y97.264 E9.43396
G1 X48.044 Y97.882 E9.48179
G1 X47.313 Y98.188 E9.51441
G1 X45.957 Y98.508 E9.57175
G1 X39.161 Y98.508 E9.85147
G1 X37.878 Y98.302 E9.90495
G1 X36.524 Y97.688 E9.96615
G1 X35.349 Y96.804 E10.02667
G1 X34.384 Y95.427 E10.09588
G1 X34.017 Y94.389 E10.14119
G1 X33.76 Y93.298 E10.18732
G1 X33.76 Y86.379 E10.47211
G1 X34.063 Y84.94 E10.53263
G1 X34.663 Y83.719 E10.58863
G1 X35.504 Y82.66 E10.64429
G1 X36.734 Y81.798 E10.70611
G1 X37.735 Y81.384 E10.7507
G1 X37.735 Y63.836 E11.47296
G1 X38.036 Y62.53 E11.52813
G1 X38.402 Y61.656 E11.56713
G1 X39.217 Y60.465 E11.62652
G1 X39.574 Y60.153 E11.64604
G1 X39.363 Y59.625 E11.66944
G1 X39.071 Y58.384 E11.72192
G1 X39.071 Y47.37 E12.17525
G1 X39.374 Y45.931 E12.23577
G1 X39.974 Y44.71 E12.29177
G1 X40.442 Y44.12 E12.32277
G0 F1620 X40.815 Y43.651
G0 F5100 X41.232 Y44.091
G1 F1800 X42.338 Y43.316 E12.37835
G1 X43.187 Y42.965 E12.41616
G1 X44.351 Y42.691 E12.46538
G1 X55.131 Y42.692 E12.90908
G1 X56.434 Y42.966 E12.96389
G1 X57.528 Y43.504 E13.01406
G1 X58.471 Y44.253 E13.06363
G1 X59.246 Y45.359 E13.11922
G1 X59.597 Y46.208 E13.15703
G1 X59.871 Y47.372 E13.20625
G1 X59.871 Y58.256 E13.65423
G1 X59.597 Y59.559 E13.70903
G1 X59.059 Y60.653 E13.75921
G1 X58.31 Y61.596 E13.80878
G1 X57.204 Y62.371 E13.86436
G1 X56.355 Y62.722 E13.90218
G1 X55.191 Y62.996 E13.95139
G1 X54.187 Y62.996 E13.99272
G1 X54.358 Y64.08 E14.03789
G1 X54.358 Y74.411 E14.46311
G1 X57.062 Y74.411 E14.5744
G1 X58.254 Y74.686 E14.62475
G1 X58.968 Y74.985 E14.65661
G1 X59.318 Y75.209 E14.67372
G1 X60.494 Y74.616 E14.72792
G1 X61.796 Y74.411 E14.78217
G1 X95.957 Y74.411 E16.18822
G1 X97.149 Y74.686 E16.23857
G1 X97.863 Y74.985 E16.27043
G1 X98.213 Y75.209 E16.28754
G1 X99.389 Y74.616 E16.34174
G1 X100.691 Y74.411 E16.39599
G1 X102.261 Y74.411 E16.46062
G1 X102.26 Y73.226 E16.50939
G1 X102.537 Y71.906 E16.5649
G1 X103.065 Y70.837 E16.61398
G1 X103.823 Y69.881 E16.66419
G1 X104.916 Y69.115 E16.71913
G1 X105.769 Y68.759 E16.75717
G1 X106.942 Y68.483 E16.80677
G1 X113.728 Y68.483 E17.08608
G1 X115.031 Y68.757 E17.14088
G1 X116.125 Y69.295 E17.19106
G1 X117.068 Y70.044 E17.24063
G1 X117.843 Y71.15 E17.29621
G1 X118.194 Y71.999 E17.33403
G1 X118.468 Y73.163 E17.38325
G1 X118.468 Y79.95 E17.66259
G1 X118.194 Y81.253 E17.7174
G1 X117.684 Y82.29 E17.76496
G1 X117.329 Y82.754 E17.78901
G1 X117.837 Y83.479 E17.82545
G1 X118.188 Y84.328 E17.86326
G1 X118.462 Y85.492 E17.91248
G1 X118.462 Y92.278 E18.19179
G1 X118.186 Y93.592 E18.24705
G1 X117.669 Y94.639 E18.29511
G1 X117.153 Y95.302 E18.32969
G1 X116.552 Y95.887 E18.36421
G1 X115.983 Y96.299 E18.39313
G1 X115.044 Y96.732 E18.43569
G1 X113.761 Y97.02 E18.48981
G1 X106.994 Y97.02 E18.76833
G1 X105.691 Y96.746 E18.82314
G1 X104.597 Y96.208 E18.87332
G1 X103.654 Y95.459 E18.92288
G1 X102.879 Y94.353 E18.97847
G1 X102.528 Y93.504 E19.01628
G1 X102.254 Y92.34 E19.0655
G1 X102.254 Y90.793 E19.12917
G1 X50.568 Y90.793 E21.25654
G1 X50.568 Y93.167 E21.35425
G1 X50.293 Y94.475 E21.40926
G1 X49.756 Y95.566 E21.45931
G1 X49.162 Y96.312 E21.49856
G1 X48.659 Y96.787 E21.52704
G1 X47.766 Y97.348 E21.57045
G1 X47.129 Y97.615 E21.59887
G1 X45.887 Y97.908 E21.6514
G1 X39.206 Y97.908 E21.92638
G1 X38.053 Y97.723 E21.97445
G1 X36.832 Y97.169 E22.02963
G1 X35.786 Y96.382 E22.08351
G1 X34.922 Y95.15 E22.14545
G1 X34.601 Y94.251 E22.18474
G1 X34.36 Y93.228 E22.228
G1 X34.36 Y86.44 E22.50739
G1 X34.634 Y85.137 E22.56219
G1 X35.172 Y84.043 E22.61237
G1 X35.921 Y83.1 E22.66194
G1 X37.024 Y82.327 E22.71737
G1 X37.88 Y81.973 E22.7555
G1 X38.335 Y81.866 E22.77474
G1 X38.335 Y63.906 E23.51396
G1 X38.61 Y62.711 E23.56443
G1 X38.931 Y61.945 E23.59862
G1 X39.712 Y60.804 E23.65553
G1 X40.305 Y60.345 E23.68639
G1 X39.947 Y59.488 E23.72462
G1 X39.671 Y58.315 E23.77422
G1 X39.671 Y47.431 E24.2222
G1 X39.945 Y46.128 E24.277
G1 X40.483 Y45.034 E24.32718
G1 X40.859 Y44.56 E24.35208
G0 F1620 X41.232 Y44.091
G0 F5100 X41.649 Y44.531
G1 F1800 X40.992 Y45.358 E24.39556
G1 X40.517 Y46.324 E24.43986
G1 X40.271 Y47.493 E24.48903
G1 X40.271 Y58.246 E24.93162
G1 X40.519 Y59.3 E24.97619
G1 X40.808 Y59.992 E25.00705
G1 X41.125 Y60.468 E25.03059
G1 X40.155 Y61.219 E25.08108
G1 X39.461 Y62.232 E25.13162
G1 X39.184 Y62.895 E25.1612
G1 X38.935 Y63.976 E25.20686
G1 X38.935 Y82.341 E25.96275
G1 X38.061 Y82.547 E25.99971
G1 X37.314 Y82.856 E26.03298
G1 X36.338 Y83.54 E26.08204
G1 X35.681 Y84.367 E26.12551
G1 X35.206 Y85.333 E26.16982
G1 X34.96 Y86.502 E26.21898
G1 X34.96 Y93.158 E26.49294
G1 X35.185 Y94.113 E26.53333
G1 X35.46 Y94.873 E26.56659
G1 X36.22 Y95.957 E26.62108
G1 X37.144 Y96.652 E26.66867
G1 X38.228 Y97.144 E26.71767
G1 X39.251 Y97.308 E26.76031
G1 X45.817 Y97.308 E27.03056
G1 X46.945 Y97.042 E27.07827
G1 X47.488 Y96.814 E27.10251
G1 X48.289 Y96.311 E27.14144
G1 X48.692 Y95.938 E27.16404
G1 X49.248 Y95.239 E27.2008
G1 X49.721 Y94.279 E27.24485
G1 X49.968 Y93.105 E27.29423
G1 X49.968 Y90.193 E27.41408
G1 X102.854 Y90.193 E29.59084
G1 X102.854 Y92.27 E29.67633
G1 X103.101 Y93.318 E29.72064
G1 X103.41 Y94.066 E29.75396
G1 X104.094 Y95.042 E29.80301
G1 X104.921 Y95.699 E29.84648
G1 X105.887 Y96.174 E29.89079
G1 X107.056 Y96.42 E29.93996
G1 X113.696 Y96.42 E30.21326
G1 X114.849 Y96.161 E30.2619
G1 X115.681 Y95.778 E30.2996
G1 X116.133 Y95.457 E30.32241
G1 X116.734 Y94.872 E30.35693
G1 X117.157 Y94.32 E30.38556
G1 X117.615 Y93.393 E30.42812
G1 X117.862 Y92.217 E30.47758
G1 X117.862 Y85.562 E30.75149
G1 X117.615 Y84.514 E30.79581
G1 X117.306 Y83.766 E30.82912
G1 X116.579 Y82.729 E30.88125
G1 X117.146 Y82.025 E30.91845
G1 X117.622 Y81.057 E30.96285
G1 X117.868 Y79.888 E31.01202
G1 X117.868 Y73.233 E31.28594
G1 X117.621 Y72.185 E31.33025
G1 X117.312 Y71.437 E31.36356
G1 X116.628 Y70.461 E31.41262
G1 X115.801 Y69.804 E31.45609
G1 X114.835 Y69.329 E31.5004
G1 X113.666 Y69.083 E31.54957
G1 X107.011 Y69.083 E31.82348
G1 X105.957 Y69.331 E31.86805
G1 X105.204 Y69.645 E31.90163
G1 X104.24 Y70.321 E31.95009
G1 X103.575 Y71.159 E31.99412
G1 X103.108 Y72.105 E32.03754
G1 X102.86 Y73.287 E32.08725
G1 X102.861 Y75.011 E32.15821
G1 X100.741 Y75.011 E32.24547
G1 X99.575 Y75.195 E32.29406
G1 X98.603 Y75.685 E32.33886
G1 X98.239 Y75.954 E32.35749
G1 X97.631 Y75.538 E32.38781
G1 X96.968 Y75.26 E32.4174
G1 X95.887 Y75.011 E32.46306
G1 X61.846 Y75.011 E33.86417
G1 X60.68 Y75.195 E33.91275
G1 X59.708 Y75.685 E33.95756
G1 X59.344 Y75.954 E33.97619
G1 X58.736 Y75.538 E34.00651
G1 X58.073 Y75.26 E34.0361
G1 X56.992 Y75.011 E34.08176
G1 X53.758 Y75.011 E34.21487
G1 X53.758 Y64.13 E34.66272
G1 X53.574 Y62.964 E34.71131
G1 X53.288 Y62.396 E34.73748
G1 X55.121 Y62.396 E34.81293
G1 X56.169 Y62.149 E34.85724
G1 X56.917 Y61.84 E34.89056
G1 X57.893 Y61.156 E34.93961
G1 X58.55 Y60.329 E34.98308
G1 X59.025 Y59.363 E35.02739
G1 X59.271 Y58.194 E35.07656
G1 X59.271 Y47.442 E35.51911
G1 X59.024 Y46.394 E35.56342
G1 X58.715 Y45.646 E35.59673
G1 X58.031 Y44.67 E35.64579
G1 X57.204 Y44.013 E35.68926
G1 X56.238 Y43.538 E35.73357
G1 X55.069 Y43.292 E35.78274
G1 X44.421 Y43.291 E36.221
G1 X43.373 Y43.538 E36.26532
G1 X42.625 Y43.847 E36.29863
G1 X42.14 Y44.187 E36.32301
G0 F1620 X41.649 Y44.531
G0 F5100 X42.066 Y44.971
G1 F1800 X41.501 Y45.682 E36.36039
G1 X41.089 Y46.52 E36.39882
G1 X40.871 Y47.555 E36.44236
G1 X40.871 Y58.177 E36.87955
G1 X41.091 Y59.112 E36.91909
G1 X41.362 Y59.761 E36.94804
G1 X41.901 Y60.531 E36.98672
G1 X42.06 Y60.689 E36.99595
G1 X41.369 Y61.037 E37.02779
G1 X40.598 Y61.634 E37.06793
G1 X39.992 Y62.519 E37.11207
G1 X39.758 Y63.079 E37.13705
G1 X39.535 Y64.046 E37.1779
G1 X39.535 Y82.9 E37.95392
G1 X39.112 Y82.916 E37.97134
G1 X38.248 Y83.12 E38.00788
G1 X37.601 Y83.387 E38.03669
G1 X36.755 Y83.98 E38.07921
G1 X36.19 Y84.691 E38.11659
G1 X35.778 Y85.529 E38.15503
G1 X35.56 Y86.564 E38.19856
G1 X35.56 Y93.088 E38.46709
G1 X35.769 Y93.975 E38.5046
G1 X35.998 Y94.596 E38.53184
G1 X36.654 Y95.532 E38.57888
G1 X37.456 Y96.135 E38.62018
G1 X38.403 Y96.565 E38.66299
G1 X39.296 Y96.708 E38.70021
G1 X45.747 Y96.708 E38.96573
G1 X46.807 Y96.458 E39.01056
G1 X47.169 Y96.306 E39.02672
G1 X47.97 Y95.803 E39.06565
G1 X48.222 Y95.565 E39.07992
G1 X48.739 Y94.915 E39.1141
G1 X49.15 Y94.082 E39.15233
G1 X49.368 Y93.044 E39.19599
G1 X49.368 Y89.593 E39.33803
G1 X103.454 Y89.593 E41.56418
G1 X103.454 Y92.2 E41.67148
G1 X103.674 Y93.132 E41.71089
G1 X103.941 Y93.779 E41.7397
G1 X104.534 Y94.625 E41.78223
G1 X105.245 Y95.19 E41.81961
G1 X106.083 Y95.602 E41.85804
G1 X107.118 Y95.82 E41.90157
G1 X113.631 Y95.82 E42.16965
G1 X114.654 Y95.59 E42.2128
G1 X115.43 Y95.233 E42.24796
G1 X115.714 Y95.027 E42.2624
G1 X116.315 Y94.442 E42.29692
G1 X116.646 Y94.001 E42.31962
G1 X117.043 Y93.196 E42.35656
G1 X117.262 Y92.155 E42.40035
G1 X117.262 Y85.632 E42.66883
G1 X117.042 Y84.7 E42.70824
G1 X116.775 Y84.053 E42.73705
G1 X116.182 Y83.207 E42.77958
G1 X115.598 Y82.743 E42.81028
G1 X116.126 Y82.343 E42.83754
G1 X116.638 Y81.699 E42.8714
G1 X117.05 Y80.861 E42.90984
G1 X117.268 Y79.826 E42.95337
G1 X117.268 Y73.303 E43.22186
G1 X117.048 Y72.371 E43.26127
G1 X116.781 Y71.724 E43.29008
G1 X116.188 Y70.878 E43.3326
G1 X115.477 Y70.313 E43.36998
G1 X114.639 Y69.901 E43.40842
G1 X113.604 Y69.683 E43.45195
G1 X107.08 Y69.683 E43.72047
G1 X106.145 Y69.903 E43.76001
G1 X105.496 Y70.174 E43.78896
G1 X104.653 Y70.764 E43.83131
G1 X104.087 Y71.479 E43.86884
G1 X103.679 Y72.304 E43.90672
G1 X103.46 Y73.348 E43.95063
G1 X103.462 Y75.611 E44.04377
G1 X100.79 Y75.611 E44.15375
G1 X99.761 Y75.773 E44.19663
G1 X98.873 Y76.221 E44.23756
G1 X98.261 Y76.696 E44.26945
G1 X97.344 Y76.068 E44.3152
G1 X96.784 Y75.834 E44.34018
G1 X95.817 Y75.611 E44.38102
G1 X61.895 Y75.611 E45.77723
G1 X60.866 Y75.773 E45.82011
G1 X59.978 Y76.221 E45.86104
G1 X59.366 Y76.696 E45.89293
G1 X58.449 Y76.068 E45.93868
G1 X57.889 Y75.834 E45.96366
G1 X56.922 Y75.611 E46.0045
G1 X53.158 Y75.611 E46.15943
G1 X53.158 Y64.179 E46.62996
G1 X52.996 Y63.15 E46.67284
G1 X52.547 Y62.26 E46.71387
G1 X52.188 Y61.796 E46.73801
G1 X55.051 Y61.796 E46.85585
G1 X55.983 Y61.576 E46.89527
G1 X56.63 Y61.309 E46.92408
G1 X57.476 Y60.716 E46.9666
G1 X58.041 Y60.005 E47.00398
G1 X58.453 Y59.167 E47.04241
G1 X58.671 Y58.132 E47.08595
G1 X58.671 Y47.512 E47.52306
G1 X58.451 Y46.58 E47.56248
G1 X58.184 Y45.933 E47.59128
G1 X57.591 Y45.087 E47.63381
G1 X56.88 Y44.522 E47.67119
G1 X56.042 Y44.11 E47.70962
G1 X55.007 Y43.892 E47.75316
G1 X44.491 Y43.891 E48.18599
G1 X43.559 Y44.111 E48.2254
G1 X42.912 Y44.378 E48.25421
G1 X42.557 Y44.627 E48.27206
G0 F1620 X42.066 Y44.971
G0 F5100 X42.483 Y45.411
G1 F1800 X43.201 Y44.908 E48.30814
G1 X43.742 Y44.684 E48.33224
G1 X44.561 Y44.491 E48.36688
G1 X54.946 Y44.492 E48.79432
G1 X55.845 Y44.681 E48.83213
G1 X56.556 Y45.031 E48.86474
G1 X57.151 Y45.504 E48.89603
G1 X57.654 Y46.222 E48.93211
G1 X57.878 Y46.763 E48.95621
G1 X58.071 Y47.582 E48.99085
G1 X58.071 Y58.071 E49.42257
G1 X57.882 Y58.97 E49.46038
G1 X57.532 Y59.681 E49.493
G1 X57.059 Y60.276 E49.52428
G1 X56.341 Y60.779 E49.56036
G1 X55.8 Y61.003 E49.58447
G1 X54.981 Y61.196 E49.6191
G1 X50.207 Y61.196 E49.81559
G1 X50.477 Y61.27 E49.82712
G1 X50.778 Y61.414 E49.84085
G1 X51.533 Y61.931 E49.87851
G1 X52.037 Y62.581 E49.91237
G1 X52.417 Y63.336 E49.94716
G1 X52.558 Y64.229 E49.98437
G1 X52.558 Y76.211 E50.47754
G1 X56.852 Y76.211 E50.65428
G1 X57.754 Y76.419 E50.69238
G1 X58.11 Y76.563 E50.70818
G1 X58.917 Y77.116 E50.74845
G1 X59.348 Y77.672 E50.7774
G1 X59.722 Y77.177 E50.80294
G1 X60.297 Y76.732 E50.83287
G1 X61.052 Y76.352 E50.86766
G1 X61.945 Y76.211 E50.90487
G1 X95.747 Y76.211 E52.29614
G1 X96.649 Y76.419 E52.33424
G1 X97.005 Y76.563 E52.35004
G1 X97.812 Y77.116 E52.39031
G1 X98.243 Y77.672 E52.41926
G1 X98.617 Y77.177 E52.4448
G1 X99.192 Y76.732 E52.47473
G1 X99.947 Y76.352 E52.50952
G1 X100.84 Y76.211 E52.54673
G1 X104.062 Y76.211 E52.67934
G1 X104.06 Y73.409 E52.79467
G1 X104.25 Y72.503 E52.83277
G1 X104.597 Y71.801 E52.865
G1 X105.07 Y71.204 E52.89635
G1 X105.784 Y70.704 E52.93223
G1 X106.331 Y70.476 E52.95662
G1 X107.15 Y70.283 E52.99126
G1 X113.543 Y70.283 E53.25439
G1 X114.442 Y70.472 E53.2922
G1 X115.153 Y70.822 E53.32482
G1 X115.748 Y71.295 E53.3561
G1 X116.251 Y72.013 E53.39218
G1 X116.475 Y72.554 E53.41629
G1 X116.668 Y73.373 E53.45092
G1 X116.668 Y79.765 E53.71401
G1 X116.479 Y80.664 E53.75182
G1 X116.129 Y81.375 E53.78444
G1 X115.656 Y81.97 E53.81572
G1 X114.938 Y82.473 E53.85181
G1 X114.397 Y82.697 E53.87591
G1 X114.182 Y82.748 E53.885
G1 X114.505 Y82.835 E53.89877
G1 X115.147 Y83.151 E53.92822
G1 X115.742 Y83.624 E53.95951
G1 X116.245 Y84.342 E53.99559
G1 X116.469 Y84.883 E54.01969
G1 X116.662 Y85.702 E54.05432
G1 X116.662 Y92.094 E54.31741
G1 X116.472 Y92.999 E54.35548
G1 X116.134 Y93.684 E54.38692
G1 X115.896 Y94.012 E54.4036
G1 X115.295 Y94.597 E54.43812
G1 X115.127 Y94.712 E54.4465
G1 X114.458 Y95.02 E54.47681
G1 X113.567 Y95.22 E54.51439
G1 X107.179 Y95.22 E54.77732
