;FLAVOR:Marlin
;TIME:5543
;Filament used: 8.26031m
;Layer height: 0.3
;MINX:43.441
;MINY:38.083
;MINZ:0.15
;MAXX:106.635
;MAXY:117.561
;MAXZ:25.05
;TARGET_MACHINE.NAME:Printrbot Simple
;Generated with Cura_SteamEngine 5.8.1
M140 S60
M105
M190 S60
M82 ;absolute extrusion mode


M106
M109 S245.0
G21;
G90;
M82;
G28
G90
G1 Z3 F150;

G1 Z5.0

G28 X0 Y0 ;move X/Y to min endstops
G29
M109 S245.0
G92 E0.0 ; reset extruder distance position
G1 Z0.4 F200.0

G91          ;relative positioning
G1 Y-160 X30 F500 ;move Z up a bit and retract filament even more
G90
G1 X-20.0 E20 F220.0 ; intro line
G92 E0.0 ; reset extruder distance position
G92 E0
M106
M109 S245.0
G21;
G90;
M82;
G28
G90
G1 Z3 F150;

G1 Z5.0

G28 X0 Y0 ;move X/Y to min endstops
G29
M109 S245.0
G92 E0.0 ; reset extruder distance position
G1 Z0.8 F200.0
G1 Y-2.0 F500.0 ; go outside print area
G1 X-20.0 E20 F200.0 ; intro line
G92 E0.0 ; reset extruder distance position
G92 E0
G1 F2400 E-6.5
;LAYER_COUNT:82
;LAYER:0
M107
G1 F1200 Z0.75
G0 F5100 X57.21 Y49.51 Z0.75
;TYPE:SKIRT
G1 F1200 Z0.15
G1 F2400 E0.21619
G1 F1800 X65.83 Y40.189 E0.73875
G1 X67.746 Y38.984 E0.83191
G1 X69.772 Y38.277 E0.92023
G1 X71.355 Y38.107 E0.98576
G1 X77.253 Y38.083 E1.22852
G1 X78.571 Y38.386 E1.28418
G1 X79.439 Y38.747 E1.32287
G1 X80.708 Y39.617 E1.3862
G1 X81.558 Y40.714 E1.44332
G1 X81.689 Y40.948 E1.45436
G1 X81.748 Y40.948 E1.45679
G1 X82.507 Y39.843 E1.51196
G1 X83.628 Y38.974 E1.57034
G1 X84.856 Y38.351 E1.62702
G1 X85.036 Y38.293 E1.6348
G1 X86.403 Y38.083 E1.69173
G1 X92.227 Y38.121 E1.93145
G1 X93.704 Y38.292 E1.99265
G1 X95.716 Y38.997 E2.08039
G1 X97.512 Y40.127 E2.16773
G1 X99.036 Y41.651 E2.25644
G1 X100.164 Y43.448 E2.34377
G1 X100.443 Y44.257 E2.37899
G1 X102.542 Y45.839 E2.48717
G1 X104.037 Y47.205 E2.57053
G1 X105.492 Y49.371 E2.67792
G1 X106.132 Y51.245 E2.75943
G1 X106.338 Y52.29 E2.80327
G1 X106.338 Y56.075 E2.95906
G1 X106.411 Y56.469 E2.97555
G1 X106.561 Y58.069 E3.0417
G1 X106.57 Y59.51 E3.10101
G1 X106.635 Y60.445 E3.13958
G1 X106.617 Y61.118 E3.16729
G1 X106.521 Y88.828 E4.30783
G1 X106.197 Y90.313 E4.37039
G1 X105.671 Y91.516 E4.42443
G1 X104.832 Y92.691 E4.48386
G1 X103.78 Y93.67 E4.543
G1 X102.141 Y94.576 E4.62008
G1 X101.119 Y94.791 E4.66307
G1 X100.876 Y95.757 E4.70407
G1 X100.126 Y97.026 E4.76474
G1 X99.363 Y98.041 E4.81701
G1 X97.822 Y99.152 E4.8952
G1 X96.545 Y99.659 E4.95175
G1 X95.176 Y99.948 E5.00934
G1 X92.649 Y99.948 E5.11335
G1 X91.486 Y106.663 E5.39385
G1 X91.33 Y107.711 E5.43746
G1 X90.648 Y109.138 E5.50256
G1 X89.912 Y110.033 E5.55025
G1 X89.332 Y110.608 E5.58387
G1 X88.714 Y111.737 E5.63684
G1 X87.098 Y113.296 E5.72926
G1 X86.102 Y113.881 E5.7768
G1 X84.849 Y114.452 E5.83348
G1 X83.137 Y114.77 E5.90515
G1 X79.823 Y114.768 E6.04155
G1 X77.914 Y114.184 E6.12372
G1 X76.605 Y113.52 E6.18413
G1 X75.078 Y112.115 E6.26954
G1 X74.654 Y111.55 E6.29861
G1 X74.371 Y111.052 E6.32219
G1 X74.274 Y111.373 E6.33599
G1 X73.601 Y112.812 E6.40138
G1 X72.707 Y114.109 E6.46622
G1 X71.521 Y115.317 E6.53589
G1 X70.199 Y116.254 E6.60259
G1 X68.723 Y116.965 E6.67002
G1 X67.03 Y117.426 E6.74224
G1 X65.351 Y117.561 E6.81157
G1 X63.799 Y117.425 E6.87569
G1 X62.12 Y116.97 E6.94729
G1 X60.6 Y116.235 E7.01679
G1 X59.313 Y115.32 E7.08178
G1 X58.1 Y114.085 E7.15303
G1 X57.183 Y112.733 E7.22027
G1 X56.521 Y111.299 E7.28528
G1 X56.081 Y109.646 E7.35568
G1 X55.957 Y108.025 E7.4226
G1 X54.245 Y107.967 E7.4931
G1 X53.064 Y107.792 E7.54224
G1 X51.642 Y107.408 E7.60287
G1 X50.096 Y106.767 E7.67175
G1 X48.728 Y105.978 E7.73675
G1 X48.026 Y105.466 E7.77252
G1 X46.582 Y104.116 E7.85388
G1 X45.609 Y102.904 E7.91785
G1 X44.836 Y101.641 E7.9788
G1 X44.147 Y100.085 E8.04884
G1 X43.779 Y98.858 E8.10157
G1 X43.549 Y97.637 E8.15271
G1 X43.441 Y95.704 E8.23239
G1 X43.525 Y94.582 E8.2787
G1 X43.894 Y92.754 E8.35546
G1 X44.391 Y91.327 E8.41765
G1 X44.792 Y90.476 E8.45637
G1 X45.979 Y88.636 E8.5465
G1 X46.611 Y87.89 E8.58674
G1 X47.803 Y86.772 E8.65401
G1 X47.596 Y86.19 E8.67943
G1 X47.337 Y85.103 E8.72542
G1 X47.337 Y77.452 E9.04033
G1 X47.445 Y76.88 E9.06429
G1 X46.941 Y76.384 E9.0934
G1 X46.033 Y75.24 E9.15351
G1 X45.357 Y74.147 E9.20641
G1 X44.642 Y72.595 E9.27674
G1 X44.216 Y71.216 E9.33615
G1 X43.983 Y69.983 E9.3878
G1 X43.875 Y67.986 E9.47011
G1 X43.94 Y67.085 E9.50729
G1 X44.331 Y65.095 E9.59077
G1 X44.856 Y63.599 E9.65602
G1 X45.23 Y62.814 E9.69181
G1 X46.413 Y60.982 E9.78157
G1 X47.045 Y60.236 E9.82181
G1 X48.403 Y58.978 E9.898
G1 X49.586 Y58.147 E9.95751
G1 X50.727 Y57.527 E10.01096
G1 X54.885 Y53.048 E10.2625
G1 X56.011 Y51.995 E10.32596
G1 X56.95 Y50.05 E10.41485
G0 F1620 X57.21 Y49.51
G0 F5100 X57.712 Y49.85
G1 F1800 X66.214 Y40.657 E10.93024
G1 X68.007 Y39.529 E11.01743
G1 X69.905 Y38.867 E11.10017
G1 X71.419 Y38.704 E11.16284
G1 X77.184 Y38.683 E11.40013
G1 X78.388 Y38.96 E11.45098
G1 X79.152 Y39.278 E11.48504
G1 X80.293 Y40.06 E11.54197
G1 X81.084 Y41.081 E11.59513
G1 X81.319 Y41.548 E11.61665
G1 X82.113 Y41.548 E11.64933
G1 X82.238 Y41.296 E11.66091
G1 X82.95 Y40.259 E11.71268
G1 X83.952 Y39.482 E11.76487
G1 X85.127 Y38.886 E11.8191
G1 X86.446 Y38.683 E11.87403
G1 X92.158 Y38.717 E12.10914
G1 X93.569 Y38.88 E12.1676
G1 X95.454 Y39.541 E12.24982
G1 X97.136 Y40.599 E12.3316
G1 X98.563 Y42.026 E12.41467
G1 X99.619 Y43.708 E12.49641
G1 X99.936 Y44.626 E12.53638
G1 X102.137 Y46.282 E12.64975
G1 X103.581 Y47.601 E12.73025
G1 X104.95 Y49.64 E12.83133
G1 X105.543 Y51.361 E12.90626
G1 X105.738 Y52.35 E12.94775
G1 X105.738 Y56.131 E13.10337
G1 X105.814 Y56.526 E13.11993
G1 X105.961 Y58.073 E13.18389
G1 X105.97 Y59.526 E13.24369
G1 X106.035 Y60.429 E13.28096
G1 X106.017 Y61.102 E13.30867
G1 X105.921 Y88.763 E14.44718
G1 X105.624 Y90.126 E14.5046
G1 X105.146 Y91.219 E14.5537
G1 X104.379 Y92.293 E14.60802
G1 X103.425 Y93.181 E14.66167
G1 X101.93 Y94.007 E14.73197
G1 X100.628 Y94.281 E14.78673
G1 X100.315 Y95.527 E14.83961
G1 X99.646 Y96.665 E14.89394
G1 X98.937 Y97.608 E14.9425
G1 X97.531 Y98.622 E15.01385
G1 X96.37 Y99.083 E15.06527
G1 X95.114 Y99.348 E15.1181
G1 X92.144 Y99.348 E15.24035
G1 X90.895 Y106.561 E15.54165
G1 X90.75 Y107.533 E15.5821
G1 X90.138 Y108.814 E15.64053
G1 X89.489 Y109.607 E15.68271
G1 X88.849 Y110.242 E15.71981
G1 X88.232 Y111.369 E15.7727
G1 X86.733 Y112.814 E15.85839
G1 X85.853 Y113.335 E15.90049
G1 X84.667 Y113.876 E15.95414
G1 X83.082 Y114.17 E16.02049
G1 X79.914 Y114.168 E16.15088
G1 X78.136 Y113.624 E16.22741
G1 X76.949 Y113.022 E16.28219
G1 X75.527 Y111.713 E16.36175
G1 X75.134 Y111.19 E16.38867
G1 X74.66 Y110.338 E16.4288
G1 X74.103 Y109.748 E16.4622
G1 X73.731 Y111.119 E16.52067
G1 X73.081 Y112.508 E16.58379
G1 X72.24 Y113.728 E16.64478
G1 X71.13 Y114.859 E16.71
G1 X69.896 Y115.734 E16.77227
G1 X68.511 Y116.401 E16.83554
G1 X66.926 Y116.832 E16.90315
G1 X65.355 Y116.959 E16.96802
G1 X63.903 Y116.832 E17.02801
G1 X62.33 Y116.405 E17.0951
G1 X60.909 Y115.718 E17.16006
G1 X59.705 Y114.862 E17.22086
G1 X58.567 Y113.704 E17.28769
G1 X57.706 Y112.434 E17.35084
G1 X57.088 Y111.095 E17.41154
G1 X56.675 Y109.544 E17.4776
G1 X56.554 Y107.991 E17.54172
G1 X56.616 Y107.336 E17.5688
G1 X55.794 Y107.419 E17.6028
G1 X54.333 Y107.373 E17.66297
G1 X53.152 Y107.198 E17.71211
G1 X51.8 Y106.829 E17.76979
G1 X50.395 Y106.247 E17.83238
G1 X49.082 Y105.493 E17.8947
G1 X48.38 Y104.981 E17.93047
G1 X46.993 Y103.679 E18.00877
G1 X46.12 Y102.589 E18.06625
G1 X45.384 Y101.396 E18.12394
G1 X44.721 Y99.911 E18.19088
G1 X44.369 Y98.747 E18.24093
G1 X44.139 Y97.526 E18.29207
G1 X44.04 Y95.672 E18.36849
G1 X44.113 Y94.699 E18.40865
G1 X44.461 Y92.95 E18.48205
G1 X44.934 Y91.583 E18.54159
G1 X45.335 Y90.732 E18.58031
G1 X46.437 Y89.024 E18.66397
G1 X47.069 Y88.278 E18.70421
G1 X48.26 Y87.166 E18.77128
G1 X48.515 Y86.976 E18.78437
G1 X48.18 Y86.051 E18.82486
G1 X47.937 Y85.031 E18.86802
G1 X47.937 Y77.452 E19.17996
G1 X48.1 Y76.682 E19.21236
G1 X47.362 Y75.956 E19.25497
G1 X46.542 Y74.922 E19.30929
G1 X45.902 Y73.896 E19.35906
G1 X45.187 Y72.344 E19.42939
G1 X44.806 Y71.105 E19.48274
G1 X44.573 Y69.872 E19.53439
G1 X44.474 Y68.026 E19.61048
G1 X44.529 Y67.199 E19.64459
G1 X44.898 Y65.292 E19.72454
G1 X45.398 Y63.857 E19.78709
G1 X45.772 Y63.072 E19.82288
G1 X46.871 Y61.37 E19.90627
G1 X47.503 Y60.624 E19.94651
G1 X48.749 Y59.468 E20.01647
G1 X49.874 Y58.673 E20.07317
G1 X50.951 Y58.083 E20.12371
G1 X51.083 Y58.025 E20.12964
G1 X55.295 Y53.486 E20.38451
G1 X56.327 Y52.522 E20.44264
G1 X56.545 Y52.271 E20.45632
G1 X57.452 Y50.39 E20.54227
G0 F1620 X57.712 Y49.85
G0 F5100 X58.213 Y50.192
G1 F1800 X66.601 Y41.122 E21.05076
G1 X68.266 Y40.075 E21.13171
G1 X70.038 Y39.457 E21.20896
G1 X71.483 Y39.301 E21.26878
G1 X77.116 Y39.283 E21.50063
G1 X78.203 Y39.533 E21.54654
G1 X78.865 Y39.809 E21.57606
G1 X79.878 Y40.503 E21.6266
G1 X80.572 Y41.399 E21.67325
G1 X80.949 Y42.148 E21.70776
G1 X82.499 Y42.148 E21.77156
G1 X82.733 Y41.635 E21.79476
G1 X83.391 Y40.676 E21.84263
G1 X84.276 Y39.99 E21.88872
G1 X85.312 Y39.465 E21.93653
G1 X86.491 Y39.283 E21.98563
G1 X92.089 Y39.313 E22.21604
G1 X93.434 Y39.468 E22.27177
G1 X95.192 Y40.085 E22.34845
G1 X96.76 Y41.071 E22.42469
G1 X98.09 Y42.401 E22.50211
G1 X99.074 Y43.969 E22.5783
G1 X99.429 Y44.996 E22.62303
G1 X101.732 Y46.725 E22.74156
G1 X103.123 Y47.996 E22.81911
G1 X104.408 Y49.909 E22.91396
G1 X104.954 Y51.477 E22.9823
G1 X105.138 Y52.41 E23.02144
G1 X105.138 Y56.189 E23.17698
G1 X105.217 Y56.584 E23.19356
G1 X105.361 Y58.077 E23.2553
G1 X105.37 Y59.546 E23.31576
G1 X105.435 Y60.413 E23.35155
G1 X105.417 Y61.086 E23.37926
G1 X105.321 Y88.699 E24.5158
G1 X105.052 Y89.936 E24.56791
G1 X104.62 Y90.923 E24.61225
G1 X103.926 Y91.895 E24.66141
G1 X103.069 Y92.692 E24.70958
G1 X101.719 Y93.439 E24.77308
G1 X100.311 Y93.735 E24.8323
G1 X100.144 Y93.746 E24.83919
G1 X99.754 Y95.297 E24.90502
G1 X99.166 Y96.304 E24.95301
G1 X98.511 Y97.175 E24.99787
G1 X97.24 Y98.092 E25.06238
G1 X96.195 Y98.507 E25.10866
G1 X95.052 Y98.748 E25.15673
G1 X91.666 Y98.748 E25.2961
G1 X91.518 Y99.448 E25.32555
G1 X90.304 Y106.459 E25.61841
G1 X90.17 Y107.355 E25.6557
G1 X89.628 Y108.489 E25.70743
G1 X89.066 Y109.181 E25.74413
G1 X88.366 Y109.876 E25.78473
G1 X87.75 Y111.001 E25.83752
G1 X86.367 Y112.334 E25.91658
G1 X85.604 Y112.789 E25.95314
G1 X84.485 Y113.299 E26.00376
G1 X83.026 Y113.57 E26.06484
G1 X80.005 Y113.568 E26.18918
G1 X78.358 Y113.064 E26.26007
G1 X77.293 Y112.524 E26.30922
G1 X75.975 Y111.311 E26.38294
G1 X75.658 Y110.898 E26.40437
G1 X75.148 Y109.981 E26.44756
G1 X74.218 Y108.995 E26.50335
G1 X73.795 Y108.43 E26.5324
G1 X73.664 Y108.181 E26.54398
G1 X73.538 Y109.54 E26.60015
G1 X73.166 Y110.912 E26.65866
G1 X72.558 Y112.21 E26.71766
G1 X71.776 Y113.345 E26.77439
G1 X70.739 Y114.401 E26.83531
G1 X69.593 Y115.214 E26.89314
G1 X68.299 Y115.837 E26.95225
G1 X66.823 Y116.238 E27.01521
G1 X65.359 Y116.357 E27.07566
G1 X64.006 Y116.238 E27.13157
G1 X62.54 Y115.84 E27.19409
G1 X61.218 Y115.201 E27.25453
G1 X60.097 Y114.404 E27.31114
G1 X59.031 Y113.319 E27.37374
G1 X58.231 Y112.14 E27.43239
G1 X57.655 Y110.891 E27.489
G1 X57.269 Y109.441 E27.55076
G1 X57.156 Y107.995 E27.61046
G1 X57.282 Y106.66 E27.66565
G1 X55.811 Y106.819 E27.72655
G1 X54.421 Y106.779 E27.78378
G1 X53.24 Y106.604 E27.83292
G1 X52.028 Y106.274 E27.88462
G1 X50.693 Y105.726 E27.94402
G1 X49.436 Y105.008 E28.0036
G1 X48.734 Y104.496 E28.03936
G1 X47.46 Y103.302 E28.11123
G1 X46.631 Y102.274 E28.16559
G1 X45.895 Y101.081 E28.22328
G1 X45.295 Y99.736 E28.2839
G1 X44.959 Y98.636 E28.33124
G1 X44.729 Y97.415 E28.38238
G1 X44.639 Y95.714 E28.45249
G1 X44.702 Y94.814 E28.48963
G1 X45.028 Y93.145 E28.55962
G1 X45.477 Y91.839 E28.61646
G1 X45.878 Y90.988 E28.65518
G1 X46.895 Y89.412 E28.73238
G1 X47.527 Y88.666 E28.77262
G1 X48.668 Y87.606 E28.83673
G1 X49.352 Y87.113 E28.87143
G1 X49.021 Y86.611 E28.89618
G1 X48.764 Y85.912 E28.92683
G1 X48.537 Y84.959 E28.96715
G1 X48.537 Y77.515 E29.27355
G1 X48.755 Y76.482 E29.317
G1 X47.831 Y75.582 E29.37009
G1 X47.05 Y74.602 E29.42167
G1 X46.446 Y73.643 E29.46832
G1 X45.76 Y72.166 E29.53535
G1 X45.396 Y70.994 E29.58586
G1 X45.163 Y69.761 E29.63751
G1 X45.073 Y68.066 E29.70737
G1 X45.128 Y67.239 E29.74148
G1 X45.465 Y65.488 E29.81488
G1 X45.94 Y64.115 E29.87467
G1 X46.314 Y63.33 E29.91046
G1 X47.329 Y61.758 E29.98748
G1 X47.961 Y61.012 E30.02772
G1 X49.096 Y59.957 E30.0915
G1 X50.163 Y59.199 E30.14538
G1 X51.194 Y58.632 E30.19381
G1 X51.438 Y58.524 E30.20479
G1 X55.705 Y53.924 E30.46304
G1 X56.762 Y52.936 E30.52259
G1 X57.049 Y52.606 E30.54059
G1 X57.953 Y50.732 E30.62623
G0 F1620 X58.213 Y50.192
G1 F2400 E24.12623
G1 F1200 Z0.75
G0 F5100 X71.341 Y99.597 Z0.75
G1 F1200 Z0.15
G1 F2400 E30.84242
G1 F1800 X69.48 Y100.14 E30.92221
G1 X69.892 Y100.347 E30.94119
G1 X71.195 Y101.273 E31.00698
G1 X71.726 Y101.822 E31.03842
G1 X71.395 Y99.913 E31.11816
G0 F1620 X71.341 Y99.597
G0 F5100 X71.817 Y98.833
G1 F1800 X67.623 Y100.057 E31.29799
G1 X68.291 Y100.239 E31.32648
G1 X69.545 Y100.836 E31.38365
G1 X70.802 Y101.729 E31.44711
G1 X71.788 Y102.748 E31.50547
G1 X72.603 Y103.949 E31.56521
G1 X72.763 Y104.294 E31.58087
G1 X71.919 Y99.424 E31.7843
G0 F1620 X71.817 Y98.833
G0 F5100 X72.322 Y98.332
G1 F1800 X72.305 Y98.066 E31.79527
G1 X64.697 Y100.286 E32.12147
G1 X64.647 Y100.389 E32.12618
G1 X65.467 Y100.323 E32.16004
G1 X66.723 Y100.434 E32.21194
G1 X68.08 Y100.803 E32.26982
G1 X69.24 Y101.356 E32.32272
G1 X70.411 Y102.188 E32.38184
G1 X71.321 Y103.128 E32.43569
G1 X72.077 Y104.241 E32.49107
G1 X72.609 Y105.391 E32.54322
G1 X72.967 Y106.736 E32.60051
G1 X73.072 Y108.071 E32.65563
G1 X72.946 Y109.431 E32.71184
G1 X72.6 Y110.707 E32.76626
G1 X72.037 Y111.91 E32.82093
G1 X71.314 Y112.959 E32.87337
G1 X70.345 Y113.945 E32.93027
G1 X69.29 Y114.693 E32.9835
G1 X68.088 Y115.272 E33.03841
G1 X66.718 Y115.645 E33.09685
G1 X65.363 Y115.755 E33.15281
G1 X64.109 Y115.644 E33.20462
G1 X62.75 Y115.275 E33.26258
G1 X61.527 Y114.684 E33.31849
G1 X60.486 Y113.944 E33.37106
G1 X59.497 Y112.937 E33.42915
G1 X58.758 Y111.848 E33.48332
G1 X58.221 Y110.685 E33.53605
G1 X57.863 Y109.338 E33.59341
G1 X57.758 Y107.999 E33.6487
G1 X57.884 Y106.667 E33.70376
G1 X58.097 Y105.855 E33.73832
G1 X57.306 Y106.054 E33.77189
G1 X55.826 Y106.219 E33.83318
G1 X54.509 Y106.185 E33.88741
G1 X53.328 Y106.01 E33.93655
G1 X52.254 Y105.718 E33.98236
G1 X50.989 Y105.204 E34.03856
G1 X49.79 Y104.523 E34.09531
G1 X49.088 Y104.011 E34.13107
G1 X47.926 Y102.924 E34.19657
G1 X47.14 Y101.957 E34.24786
G1 X46.442 Y100.835 E34.30224
G1 X45.868 Y99.559 E34.35983
G1 X45.549 Y98.525 E34.40437
G1 X45.319 Y97.304 E34.45551
G1 X45.238 Y95.756 E34.51931
G1 X45.301 Y94.856 E34.55645
G1 X45.596 Y93.339 E34.62006
G1 X46.02 Y92.095 E34.67415
G1 X46.421 Y91.244 E34.71287
G1 X47.353 Y89.8 E34.78361
G1 X47.985 Y89.054 E34.82385
G1 X49.019 Y88.093 E34.88195
G1 X50.137 Y87.287 E34.93868
G1 X50.137 Y87.185 E34.94288
G1 X49.583 Y86.401 E34.98239
G1 X49.348 Y85.773 E35.00999
G1 X49.137 Y84.887 E35.04748
G1 X49.137 Y77.576 E35.34839
G1 X49.339 Y76.615 E35.38881
G1 X49.471 Y76.304 E35.40272
G1 X49.276 Y76.152 E35.4129
G1 X48.299 Y75.207 E35.46884
G1 X47.558 Y74.282 E35.51762
G1 X46.954 Y73.323 E35.56427
G1 X46.305 Y71.915 E35.62808
G1 X45.986 Y70.883 E35.67254
G1 X45.753 Y69.65 E35.72419
G1 X45.672 Y68.106 E35.78783
G1 X45.727 Y67.279 E35.82194
G1 X46.033 Y65.683 E35.88883
G1 X46.482 Y64.373 E35.94583
G1 X46.856 Y63.588 E35.98162
G1 X47.787 Y62.146 E36.05226
G1 X48.419 Y61.4 E36.09251
G1 X49.445 Y60.445 E36.1502
G1 X50.452 Y59.725 E36.20115
G1 X51.483 Y59.158 E36.24958
G1 X51.792 Y59.025 E36.26343
G1 X56.115 Y54.362 E36.52514
G1 X57.193 Y53.355 E36.58586
G1 X57.555 Y52.938 E36.60859
G1 X58.714 Y50.534 E36.71844
G1 X66.988 Y41.587 E37.22002
G1 X68.525 Y40.621 E37.29474
G1 X70.171 Y40.047 E37.36649
G1 X71.548 Y39.898 E37.4235
G1 X77.048 Y39.883 E37.64987
G1 X78.018 Y40.106 E37.69084
G1 X78.578 Y40.34 E37.71582
G1 X79.463 Y40.946 E37.75997
G1 X80.06 Y41.717 E37.8001
G1 X80.424 Y42.439 E37.83338
G1 X80.508 Y42.748 E37.84656
G1 X82.945 Y42.748 E37.94687
G1 X83.023 Y42.446 E37.95971
G1 X83.228 Y41.975 E37.98085
G1 X83.834 Y41.092 E38.02493
