;FLAVOR:Marlin
;TIME:1400
;Filament used: 1.90038m
;Layer height: 0.3
;MINX:98.27
;MINY:85.515
;MINZ:0.15
;MAXX:136.699
;MAXY:132.41
;MAXZ:19.95
;TARGET_MACHINE.NAME:Unknown
;Generated with Cura_SteamEngine 5.8.1
M140 S60
M105
M190 S60
M104 S245
M105
M109 S245
M82 ;absolute extrusion mode
; Ender 3 Custom Start G-code
G92 E0 ; Reset Extruder
G28 ; Home all axes
G1 Z2.0 F3000 ; Move Z Axis up little to prevent scratching of Heat Bed
G1 X0.1 Y20 Z0.3 F5000.0 ; Move to start position
G1 X0.1 Y200.0 Z0.3 F1500.0 E15 ; Draw the first line
G1 X0.4 Y200.0 Z0.3 F5000.0 ; Move to side a little
G1 X0.4 Y20 Z0.3 F1500.0 E30 ; Draw the second line
G92 E0 ; Reset Extruder
G1 Z2.0 F3000 ; Move Z Axis up little to prevent scratching of Heat Bed
G1 X5 Y20 Z0.3 F5000.0 ; Move over to prevent blob squish
G92 E0
G92 E0
G1 F2400 E-6.5
;LAYER_COUNT:65
;LAYER:0
M107
G1 F1200 Z0.75
G0 F5100 X103.825 Y87.673 Z0.75
;TYPE:SKIRT
G1 F1200 Z0.15
G1 F2400 E0.21619
G1 F1800 X104.864 Y86.79 E0.27231
G1 X106.154 Y86.218 E0.33039
G1 X107.87 Y85.685 E0.40435
G1 X108.823 Y85.515 E0.4442
G1 X110.081 Y85.545 E0.49599
G1 X111.09 Y85.809 E0.53892
G1 X111.35 Y85.915 E0.55047
G1 X112.455 Y85.78 E0.59629
G1 X113.267 Y85.811 E0.62974
G1 X113.715 Y85.87 E0.64834
G1 X114.371 Y85.875 E0.67534
G1 X115.232 Y85.797 E0.71092
G1 X116.064 Y85.83 E0.74519
G1 X116.193 Y85.845 E0.75054
G1 X116.85 Y85.794 E0.77766
G1 X117.661 Y85.819 E0.81106
G1 X118.799 Y86.09 E0.85921
G1 X119.157 Y86.228 E0.875
G1 X119.873 Y86.419 E0.9055
G1 X120.703 Y86.739 E0.94211
G1 X121.812 Y87.458 E0.99651
G1 X122.794 Y88.506 E1.05563
G1 X123.57 Y90.072 E1.12756
G1 X124.108 Y92.455 E1.22811
G1 X124.108 Y100.585 E1.56274
G1 X131.42 Y100.585 E1.8637
G1 X132.859 Y100.888 E1.92422
G1 X134.08 Y101.488 E1.98022
G1 X135.139 Y102.329 E2.03588
G1 X136.003 Y103.562 E2.09785
G1 X136.398 Y104.519 E2.14046
G1 X136.699 Y105.796 E2.19446
G1 X136.699 Y116.71 E2.64368
G1 X136.393 Y118.153 E2.70439
G1 X135.698 Y119.573 E2.76946
G1 X134.751 Y120.548 E2.82541
G1 X134.151 Y121.031 E2.85711
G1 X133.16 Y121.562 E2.90338
G1 X131.662 Y121.985 E2.96745
G1 X124.107 Y121.985 E3.27841
G1 X124.107 Y124.842 E3.396
G1 X123.54 Y127.335 E3.50123
G1 X123.005 Y128.694 E3.56135
G1 X122.146 Y129.738 E3.61699
G1 X121.406 Y130.396 E3.65775
G1 X120.318 Y131.036 E3.70971
G1 X119.493 Y131.337 E3.74585
G1 X118.272 Y131.538 E3.79679
G1 X117.378 Y131.475 E3.83367
G1 X117.202 Y131.488 E3.84094
G1 X115.464 Y131.507 E3.91248
G1 X114.756 Y131.474 E3.94165
G1 X114.066 Y131.509 E3.97008
G1 X113.403 Y131.529 E3.99739
G1 X112.079 Y132.131 E4.05725
G1 X110.531 Y132.41 E4.12199
G1 X109.051 Y132.293 E4.1831
G1 X107.747 Y131.798 E4.24051
G1 X106.805 Y131.178 E4.28692
G1 X106.074 Y130.558 E4.32637
G1 X105.385 Y129.646 E4.37342
G1 X104.79 Y128.361 E4.4317
G1 X104.564 Y127.004 E4.48833
G1 X104.564 Y126.444 E4.51138
G1 X103.839 Y126.233 E4.54246
G1 X103.028 Y125.746 E4.58139
G1 X102.212 Y125.125 E4.6236
G1 X101.69 Y124.577 E4.65475
G1 X101.037 Y123.566 E4.70429
G1 X100.615 Y122.364 E4.75672
G1 X100.206 Y122.074 E4.77736
G1 X99.326 Y121.097 E4.83148
G1 X98.64 Y119.831 E4.89074
G1 X98.522 Y119.525 E4.90424
G1 X98.271 Y118.111 E4.96335
G1 X98.271 Y113.908 E5.13634
G1 X98.574 Y112.468 E5.19691
G1 X99.193 Y111.213 E5.25451
G1 X99.808 Y110.483 E5.29379
G1 X100.593 Y109.742 E5.33823
G1 X101.56 Y109.115 E5.38566
G1 X101.86 Y108.973 E5.39932
G1 X102.433 Y108.828 E5.42365
G1 X101.789 Y108.675 E5.45089
G1 X100.303 Y107.757 E5.52279
G1 X100.158 Y107.632 E5.53067
G1 X99.408 Y106.73 E5.57895
G1 X98.881 Y105.911 E5.61904
G1 X98.4 Y104.669 E5.67386
G1 X98.276 Y103.485 E5.72285
G1 X98.27 Y99.41 E5.89058
G1 X98.558 Y98.162 E5.9433
G1 X98.978 Y97.158 E5.98809
G1 X99.898 Y95.872 E6.05317
G1 X100.639 Y95.319 E6.09123
G1 X100.777 Y94.747 E6.11545
G1 X101.38 Y93.516 E6.17187
G1 X102.197 Y92.602 E6.22232
G1 X102.197 Y91.287 E6.27645
G1 X102.389 Y90.139 E6.32436
G1 X103.012 Y88.637 E6.39128
G1 X103.439 Y88.131 E6.41854
G0 F1620 X103.825 Y87.673
G0 F5100 X104.255 Y88.094
G1 F1800 X105.184 Y87.305 E6.4687
G1 X106.334 Y86.791 E6.52055
G1 X107.976 Y86.276 E6.59138
G1 X108.87 Y86.116 E6.62876
G1 X109.998 Y86.143 E6.6752
G1 X110.864 Y86.365 E6.712
G1 X111.167 Y86.488 E6.72546
G1 X111.437 Y86.509 E6.7366
G1 X112.48 Y86.382 E6.77985
G1 X113.244 Y86.411 E6.81132
G1 X113.676 Y86.47 E6.82926
G1 X114.395 Y86.475 E6.85886
G1 X115.208 Y86.397 E6.89248
G1 X116.04 Y86.43 E6.92675
G1 X116.182 Y86.448 E6.93264
G1 X116.832 Y86.394 E6.95948
G1 X117.585 Y86.417 E6.99049
G1 X118.583 Y86.65 E7.03267
G1 X118.967 Y86.798 E7.04961
G1 X119.657 Y86.979 E7.07897
G1 X120.43 Y87.277 E7.11307
G1 X121.424 Y87.922 E7.16184
G1 X122.294 Y88.85 E7.2142
G1 X123.002 Y90.278 E7.2798
G1 X123.508 Y92.521 E7.37444
G1 X123.508 Y101.185 E7.73105
G1 X131.359 Y101.185 E8.05419
G1 X132.662 Y101.459 E8.10899
G1 X133.756 Y101.997 E8.15917
G1 X134.699 Y102.746 E8.20874
G1 X135.474 Y103.852 E8.26433
G1 X135.825 Y104.701 E8.30214
G1 X136.099 Y105.865 E8.35136
G1 X136.099 Y116.647 E8.79514
G1 X135.822 Y117.955 E8.85017
G1 X135.2 Y119.225 E8.90837
G1 X134.375 Y120.081 E8.95731
G1 X133.82 Y120.528 E8.98664
G1 X132.933 Y121.003 E9.02805
G1 X131.58 Y121.385 E9.08592
G1 X123.507 Y121.385 E9.4182
G1 X123.507 Y124.775 E9.55773
G1 X122.965 Y127.158 E9.65831
G1 X122.482 Y128.384 E9.71255
G1 X121.711 Y129.322 E9.76253
G1 X121.05 Y129.909 E9.79891
G1 X120.064 Y130.489 E9.846
G1 X119.338 Y130.754 E9.87781
G1 X118.246 Y130.934 E9.92336
G1 X117.378 Y130.873 E9.95917
G1 X117.195 Y130.888 E9.96673
G1 X115.457 Y130.907 E10.03827
G1 X114.754 Y130.874 E10.06724
G1 X114.049 Y130.909 E10.09629
G1 X113.352 Y130.929 E10.12499
G1 X113.074 Y131.02 E10.13703
G1 X111.899 Y131.554 E10.19015
G1 X110.504 Y131.806 E10.2485
G1 X109.185 Y131.702 E10.30296
G1 X108.02 Y131.26 E10.35424
G1 X107.193 Y130.72 E10.3949
G1 X106.513 Y130.144 E10.43158
G1 X105.903 Y129.336 E10.47325
G1 X105.369 Y128.182 E10.52558
G1 X105.164 Y126.953 E10.57687
G1 X105.164 Y125.993 E10.61638
G1 X104.084 Y125.68 E10.66266
G1 X103.391 Y125.268 E10.69584
G1 X102.615 Y124.678 E10.73597
G1 X102.163 Y124.203 E10.76295
G1 X101.579 Y123.299 E10.80725
G1 X101.216 Y122.266 E10.85232
G1 X101.163 Y122.006 E10.86324
G1 X100.652 Y121.672 E10.88837
G1 X99.818 Y120.746 E10.93966
G1 X99.167 Y119.545 E10.99589
G1 X99.103 Y119.364 E11.00379
G1 X98.871 Y118.057 E11.05843
G1 X98.871 Y113.969 E11.22669
G1 X99.145 Y112.665 E11.28153
G1 X99.697 Y111.546 E11.33289
G1 X100.267 Y110.87 E11.36928
G1 X100.967 Y110.214 E11.40877
G1 X101.886 Y109.618 E11.45385
G1 X102.065 Y109.54 E11.46189
G1 X103.007 Y109.3 E11.5019
G1 X103.964 Y109.208 E11.54147
G1 X104.054 Y108.879 E11.55551
G1 X103.952 Y108.475 E11.57266
G1 X103.171 Y108.386 E11.60501
G1 X102.02 Y108.113 E11.6537
G1 X100.618 Y107.247 E11.72153
G1 X99.913 Y106.405 E11.76673
G1 X99.417 Y105.634 E11.80446
G1 X98.989 Y104.529 E11.85323
G1 X98.873 Y103.422 E11.89905
G1 X98.87 Y99.48 E12.0613
G1 X99.132 Y98.346 E12.1092
G1 X99.506 Y97.451 E12.14913
G1 X100.331 Y96.298 E12.20748
G1 X101.179 Y95.664 E12.25106
G1 X101.316 Y95.011 E12.27852
G1 X101.883 Y93.853 E12.33159
G1 X102.62 Y93.025 E12.37722
G1 X102.797 Y92.874 E12.38679
G1 X102.797 Y91.338 E12.45001
G1 X102.97 Y90.304 E12.49316
G1 X103.53 Y88.954 E12.55332
G1 X103.869 Y88.552 E12.57496
G0 F1620 X104.255 Y88.094
G0 F5100 X104.683 Y88.518
G1 F1800 X105.508 Y87.817 E12.61952
G1 X106.514 Y87.364 E12.66493
G1 X108.156 Y86.849 E12.73576
G1 X108.915 Y86.717 E12.76747
G1 X109.917 Y86.741 E12.80873
G1 X110.715 Y86.946 E12.84264
G1 X111.023 Y87.078 E12.85643
G1 X111.452 Y87.112 E12.87414
G1 X112.504 Y86.984 E12.91776
G1 X113.221 Y87.011 E12.94729
G1 X113.631 Y87.07 E12.96434
G1 X114.425 Y87.075 E12.99702
G1 X115.184 Y86.997 E13.02843
G1 X116.016 Y87.03 E13.0627
G1 X116.163 Y87.053 E13.06882
G1 X116.814 Y86.994 E13.09573
G1 X117.509 Y87.015 E13.12435
G1 X118.368 Y87.21 E13.1606
G1 X118.784 Y87.37 E13.17895
G1 X119.441 Y87.539 E13.20687
G1 X120.159 Y87.816 E13.23855
G1 X121.035 Y88.384 E13.28152
G1 X121.795 Y89.195 E13.32726
G1 X122.433 Y90.482 E13.38639
G1 X122.908 Y92.587 E13.47521
G1 X122.908 Y101.785 E13.85379
G1 X131.297 Y101.785 E14.19908
G1 X132.466 Y102.031 E14.24825
G1 X133.432 Y102.506 E14.29255
G1 X134.259 Y103.163 E14.33603
G1 X134.943 Y104.139 E14.38508
G1 X135.252 Y104.887 E14.41839
G1 X135.499 Y105.935 E14.46271
G1 X135.499 Y116.584 E14.90102
G1 X135.251 Y117.757 E14.95036
G1 X134.703 Y118.876 E15.00165
G1 X133.943 Y119.664 E15.04671
G1 X133.487 Y120.026 E15.07067
G1 X132.706 Y120.444 E15.10713
G1 X131.498 Y120.785 E15.15879
G1 X122.907 Y120.785 E15.5124
G1 X122.907 Y124.708 E15.67386
G1 X122.39 Y126.981 E15.76981
G1 X121.958 Y128.077 E15.8183
G1 X121.279 Y128.903 E15.86231
G1 X120.695 Y129.422 E15.89446
G1 X119.81 Y129.942 E15.93671
G1 X119.183 Y130.171 E15.96419
G1 X118.215 Y130.331 E16.00457
G1 X117.37 Y130.271 E16.03944
G1 X117.188 Y130.288 E16.04696
G1 X115.45 Y130.307 E16.1185
G1 X114.753 Y130.274 E16.14722
G1 X114.031 Y130.309 E16.17697
G1 X113.249 Y130.332 E16.20917
G1 X112.861 Y130.458 E16.22596
G1 X111.717 Y130.978 E16.27769
G1 X110.475 Y131.202 E16.32963
G1 X109.318 Y131.111 E16.3774
G1 X108.292 Y130.721 E16.42258
G1 X107.581 Y130.262 E16.45741
G1 X106.95 Y129.728 E16.49143
G1 X106.422 Y129.028 E16.52752
G1 X105.948 Y128.003 E16.574
G1 X105.764 Y126.902 E16.61995
G1 X105.764 Y125.485 E16.67827
G1 X105.494 Y125.464 E16.68942
G1 X104.327 Y125.126 E16.73943
G1 X103.698 Y124.752 E16.76955
G1 X103.016 Y124.23 E16.80489
G1 X102.636 Y123.83 E16.8276
G1 X102.122 Y123.034 E16.8666
G1 X101.782 Y122.067 E16.90879
G1 X101.708 Y121.631 E16.927
G1 X101.098 Y121.271 E16.95615
G1 X100.311 Y120.397 E17.00456
G1 X99.694 Y119.259 E17.05784
G1 X99.471 Y118.003 E17.11034
G1 X99.471 Y114.031 E17.27383
G1 X99.717 Y112.862 E17.323
G1 X100.201 Y111.879 E17.36809
G1 X100.726 Y111.257 E17.4016
G1 X101.339 Y110.688 E17.43602
G1 X102.213 Y110.121 E17.4789
G1 X103.109 Y109.893 E17.51696
G1 X104.258 Y109.782 E17.56447
G1 X104.492 Y109.521 E17.5789
G1 X104.636 Y109.089 E17.59764
G1 X104.661 Y108.851 E17.60749
G1 X104.539 Y108.263 E17.63221
G1 X104.281 Y107.908 E17.65027
G1 X103.31 Y107.802 E17.69047
G1 X102.253 Y107.551 E17.73519
G1 X101.014 Y106.786 E17.79512
G1 X100.418 Y106.08 E17.83315
G1 X99.954 Y105.359 E17.86844
G1 X99.578 Y104.387 E17.91134
G1 X99.47 Y103.359 E17.95388
G1 X99.47 Y99.55 E18.11066
G1 X99.706 Y98.527 E18.15387
G1 X100.033 Y97.746 E18.18872
G1 X100.765 Y96.723 E18.24049
G1 X101.544 Y96.14 E18.28054
G1 X101.712 Y96.045 E18.28848
G1 X101.887 Y95.209 E18.32364
G1 X102.386 Y94.19 E18.37034
G1 X103.068 Y93.424 E18.41255
G1 X103.397 Y93.166 E18.42976
G1 X103.397 Y91.389 E18.5029
G1 X103.551 Y90.469 E18.5413
G1 X104.048 Y89.271 E18.59468
G1 X104.297 Y88.976 E18.61057
G0 F1620 X104.683 Y88.518
G0 F5100 X105.113 Y88.939
G1 F1800 X105.831 Y88.329 E18.64935
G1 X106.694 Y87.937 E18.68836
G1 X108.336 Y87.422 E18.75919
G1 X108.96 Y87.318 E18.78523
G1 X109.835 Y87.339 E18.82125
G1 X110.565 Y87.527 E18.85228
G1 X110.869 Y87.668 E18.86607
G1 X111.467 Y87.715 E18.89076
G1 X112.529 Y87.586 E18.93479
G1 X113.199 Y87.611 E18.96239
G1 X113.584 Y87.67 E18.97842
G1 X114.455 Y87.675 E19.01427
G1 X115.245 Y87.594 E19.04696
G1 X115.922 Y87.623 E19.07485
G1 X116.142 Y87.658 E19.08402
G1 X116.796 Y87.594 E19.11106
G1 X117.435 Y87.613 E19.13738
G1 X118.152 Y87.77 E19.16759
G1 X118.601 Y87.943 E19.18739
G1 X119.225 Y88.099 E19.21387
G1 X119.886 Y88.354 E19.24303
G1 X120.647 Y88.848 E19.28037
G1 X121.296 Y89.54 E19.31942
G1 X121.864 Y90.686 E19.37206
G1 X122.308 Y92.653 E19.45506
G1 X122.308 Y102.385 E19.85562
G1 X131.235 Y102.385 E20.22305
G1 X132.27 Y102.603 E20.26659
G1 X133.108 Y103.015 E20.30502
G1 X133.819 Y103.58 E20.3424
G1 X134.412 Y104.426 E20.38493
G1 X134.679 Y105.073 E20.41373
G1 X134.899 Y106.005 E20.45315
G1 X134.899 Y116.522 E20.88602
G1 X134.68 Y117.559 E20.92965
G1 X134.205 Y118.528 E20.97406
G1 X133.57 Y119.194 E21.01194
G1 X133.158 Y119.521 E21.03359
G1 X132.481 Y119.884 E21.06521
G1 X131.413 Y120.185 E21.11088
G1 X122.307 Y120.185 E21.48568
G1 X122.307 Y124.641 E21.66908
G1 X121.815 Y126.804 E21.76038
G1 X121.434 Y127.77 E21.80312
G1 X120.847 Y128.484 E21.84117
G1 X120.339 Y128.935 E21.86913
G1 X119.552 Y129.398 E21.90671
G1 X119.033 Y129.588 E21.92946
G1 X118.189 Y129.727 E21.96467
G1 X117.363 Y129.669 E21.99875
G1 X117.133 Y129.69 E22.00825
G1 X116.237 Y129.697 E22.04513
G1 X115.873 Y129.674 E22.06015
G1 X115.478 Y129.708 E22.07646
G1 X114.753 Y129.674 E22.10634
G1 X114.013 Y129.709 E22.13683
G1 X113.146 Y129.735 E22.17253
G1 X112.648 Y129.896 E22.19407
G1 X111.537 Y130.401 E22.2443
G1 X110.447 Y130.598 E22.28989
G1 X109.452 Y130.52 E22.33097
G1 X108.565 Y130.183 E22.37003
G1 X107.907 Y129.758 E22.40227
G1 X107.388 Y129.313 E22.43041
G1 X106.939 Y128.717 E22.46112
G1 X106.527 Y127.827 E22.50149
G1 X106.364 Y126.851 E22.54221
G1 X106.364 Y124.866 E22.62392
G1 X105.661 Y124.888 E22.65287
G1 X104.57 Y124.572 E22.69962
G1 X104.005 Y124.236 E22.72667
G1 X103.383 Y123.755 E22.75904
G1 X103.14 Y123.504 E22.77342
G1 X102.664 Y122.767 E22.80953
G1 X102.348 Y121.868 E22.84875
G1 X102.261 Y121.26 E22.87403
G1 X101.481 Y120.8 E22.9113
G1 X100.804 Y120.048 E22.95295
G1 X100.268 Y119.06 E22.99921
G1 X100.071 Y117.949 E23.04565
G1 X100.071 Y114.093 E23.20436
G1 X100.289 Y113.058 E23.2479
G1 X100.706 Y112.211 E23.28676
G1 X101.134 Y111.697 E23.31429
G1 X101.708 Y111.164 E23.34653
G1 X102.458 Y110.678 E23.38331
G1 X103.213 Y110.485 E23.41538
G1 X104.443 Y110.367 E23.46624
G1 X104.659 Y110.244 E23.47647
G1 X105.023 Y109.823 E23.49938
G1 X105.226 Y109.215 E23.52576
G1 X105.264 Y108.852 E23.54079
G1 X105.231 Y108.528 E23.55419
G1 X105.101 Y108.041 E23.57494
G1 X104.96 Y107.78 E23.58715
G1 X104.641 Y107.405 E23.60741
G1 X104.455 Y107.323 E23.61578
G1 X103.449 Y107.218 E23.65741
G1 X102.486 Y106.989 E23.69815
G1 X101.411 Y106.326 E23.75014
G1 X100.877 Y105.693 E23.78422
G1 X100.492 Y105.086 E23.81381
G1 X100.166 Y104.242 E23.85105
G1 X100.07 Y103.359 E23.88761
G1 X100.07 Y99.62 E24.0415
G1 X100.28 Y98.711 E24.0799
G1 X100.561 Y98.039 E24.10988
G1 X101.2 Y97.146 E24.15508
G1 X101.903 Y96.62 E24.19121
G1 X102.238 Y96.457 E24.20655
G1 X102.458 Y95.407 E24.2507
G1 X102.889 Y94.527 E24.29103
G1 X103.516 Y93.823 E24.32984
G1 X103.997 Y93.469 E24.35442
G1 X103.997 Y91.44 E24.43793
G1 X104.132 Y90.634 E24.47157
G1 X104.566 Y89.588 E24.51818
G1 X104.727 Y89.397 E24.52846
G0 F1620 X105.113 Y88.939
G0 F5100 X105.538 Y89.365
G1 F1800 X106.157 Y88.839 E24.56189
G1 X106.876 Y88.509 E24.59446
G1 X108.435 Y88.014 E24.66178
G1 X109.003 Y87.919 E24.68548
G1 X109.752 Y87.937 E24.71632
G1 X110.36 Y88.094 E24.74217
G1 X110.713 Y88.257 E24.75817
G1 X111.482 Y88.318 E24.78992
G1 X112.554 Y88.188 E24.83437
G1 X113.177 Y88.211 E24.86003
G1 X113.531 Y88.27 E24.8748
G1 X114.482 Y88.275 E24.91394
G1 X115.223 Y88.194 E24.94462
G1 X115.829 Y88.216 E24.96958
G1 X116.127 Y88.263 E24.982
G1 X116.779 Y88.194 E25.00899
G1 X117.362 Y88.211 E25.03299
G1 X118.023 Y88.356 E25.06084
G1 X118.414 Y88.515 E25.07822
G1 X119.009 Y88.659 E25.10341
G1 X119.613 Y88.892 E25.13006
G1 X120.259 Y89.312 E25.16177
G1 X120.797 Y89.885 E25.19413
G1 X121.295 Y90.89 E25.24029
G1 X121.708 Y92.719 E25.31747
G1 X121.708 Y102.985 E25.74001
G1 X131.174 Y102.985 E26.12962
G1 X132.073 Y103.174 E26.16744
G1 X132.784 Y103.524 E26.20005
G1 X133.379 Y103.997 E26.23134
G1 X133.882 Y104.715 E26.26742
G1 X134.106 Y105.256 E26.29152
G1 X134.299 Y106.075 E26.32616
G1 X134.299 Y116.46 E26.7536
G1 X134.109 Y117.361 E26.7915
G1 X133.706 Y118.182 E26.82914
G1 X133.196 Y118.724 E26.85977
G1 X132.824 Y119.02 E26.87934
G1 X132.254 Y119.325 E26.90595
G1 X131.332 Y119.585 E26.94538
G1 X121.707 Y119.585 E27.34153
G1 X121.707 Y124.574 E27.54688
G1 X121.24 Y126.627 E27.63354
G1 X120.911 Y127.46 E27.6704
G1 X120.412 Y128.068 E27.70278
G1 X119.983 Y128.448 E27.72636
G1 X119.29 Y128.856 E27.75946
G1 X118.936 Y128.996 E27.77513
G1 X118.163 Y129.123 E27.80737
G1 X117.356 Y129.067 E27.84067
G1 X117.127 Y129.09 E27.85014
G1 X116.275 Y129.098 E27.88521
G1 X115.866 Y129.072 E27.90208
G1 X115.426 Y129.11 E27.92026
