;FLAVOR:Marlin
;TIME:5356
;Filament used: 10.8141m
;Layer height: 0.3
;MINX:53.531
;MINY:58.267
;MINZ:0.15
;MAXX:161.476
;MAXY:151.286
;MAXZ:21.75
;TARGET_MACHINE.NAME:Unknown
;Generated with Cura_SteamEngine 5.8.1
M140 S60
M105
M190 S60
M104 S245
M105
M109 S245
M82 ;absolute extrusion mode
; Ender 3 Custom Start G-code
G92 E0 ; Reset Extruder
G28 ; Home all axes
G1 Z2.0 F3000 ; Move Z Axis up little to prevent scratching of Heat Bed
G1 X0.1 Y20 Z0.3 F5000.0 ; Move to start position
G1 X0.1 Y200.0 Z0.3 F1500.0 E15 ; Draw the first line
G1 X0.4 Y200.0 Z0.3 F5000.0 ; Move to side a little
G1 X0.4 Y20 Z0.3 F1500.0 E30 ; Draw the second line
G92 E0 ; Reset Extruder
G1 Z2.0 F3000 ; Move Z Axis up little to prevent scratching of Heat Bed
G1 X5 Y20 Z0.3 F5000.0 ; Move over to prevent blob squish
G92 E0
G92 E0
G1 F2400 E-6.5
;LAYER_COUNT:71
;LAYER:0
M107
G1 F1200 Z0.75
G0 F5100 X60.882 Y59.924 Z0.75
;TYPE:SKIRT
G1 F1200 Z0.15
G1 F2400 E0.21619
G1 F1800 X61.954 Y59.114 E0.27149
G1 X63.295 Y58.465 E0.33281
G1 X64.752 Y58.267 E0.39333
G1 X104.542 Y59.201 E2.03152
G1 X105.784 Y59.424 E2.08345
G1 X107.333 Y60.156 E2.15397
G1 X108.598 Y61.316 E2.22461
G1 X109.343 Y62.601 E2.28575
G1 X109.671 Y63.636 E2.33044
G1 X109.834 Y64.804 E2.37898
G1 X109.696 Y68.497 E2.53109
G1 X109.506 Y69.791 E2.58492
G1 X108.848 Y71.355 E2.65476
G1 X107.959 Y72.632 E2.7188
G1 X107.013 Y73.575 E2.77378
G1 X105.568 Y74.567 E2.84592
G1 X105.203 Y74.721 E2.86222
G1 X105.135 Y77.223 E2.96524
G1 X105.543 Y77.048 E2.98352
G1 X106.889 Y76.835 E3.03961
G1 X122.619 Y76.835 E3.68704
G1 X123.925 Y77.136 E3.74221
G1 X124.799 Y77.502 E3.78121
G1 X126.068 Y78.37 E3.84449
G1 X126.951 Y79.51 E3.90384
G1 X127.517 Y80.633 E3.9556
G1 X127.599 Y80.929 E3.96824
G1 X135.389 Y80.929 E4.28887
G1 X135.454 Y80.688 E4.29915
G1 X135.799 Y79.865 E4.33588
G1 X136.667 Y78.596 E4.39916
G1 X137.806 Y77.713 E4.45848
G1 X139.098 Y77.062 E4.51802
G1 X140.537 Y76.835 E4.57798
G1 X156.266 Y76.835 E5.22538
G1 X157.572 Y77.136 E5.28054
G1 X158.446 Y77.502 E5.31954
G1 X159.713 Y78.369 E5.38273
G1 X160.601 Y79.515 E5.44241
G1 X161.248 Y80.802 E5.5017
G1 X161.476 Y82.246 E5.56187
G1 X161.42 Y136.263 E7.78518
G1 X161.056 Y138.695 E7.88639
G1 X160.747 Y139.799 E7.93358
G1 X159.45 Y142.284 E8.04895
G1 X158.718 Y143.266 E8.09936
G1 X156.631 Y145.12 E8.21426
G1 X155.689 Y145.771 E8.26139
G1 X152.823 Y146.976 E8.38936
G1 X151.719 Y147.256 E8.43624
G1 X148.163 Y147.464 E8.58285
G1 X144.774 Y147.45 E8.72234
G1 X114.439 Y147.455 E9.97091
G1 X111.558 Y147.27 E10.08974
G1 X110.258 Y147.027 E10.14417
G1 X107.589 Y145.898 E10.26345
G1 X106.476 Y145.265 E10.31615
G1 X105.982 Y144.822 E10.34346
G1 X105.87 Y145.592 E10.37549
G1 X105.165 Y147.323 E10.45242
G1 X104.01 Y148.799 E10.52956
G1 X102.597 Y149.982 E10.60541
G1 X101.147 Y150.704 E10.67208
G1 X99.695 Y151.139 E10.73446
G1 X97.973 Y151.286 E10.8056
G1 X66.61 Y150.559 E12.09683
G1 X64.537 Y150.123 E12.18402
G1 X62.633 Y149.169 E12.27167
G1 X61.324 Y148.052 E12.3425
G1 X60.416 Y146.885 E12.40336
G1 X59.658 Y145.431 E12.47085
G1 X59.209 Y143.522 E12.55157
G1 X59.329 Y138.756 E12.7478
G1 X59.77 Y136.834 E12.82896
G1 X60.717 Y135.218 E12.90605
G1 X61.859 Y133.938 E12.97666
G1 X62.496 Y133.505 E13.00836
G1 X62.944 Y114.532 E13.78949
G1 X58.81 Y114.532 E13.95965
G1 X57.371 Y114.229 E14.02018
G1 X56.15 Y113.629 E14.07617
G1 X55.091 Y112.788 E14.13183
G1 X54.227 Y111.555 E14.1938
G1 X53.832 Y110.598 E14.23641
G1 X53.531 Y109.321 E14.29041
G1 X53.531 Y98.411 E14.73946
G1 X53.834 Y96.972 E14.79999
G1 X54.434 Y95.751 E14.85599
G1 X55.275 Y94.692 E14.91165
G1 X56.508 Y93.828 E14.97362
G1 X57.465 Y93.433 E15.01623
G1 X58.742 Y93.132 E15.07023
G1 X63.348 Y93.132 E15.25981
G1 X63.556 Y80.917 E15.76264
G1 X63.692 Y73.857 E16.05328
G1 X62.877 Y73.451 E16.09076
G1 X61.529 Y72.445 E16.15999
G1 X60.319 Y71.018 E16.237
G1 X59.462 Y69.188 E16.32017
G1 X59.157 Y67.432 E16.39353
G1 X59.222 Y63.602 E16.55119
G1 X59.455 Y62.201 E16.60965
G1 X60.062 Y61.02 E16.6643
G1 X60.523 Y60.404 E16.69597
G0 F1620 X60.882 Y59.924
G0 F5100 X61.311 Y60.352
G1 F1800 X62.268 Y59.628 E16.74536
G1 X63.468 Y59.047 E16.80024
G1 X64.788 Y58.868 E16.85507
G1 X104.48 Y59.8 E18.48922
G1 X105.6 Y60.001 E18.53605
G1 X106.995 Y60.66 E18.59955
G1 X108.125 Y61.697 E18.66268
G1 X108.791 Y62.845 E18.71731
G1 X109.084 Y63.77 E18.75724
G1 X109.232 Y64.831 E18.80134
G1 X109.102 Y68.41 E18.94874
G1 X108.923 Y69.629 E18.99945
G1 X108.319 Y71.065 E19.06357
G1 X107.499 Y72.243 E19.12265
G1 X106.629 Y73.11 E19.1732
G1 X105.228 Y74.072 E19.24315
G1 X104.614 Y74.299 E19.2701
G1 X104.507 Y78.214 E19.4313
G1 X105.637 Y77.641 E19.48344
G1 X106.939 Y77.435 E19.5377
G1 X122.549 Y77.435 E20.1802
G1 X123.744 Y77.71 E20.23067
G1 X124.51 Y78.031 E20.26485
G1 X125.651 Y78.812 E20.32177
G1 X126.441 Y79.831 E20.37484
G1 X126.981 Y80.903 E20.42424
G1 X127.109 Y81.529 E20.45054
G1 X135.867 Y81.529 E20.81101
G1 X136.007 Y80.92 E20.83673
G1 X136.328 Y80.154 E20.87092
G1 X137.109 Y79.013 E20.92783
G1 X138.128 Y78.223 E20.9809
G1 X139.284 Y77.64 E21.03419
G1 X140.586 Y77.435 E21.08844
G1 X156.196 Y77.435 E21.73093
G1 X157.391 Y77.71 E21.78141
G1 X158.157 Y78.031 E21.81559
G1 X159.298 Y78.812 E21.8725
G1 X160.089 Y79.833 E21.92566
G1 X160.67 Y80.988 E21.97888
G1 X160.876 Y82.294 E22.03329
G1 X160.826 Y136.175 E24.25101
G1 X160.478 Y138.533 E24.34911
G1 X160.186 Y139.577 E24.39373
G1 X158.94 Y141.964 E24.50456
G1 X158.273 Y142.859 E24.5505
G1 X156.29 Y144.626 E24.65982
G1 X155.398 Y145.242 E24.70444
G1 X152.633 Y146.405 E24.8279
G1 X151.626 Y146.66 E24.87066
G1 X148.165 Y146.864 E25.01336
G1 X144.776 Y146.85 E25.15285
G1 X114.477 Y146.856 E26.39994
G1 X111.668 Y146.68 E26.51578
G1 X110.433 Y146.449 E26.5675
G1 X107.823 Y145.345 E26.68414
G1 X106.827 Y144.774 E26.73139
G1 X105.508 Y143.592 E26.80429
G1 X105.492 Y144.023 E26.82204
G1 X105.286 Y145.434 E26.88073
G1 X104.64 Y147.021 E26.95126
G1 X103.577 Y148.379 E27.02224
G1 X102.267 Y149.476 E27.09257
G1 X100.926 Y150.144 E27.15423
G1 X99.583 Y150.546 E27.21193
G1 X97.987 Y150.686 E27.27787
G1 X66.677 Y149.96 E28.56692
G1 X64.736 Y149.552 E28.64856
G1 X62.968 Y148.666 E28.72995
G1 X61.76 Y147.635 E28.79532
G1 X60.922 Y146.558 E28.85149
G1 X60.225 Y145.221 E28.91355
G1 X59.811 Y143.461 E28.98796
G1 X59.927 Y138.831 E29.17859
G1 X60.334 Y137.058 E29.25347
G1 X61.205 Y135.572 E29.32436
G1 X62.256 Y134.394 E29.38934
G1 X63.089 Y133.829 E29.43077
G1 X63.559 Y113.932 E30.24994
G1 X58.871 Y113.932 E30.4429
G1 X57.568 Y113.658 E30.4977
G1 X56.474 Y113.12 E30.54788
G1 X55.531 Y112.371 E30.59745
G1 X54.756 Y111.265 E30.65303
G1 X54.405 Y110.416 E30.69085
G1 X54.131 Y109.252 E30.74007
G1 X54.131 Y98.472 E31.18377
G1 X54.405 Y97.169 E31.23857
G1 X54.943 Y96.075 E31.28875
G1 X55.692 Y95.132 E31.33831
G1 X56.798 Y94.357 E31.3939
G1 X57.647 Y94.006 E31.43171
G1 X58.811 Y93.732 E31.48093
G1 X63.938 Y93.732 E31.69196
G1 X64.156 Y80.929 E32.219
G1 X64.299 Y73.489 E32.52528
G1 X63.193 Y72.938 E32.57614
G1 X61.943 Y72.005 E32.64034
G1 X60.827 Y70.689 E32.71136
G1 X60.04 Y69.008 E32.78776
G1 X59.758 Y67.386 E32.85552
G1 X59.821 Y63.656 E33.00906
G1 X60.031 Y62.394 E33.06172
G1 X60.577 Y61.333 E33.11084
G1 X60.952 Y60.832 E33.13659
G0 F1620 X61.311 Y60.352
G0 F5100 X61.74 Y60.78
G1 F1800 X62.584 Y60.142 E33.18014
G1 X63.643 Y59.629 E33.22857
G1 X64.824 Y59.469 E33.27763
G1 X104.418 Y60.399 E34.90774
G1 X105.418 Y60.578 E34.94955
G1 X106.655 Y61.163 E35.00588
G1 X107.652 Y62.078 E35.06157
G1 X108.238 Y63.088 E35.10963
G1 X108.498 Y63.907 E35.145
G1 X108.63 Y64.858 E35.18452
G1 X108.508 Y68.323 E35.32723
G1 X108.34 Y69.467 E35.37482
G1 X107.791 Y70.772 E35.43309
G1 X107.034 Y71.86 E35.48764
G1 X106.248 Y72.643 E35.53331
G1 X104.888 Y73.577 E35.60122
G1 X104.026 Y73.863 E35.6386
G1 X103.872 Y79.453 E35.86876
G1 X104.8 Y78.735 E35.91706
G1 X105.823 Y78.219 E35.96422
G1 X106.989 Y78.035 E36.0128
G1 X122.479 Y78.035 E36.65036
G1 X123.56 Y78.284 E36.69602
G1 X124.223 Y78.561 E36.7256
G1 X125.236 Y79.255 E36.77614
G1 X125.929 Y80.15 E36.82273
G1 X126.445 Y81.173 E36.86989
G1 X126.596 Y82.129 E36.90972
G1 X136.345 Y82.129 E37.31098
G1 X136.581 Y81.104 E37.35428
G1 X136.858 Y80.441 E37.38385
G1 X137.552 Y79.428 E37.43439
G1 X138.447 Y78.735 E37.48098
G1 X139.47 Y78.219 E37.52814
G1 X140.636 Y78.035 E37.57673
G1 X156.126 Y78.035 E38.21429
G1 X157.207 Y78.284 E38.25994
G1 X157.87 Y78.561 E38.28952
G1 X158.883 Y79.255 E38.34006
G1 X159.577 Y80.151 E38.38671
G1 X160.092 Y81.174 E38.43385
G1 X160.276 Y82.342 E38.48252
G1 X160.232 Y136.087 E40.69463
G1 X159.884 Y138.445 E40.79273
G1 X159.625 Y139.355 E40.83168
G1 X158.432 Y141.642 E40.93785
G1 X157.827 Y142.453 E40.97949
G1 X155.949 Y144.132 E41.08318
G1 X155.107 Y144.713 E41.12528
G1 X152.444 Y145.833 E41.24419
G1 X151.531 Y146.065 E41.28296
G1 X148.167 Y146.264 E41.42166
G1 X144.778 Y146.25 E41.56115
G1 X118.071 Y146.25 E42.6604
G1 X114.515 Y146.257 E42.80676
G1 X111.706 Y146.081 E42.92261
G1 X110.611 Y145.872 E42.96849
G1 X108.057 Y144.792 E43.08262
G1 X107.182 Y144.286 E43.12423
G1 X105.25 Y142.555 E43.23099
G1 X104.947 Y142.192 E43.25046
G1 X104.898 Y143.936 E43.32227
G1 X104.702 Y145.276 E43.37801
G1 X104.116 Y146.716 E43.442
G1 X103.141 Y147.962 E43.50712
G1 X101.937 Y148.97 E43.57175
G1 X100.705 Y149.584 E43.6284
G1 X99.471 Y149.953 E43.68142
G1 X98.001 Y150.086 E43.74217
G1 X66.744 Y149.361 E45.02903
G1 X64.935 Y148.981 E45.10512
G1 X63.303 Y148.163 E45.18025
G1 X62.196 Y147.218 E45.24016
G1 X61.428 Y146.231 E45.29163
G1 X60.792 Y145.011 E45.34826
G1 X60.413 Y143.4 E45.41638
G1 X60.525 Y138.906 E45.60141
G1 X60.898 Y137.282 E45.66999
G1 X61.693 Y135.926 E45.73469
G1 X62.655 Y134.848 E45.79416
G1 X63.682 Y134.151 E45.84524
G1 X64.173 Y113.332 E46.70238
G1 X58.933 Y113.332 E46.91806
G1 X57.764 Y113.086 E46.96722
G1 X56.798 Y112.611 E47.01153
G1 X55.971 Y111.954 E47.055
G1 X55.287 Y110.978 E47.10406
G1 X54.978 Y110.23 E47.13737
G1 X54.731 Y109.182 E47.18169
G1 X54.731 Y98.534 E47.61995
G1 X54.977 Y97.365 E47.66912
G1 X55.452 Y96.399 E47.71343
G1 X56.109 Y95.572 E47.7569
G1 X57.085 Y94.888 E47.80596
G1 X57.833 Y94.579 E47.83927
G1 X58.881 Y94.332 E47.88358
G1 X64.528 Y94.332 E48.11601
G1 X64.756 Y80.941 E48.66726
G1 X64.907 Y73.073 E48.99116
G1 X64.61 Y72.974 E49.00404
G1 X63.509 Y72.425 E49.05468
G1 X62.357 Y71.565 E49.11385
G1 X61.336 Y70.361 E49.17883
G1 X60.617 Y68.826 E49.2486
G1 X60.359 Y67.34 E49.31067
G1 X60.42 Y63.712 E49.46002
G1 X60.608 Y62.585 E49.50705
G1 X61.088 Y61.652 E49.55023
G1 X61.381 Y61.26 E49.57038
G0 F1620 X61.74 Y60.78
G1 F2400 E43.07038
G1 F1200 Z0.75
G0 F5100 X102.698 Y121.362 Z0.75
G1 F1200 Z0.15
G1 F2400 E49.78657
G1 F1800 X102.372 Y135.265 E50.35896
G1 X102.703 Y135.499 E50.37565
G1 X102.698 Y121.962 E50.93282
G0 F1620 X102.698 Y121.362
G1 F2400 E44.43282
G1 F1200 Z0.75
G0 F5100 X102.422 Y107.566 Z0.75
G1 F1200 Z0.15
G1 F2400 E51.14902
G1 F1800 X101.764 Y135.57 E52.30196
G1 X102.41 Y136.026 E52.33451
G1 X103.509 Y137.252 E52.40228
G1 X103.303 Y135.735 E52.46529
G1 X103.285 Y82.255 E54.66649
G1 X103.508 Y81.288 E54.70734
G1 X103.742 Y80.728 E54.73232
G1 X104.348 Y79.843 E54.77647
G1 X105.119 Y79.246 E54.8166
G1 X106.009 Y78.797 E54.85763
G1 X107.038 Y78.635 E54.90051
G1 X122.409 Y78.635 E55.53317
G1 X123.376 Y78.858 E55.57401
G1 X123.936 Y79.092 E55.59899
G1 X124.821 Y79.698 E55.64314
G1 X125.418 Y80.469 E55.68328
G1 X125.867 Y81.359 E55.72431
G1 X126.022 Y82.344 E55.76535
G1 X126.029 Y82.729 E55.7812
G1 X136.932 Y82.729 E56.22996
G1 X136.947 Y82.19 E56.25215
G1 X137.155 Y81.288 E56.29025
G1 X137.389 Y80.728 E56.31523
G1 X137.995 Y79.843 E56.35938
G1 X138.766 Y79.246 E56.39951
G1 X139.656 Y78.797 E56.44054
G1 X140.685 Y78.635 E56.48342
G1 X156.056 Y78.635 E57.11608
G1 X157.023 Y78.858 E57.15693
G1 X157.583 Y79.092 E57.18191
G1 X158.468 Y79.698 E57.22605
G1 X159.065 Y80.469 E57.26619
G1 X159.513 Y81.359 E57.3072
G1 X159.676 Y82.391 E57.3502
G1 X159.638 Y135.999 E59.55668
G1 X159.29 Y138.357 E59.65478
G1 X159.064 Y139.133 E59.68805
G1 X157.924 Y141.32 E59.78956
G1 X157.383 Y142.045 E59.82679
G1 X155.608 Y143.638 E59.92496
G1 X154.816 Y144.184 E59.96455
G1 X152.256 Y145.261 E60.07887
G1 X151.436 Y145.469 E60.11369
G1 X148.169 Y145.664 E60.24839
G1 X144.78 Y145.65 E60.38788
G1 X118.07 Y145.65 E61.48725
G1 X114.553 Y145.658 E61.63201
G1 X111.744 Y145.482 E61.74785
G1 X110.788 Y145.295 E61.78795
G1 X108.291 Y144.239 E61.89953
G1 X107.535 Y143.797 E61.93558
G1 X105.65 Y142.108 E62.03975
G1 X105.08 Y141.402 E62.0771
G1 X104.4 Y140.093 E62.13781
G1 X104.304 Y143.849 E62.29246
G1 X104.118 Y145.118 E62.34525
G1 X103.591 Y146.414 E62.40283
G1 X102.708 Y147.542 E62.46179
G1 X101.607 Y148.464 E62.5209
G1 X100.484 Y149.024 E62.57255
G1 X99.354 Y149.362 E62.6211
G1 X98.015 Y149.486 E62.67645
G1 X66.811 Y148.762 E63.96113
G1 X65.134 Y148.41 E64.03166
G1 X63.638 Y147.66 E64.10054
G1 X62.632 Y146.801 E64.15499
G1 X61.934 Y145.904 E64.20177
G1 X61.359 Y144.801 E64.25296
G1 X61.015 Y143.339 E64.31478
G1 X61.123 Y138.982 E64.49417
G1 X61.463 Y137.504 E64.55659
G1 X62.18 Y136.282 E64.61491
G1 X63.054 Y135.302 E64.66895
G1 X64.275 Y134.473 E64.7297
G1 X64.787 Y112.732 E65.62479
G1 X58.995 Y112.732 E65.86319
G1 X57.96 Y112.514 E65.90672
G1 X57.122 Y112.102 E65.94516
G1 X56.411 Y111.537 E65.98254
G1 X55.818 Y110.691 E66.02506
G1 X55.551 Y110.044 E66.05387
G1 X55.331 Y109.112 E66.09328
G1 X55.331 Y98.596 E66.52612
G1 X55.549 Y97.561 E66.56965
G1 X55.961 Y96.723 E66.60809
G1 X56.526 Y96.012 E66.64547
G1 X57.372 Y95.419 E66.68799
G1 X58.019 Y95.152 E66.7168
G1 X58.951 Y94.932 E66.75621
G1 X65.118 Y94.932 E67.01004
G1 X65.356 Y80.953 E67.58549
G1 X65.516 Y72.632 E67.92804
G1 X64.878 Y72.437 E67.9555
G1 X63.825 Y71.912 E68.00393
G1 X62.771 Y71.125 E68.05807
G1 X61.844 Y70.032 E68.11706
G1 X61.195 Y68.646 E68.18005
G1 X60.96 Y67.294 E68.23653
G1 X61.019 Y63.768 E68.38168
G1 X61.185 Y62.776 E68.42308
G1 X61.601 Y61.967 E68.46052
G1 X62.169 Y61.208 E68.49954
G1 X62.898 Y60.656 E68.53718
G1 X63.817 Y60.211 E68.57921
G1 X64.859 Y60.07 E68.62248
G1 X104.356 Y60.998 E70.24861
G1 X105.237 Y61.156 E70.28545
G1 X106.314 Y61.665 E70.33448
G1 X107.179 Y62.459 E70.3828
G1 X107.686 Y63.332 E70.42436
G1 X107.911 Y64.042 E70.45501
G1 X108.028 Y64.885 E70.49004
G1 X107.914 Y68.236 E70.62805
G1 X107.757 Y69.305 E70.67252
G1 X107.262 Y70.481 E70.72504
G1 X106.571 Y71.475 E70.77486
G1 X105.867 Y72.176 E70.81575
G1 X104.615 Y73.036 E70.87827
G1 X103.438 Y73.427 E70.92932
G1 X103.195 Y82.202 E71.29063
G1 X102.746 Y97.281 E71.91155
G1 X102.44 Y106.967 E72.31042
G0 F1620 X102.422 Y107.566
G0 F5100 X101.822 Y107.547
G1 F1800 X101.156 Y135.875 E73.4767
G1 X102.009 Y136.477 E73.51968
G1 X102.995 Y137.577 E73.58048
G1 X103.553 Y138.765 E73.6345
G1 X103.802 Y139.994 E73.68611
G1 X103.71 Y143.762 E73.84125
G1 X103.534 Y144.96 E73.89109
G1 X103.067 Y146.109 E73.94214
G1 X102.272 Y147.125 E73.99523
G1 X101.277 Y147.958 E74.04865
G1 X100.262 Y148.464 E74.09533
G1 X99.237 Y148.771 E74.13937
G1 X98.029 Y148.886 E74.18931
G1 X66.878 Y148.163 E75.47181
G1 X65.333 Y147.839 E75.53679
G1 X63.973 Y147.157 E75.59941
G1 X63.068 Y146.384 E75.6484
G1 X62.442 Y145.58 E75.69034
G1 X61.925 Y144.589 E75.73634
G1 X61.617 Y143.278 E75.79177
G1 X61.722 Y139.057 E75.96556
G1 X62.027 Y137.73 E76.0216
G1 X62.67 Y136.634 E76.0739
G1 X63.452 Y135.757 E76.12227
G1 X64.573 Y134.991 E76.17815
G1 X64.866 Y134.862 E76.19133
G1 X65.401 Y112.132 E77.12714
G1 X59.056 Y112.132 E77.38829
G1 X58.157 Y111.943 E77.42611
G1 X57.446 Y111.593 E77.45872
G1 X56.851 Y111.12 E77.49001
G1 X56.348 Y110.402 E77.52609
G1 X56.124 Y109.861 E77.55019
G1 X55.931 Y109.042 E77.58482
G1 X55.931 Y98.657 E78.01227
G1 X56.12 Y97.758 E78.05008
G1 X56.47 Y97.047 E78.08269
G1 X56.943 Y96.452 E78.11398
G1 X57.661 Y95.949 E78.15006
G1 X58.202 Y95.725 E78.17416
G1 X59.021 Y95.532 E78.2088
G1 X65.708 Y95.532 E78.48403
G1 X65.956 Y80.965 E79.08369
G1 X66.125 Y72.19 E79.44493
G1 X65.102 Y71.878 E79.48895
G1 X64.141 Y71.399 E79.53314
G1 X63.185 Y70.685 E79.58225
G1 X62.352 Y69.703 E79.63526
G1 X61.773 Y68.466 E79.69147
G1 X61.561 Y67.248 E79.74236
