;FLAVOR:Marlin
;TIME:1321
;Filament used: 2.36032m
;Layer height: 0.3
;MINX:72.985
;MINY:93.616
;MINZ:0.15
;MAXX:147.015
;MAXY:143.743
;MAXZ:19.95
;TARGET_MACHINE.NAME:Unknown
;Generated with Cura_SteamEngine 5.8.1
M140 S60
M105
M190 S60
M104 S245
M105
M109 S245
M82 ;absolute extrusion mode
; Ender 3 Custom Start G-code
G92 E0 ; Reset Extruder
G28 ; Home all axes
G1 Z2.0 F3000 ; Move Z Axis up little to prevent scratching of Heat Bed
G1 X0.1 Y20 Z0.3 F5000.0 ; Move to start position
G1 X0.1 Y200.0 Z0.3 F1500.0 E15 ; Draw the first line
G1 X0.4 Y200.0 Z0.3 F5000.0 ; Move to side a little
G1 X0.4 Y20 Z0.3 F1500.0 E30 ; Draw the second line
G92 E0 ; Reset Extruder
G1 Z2.0 F3000 ; Move Z Axis up little to prevent scratching of Heat Bed
G1 X5 Y20 Z0.3 F5000.0 ; Move over to prevent blob squish
G92 E0
G92 E0
G1 F2400 E-6.5
;LAYER_COUNT:65
;LAYER:0
M107
G1 F1200 Z0.75
G0 F5100 X74.52 Y95.377 Z0.75
;TYPE:SKIRT
G1 F1200 Z0.15
G1 F2400 E0.21619
G1 F1800 X73.652 Y96.646 E0.27947
G1 X73.286 Y97.52 E0.31847
G1 X72.985 Y98.826 E0.37364
G1 X72.985 Y105.793 E0.66039
G1 X73.212 Y107.232 E0.72035
G1 X73.863 Y108.524 E0.7799
G1 X74.746 Y109.663 E0.83922
G1 X76.015 Y110.531 E0.9025
G1 X76.889 Y110.897 E0.9415
G1 X78.195 Y111.198 E0.99666
G1 X85.608 Y111.198 E1.30178
G1 X87.047 Y110.971 E1.36174
G1 X88.002 Y110.49 E1.40575
G1 X88.155 Y110.577 E1.413
G1 X88.92 Y110.897 E1.44713
G1 X90.223 Y111.198 E1.50217
G1 X123.002 Y111.198 E2.85133
G1 X124.441 Y110.971 E2.91129
G1 X125.396 Y110.489 E2.95532
G1 X125.55 Y110.577 E2.96262
G1 X126.315 Y110.897 E2.99676
G1 X127.618 Y111.198 E3.0518
G1 X129.792 Y111.198 E3.14128
G1 X129.792 Y120.979 E3.54386
G1 X130.01 Y122.343 E3.60071
G1 X125.644 Y122.343 E3.78042
G1 X124.367 Y122.644 E3.83442
G1 X123.41 Y123.039 E3.87703
G1 X122.177 Y123.903 E3.939
G1 X121.336 Y124.962 E3.99466
G1 X120.736 Y126.183 E4.05065
G1 X120.433 Y127.622 E4.11118
G1 X120.433 Y138.533 E4.56027
G1 X120.69 Y139.624 E4.60641
G1 X121.057 Y140.662 E4.65172
G1 X122.022 Y142.039 E4.72093
G1 X123.197 Y142.923 E4.78145
G1 X124.551 Y143.537 E4.84264
G1 X125.834 Y143.743 E4.89613
G1 X136.622 Y143.743 E5.34015
G1 X137.971 Y143.425 E5.3972
G1 X138.597 Y143.181 E5.42485
G1 X139.694 Y142.498 E5.47804
G1 X140.239 Y141.984 E5.50888
G1 X140.93 Y141.126 E5.55422
G1 X141.529 Y139.907 E5.61012
G1 X141.833 Y138.463 E5.67086
G1 X141.833 Y127.551 E6.11999
G1 X141.552 Y126.384 E6.1694
G1 X141.849 Y126.37 E6.18164
G1 X143.427 Y126.02 E6.24816
G1 X144.752 Y125.246 E6.31132
G1 X145.764 Y124.256 E6.36959
G1 X146.251 Y123.494 E6.40681
G1 X146.71 Y122.561 E6.44961
G1 X147.015 Y121.096 E6.5112
G1 X147.015 Y99.021 E7.4198
G1 X146.788 Y97.582 E7.47976
G1 X146.137 Y96.29 E7.53931
G1 X145.254 Y95.151 E7.59862
G1 X143.985 Y94.283 E7.6619
G1 X143.111 Y93.917 E7.70091
G1 X141.805 Y93.616 E7.75607
G1 X78.39 Y93.616 E10.36619
G1 X76.951 Y93.843 E10.42615
G1 X75.659 Y94.494 E10.4857
G1 X74.994 Y95.01 E10.52035
G0 F1620 X74.52 Y95.377
G0 F5100 X74.962 Y95.794
G1 F1800 X75.981 Y95.004 E10.57341
G1 X77.137 Y94.421 E10.6267
G1 X78.439 Y94.216 E10.68095
G1 X141.735 Y94.216 E13.28618
G1 X142.93 Y94.491 E13.33665
G1 X143.696 Y94.812 E13.37084
G1 X144.837 Y95.593 E13.42775
G1 X145.627 Y96.612 E13.48082
G1 X146.21 Y97.768 E13.5341
G1 X146.415 Y99.07 E13.58835
G1 X146.415 Y121.036 E14.49246
G1 X146.139 Y122.36 E14.54813
G1 X145.712 Y123.229 E14.58798
G1 X145.297 Y123.873 E14.61951
G1 X144.384 Y124.766 E14.67208
G1 X143.206 Y125.454 E14.72823
G1 X141.719 Y125.784 E14.79092
G1 X140.7 Y125.784 E14.83286
G1 X140.992 Y126.6 E14.86854
G1 X141.233 Y127.623 E14.91179
G1 X141.233 Y138.402 E15.35545
G1 X140.958 Y139.71 E15.41046
G1 X140.421 Y140.801 E15.46051
G1 X139.827 Y141.547 E15.49976
G1 X139.322 Y142.023 E15.52833
G1 X138.329 Y142.642 E15.57649
G1 X137.833 Y142.841 E15.59849
G1 X136.552 Y143.143 E15.65266
G1 X125.879 Y143.143 E16.09195
G1 X124.726 Y142.958 E16.14002
G1 X123.505 Y142.404 E16.1952
G1 X122.459 Y141.617 E16.24908
G1 X121.595 Y140.385 E16.31102
G1 X121.274 Y139.486 E16.35031
G1 X121.033 Y138.463 E16.39356
G1 X121.033 Y127.683 E16.83726
G1 X121.307 Y126.38 E16.89207
G1 X121.845 Y125.286 E16.94225
G1 X122.594 Y124.343 E16.99181
G1 X123.7 Y123.568 E17.0474
G1 X124.549 Y123.217 E17.08521
G1 X125.713 Y122.943 E17.13443
G1 X130.956 Y122.943 E17.35023
G1 X130.597 Y122.232 E17.38301
G1 X130.392 Y120.93 E17.43726
G1 X130.392 Y110.598 E17.86252
G1 X127.688 Y110.598 E17.97382
G1 X126.496 Y110.323 E18.02417
G1 X125.782 Y110.024 E18.05603
G1 X125.432 Y109.799 E18.07315
G1 X124.255 Y110.393 E18.12742
G1 X122.953 Y110.598 E18.18167
G1 X90.293 Y110.598 E19.52593
G1 X89.101 Y110.323 E19.57628
G1 X88.387 Y110.024 E19.60815
G1 X88.037 Y109.8 E19.62525
G1 X86.861 Y110.393 E19.67946
G1 X85.559 Y110.598 E19.73371
G1 X78.265 Y110.598 E20.03392
G1 X77.07 Y110.323 E20.0844
G1 X76.304 Y110.002 E20.11858
G1 X75.163 Y109.221 E20.17549
G1 X74.373 Y108.202 E20.22856
G1 X73.79 Y107.046 E20.28185
G1 X73.585 Y105.744 E20.3361
G1 X73.585 Y98.896 E20.61796
G1 X73.86 Y97.701 E20.66843
G1 X74.181 Y96.935 E20.70261
G1 X74.624 Y96.289 E20.73485
G0 F1620 X74.962 Y95.794
G0 F5100 X75.405 Y96.209
G1 F1800 X76.3 Y95.516 E20.78144
G1 X77.323 Y95 E20.8286
G1 X78.489 Y94.816 E20.87719
G1 X141.665 Y94.816 E23.47748
G1 X142.746 Y95.065 E23.52313
G1 X143.409 Y95.342 E23.55271
G1 X144.422 Y96.036 E23.60325
G1 X145.115 Y96.931 E23.64984
G1 X145.631 Y97.954 E23.697
G1 X145.815 Y99.12 E23.74558
G1 X145.815 Y120.976 E24.64517
G1 X145.568 Y122.163 E24.69507
G1 X145.174 Y122.964 E24.73181
G1 X144.831 Y123.489 E24.75762
G1 X144.016 Y124.286 E24.80454
G1 X142.985 Y124.888 E24.85368
G1 X141.652 Y125.184 E24.90988
G1 X139.577 Y125.184 E24.99529
G1 X140.132 Y125.976 E25.03509
G1 X140.408 Y126.738 E25.06845
G1 X140.633 Y127.693 E25.10883
G1 X140.633 Y138.34 E25.54706
G1 X140.386 Y139.514 E25.59644
G1 X139.913 Y140.474 E25.64049
G1 X139.357 Y141.173 E25.67725
G1 X138.952 Y141.547 E25.69994
G1 X138.053 Y142.107 E25.74353
G1 X137.695 Y142.257 E25.75951
G1 X136.482 Y142.543 E25.8108
G1 X125.924 Y142.543 E26.24536
G1 X124.901 Y142.379 E26.28801
G1 X123.817 Y141.887 E26.33701
G1 X122.893 Y141.192 E26.38459
G1 X122.133 Y140.108 E26.43908
G1 X121.858 Y139.348 E26.47235
G1 X121.633 Y138.393 E26.51273
G1 X121.633 Y127.745 E26.951
G1 X121.879 Y126.576 E27.00017
G1 X122.354 Y125.61 E27.04447
G1 X123.011 Y124.783 E27.08795
G1 X123.987 Y124.099 E27.137
G1 X124.735 Y123.79 E27.17031
G1 X125.783 Y123.543 E27.21463
G1 X132.059 Y123.543 E27.47295
G1 X131.693 Y123.072 E27.4975
G1 X131.176 Y122.046 E27.54479
G1 X130.992 Y120.88 E27.59337
G1 X130.992 Y109.998 E28.04127
G1 X127.758 Y109.998 E28.17438
G1 X126.677 Y109.749 E28.22004
G1 X126.014 Y109.471 E28.24963
G1 X125.406 Y109.055 E28.27995
G1 X125.041 Y109.324 E28.29861
G1 X124.069 Y109.814 E28.34341
G1 X122.903 Y109.998 E28.392
G1 X90.363 Y109.998 E29.73133
G1 X89.282 Y109.749 E29.77699
G1 X88.619 Y109.471 E29.80658
G1 X88.011 Y109.055 E29.8369
G1 X87.647 Y109.324 E29.85553
G1 X86.675 Y109.814 E29.90033
G1 X85.509 Y109.998 E29.94892
G1 X78.335 Y109.998 E30.24419
G1 X77.254 Y109.749 E30.28985
G1 X76.591 Y109.472 E30.31943
G1 X75.578 Y108.778 E30.36997
G1 X74.885 Y107.883 E30.41656
G1 X74.369 Y106.86 E30.46372
G1 X74.185 Y105.694 E30.5123
G1 X74.185 Y98.966 E30.78922
G1 X74.434 Y97.885 E30.83488
G1 X74.711 Y97.222 E30.86446
G1 X75.066 Y96.703 E30.89034
G0 F1620 X75.405 Y96.209
G0 F5100 X75.848 Y96.624
G1 F1800 X75.242 Y97.509 E30.93448
G1 X75.008 Y98.069 E30.95946
G1 X74.785 Y99.036 E31.00031
G1 X74.785 Y105.645 E31.27233
G1 X74.947 Y106.674 E31.31521
G1 X75.396 Y107.564 E31.35624
G1 X75.993 Y108.335 E31.39637
G1 X76.878 Y108.941 E31.44052
G1 X77.438 Y109.175 E31.4655
G1 X78.405 Y109.398 E31.50635
G1 X85.46 Y109.398 E31.79673
G1 X86.489 Y109.236 E31.8396
G1 X87.377 Y108.788 E31.88054
G1 X87.989 Y108.313 E31.91242
G1 X88.906 Y108.941 E31.95817
G1 X89.466 Y109.175 E31.98315
G1 X90.433 Y109.398 E32.024
G1 X122.854 Y109.398 E33.35843
G1 X123.883 Y109.236 E33.4013
G1 X124.771 Y108.788 E33.44224
G1 X125.384 Y108.313 E33.47416
G1 X126.301 Y108.941 E33.5199
G1 X126.861 Y109.175 E33.54488
G1 X127.828 Y109.398 E33.58573
G1 X131.592 Y109.398 E33.74065
G1 X131.592 Y120.831 E34.21123
G1 X131.754 Y121.86 E34.2541
G1 X132.203 Y122.75 E34.29513
G1 X132.801 Y123.521 E34.33529
G1 X133.715 Y124.143 E34.3808
G1 X125.853 Y124.143 E34.70439
G1 X124.921 Y124.363 E34.74381
G1 X124.274 Y124.63 E34.77262
G1 X123.428 Y125.223 E34.81514
G1 X122.863 Y125.934 E34.85252
G1 X122.451 Y126.772 E34.89095
G1 X122.233 Y127.807 E34.93449
G1 X122.233 Y138.323 E35.36732
G1 X122.442 Y139.21 E35.40483
G1 X122.671 Y139.831 E35.43207
G1 X123.327 Y140.767 E35.47912
G1 X124.129 Y141.37 E35.52042
G1 X125.076 Y141.8 E35.56322
G1 X125.969 Y141.943 E35.60045
G1 X136.412 Y141.943 E36.03028
G1 X137.557 Y141.673 E36.0787
G1 X137.736 Y141.598 E36.08668
G1 X138.635 Y141.038 E36.13028
G1 X138.887 Y140.8 E36.14454
G1 X139.404 Y140.15 E36.17873
G1 X139.815 Y139.317 E36.21696
G1 X140.033 Y138.279 E36.26062
G1 X140.033 Y127.763 E36.69345
G1 X139.824 Y126.876 E36.73096
G1 X139.595 Y126.255 E36.7582
G1 X138.94 Y125.321 E36.80515
G1 X138.217 Y124.773 E36.84249
G1 X137.858 Y124.584 E36.85919
G1 X141.585 Y124.584 E37.01259
G1 X142.764 Y124.322 E37.0623
G1 X143.651 Y123.804 E37.10458
G1 X144.363 Y123.108 E37.14556
G1 X144.635 Y122.699 E37.16578
G1 X144.997 Y121.962 E37.19958
G1 X145.215 Y120.916 E37.24355
G1 X145.215 Y99.169 E38.13865
G1 X145.053 Y98.14 E38.18152
G1 X144.604 Y97.25 E38.22255
G1 X144.007 Y96.479 E38.26269
G1 X143.122 Y95.873 E38.30684
G1 X142.562 Y95.639 E38.33182
G1 X141.595 Y95.416 E38.37266
G1 X78.538 Y95.416 E40.96805
G1 X77.509 Y95.578 E41.01093
G1 X76.619 Y96.027 E41.05196
G1 X76.322 Y96.257 E41.06742
G0 F1620 X75.848 Y96.624
G0 F5100 X76.29 Y97.041
G1 F1800 X75.737 Y97.848 E41.10768
G1 X75.593 Y98.204 E41.12349
G1 X75.385 Y99.106 E41.16159
G1 X75.385 Y105.595 E41.42867
G1 X75.526 Y106.488 E41.46588
G1 X75.906 Y107.243 E41.50067
G1 X76.41 Y107.893 E41.53453
G1 X77.217 Y108.446 E41.57479
G1 X77.573 Y108.59 E41.5906
G1 X78.475 Y108.798 E41.6287
G1 X85.41 Y108.798 E41.91414
G1 X86.303 Y108.657 E41.95135
G1 X87.058 Y108.277 E41.98614
G1 X87.633 Y107.832 E42.01607
G1 X88.007 Y107.337 E42.0416
G1 X88.438 Y107.893 E42.07056
G1 X89.245 Y108.446 E42.11082
G1 X89.601 Y108.59 E42.12663
G1 X90.503 Y108.798 E42.16473
G1 X122.804 Y108.798 E43.49422
G1 X123.697 Y108.657 E43.53143
G1 X124.452 Y108.277 E43.56622
G1 X125.027 Y107.832 E43.59615
G1 X125.401 Y107.336 E43.62171
G1 X125.833 Y107.893 E43.65073
G1 X126.64 Y108.446 E43.69099
G1 X126.996 Y108.59 E43.7068
G1 X127.898 Y108.798 E43.7449
G1 X132.192 Y108.798 E43.92164
G1 X132.192 Y120.781 E44.41485
G1 X132.333 Y121.674 E44.45206
G1 X132.713 Y122.429 E44.48685
G1 X133.217 Y123.079 E44.5207
G1 X134.024 Y123.632 E44.56097
G1 X134.38 Y123.776 E44.57678
G1 X135.282 Y123.984 E44.61488
G1 X141.518 Y123.984 E44.87155
G1 X142.543 Y123.756 E44.91477
G1 X143.286 Y123.322 E44.95018
G1 X143.898 Y122.724 E44.9854
G1 X144.096 Y122.435 E44.99982
G1 X144.426 Y121.763 E45.03063
G1 X144.615 Y120.856 E45.06877
G1 X144.615 Y99.219 E45.95933
G1 X144.474 Y98.326 E45.99654
G1 X144.094 Y97.571 E46.03133
G1 X143.59 Y96.921 E46.06519
G1 X142.783 Y96.368 E46.10545
G1 X142.427 Y96.224 E46.12126
G1 X141.525 Y96.016 E46.15936
G1 X78.588 Y96.016 E48.74981
G1 X77.695 Y96.157 E48.78702
G1 X76.94 Y96.537 E48.82181
G1 X76.763 Y96.674 E48.83102
G0 F1620 X76.29 Y97.041
G1 F2400 E42.33102
G1 F1200 Z0.75
G0 F5100 X123.372 Y126.258 Z0.75
G1 F1200 Z0.15
G1 F2400 E49.04721
G1 F1800 X123.022 Y126.969 E49.07983
G1 X122.833 Y127.868 E49.11764
G1 X122.833 Y138.253 E49.54508
G1 X123.026 Y139.072 E49.57972
G1 X123.207 Y139.551 E49.60079
G1 X123.763 Y140.344 E49.64066
G1 X124.437 Y140.851 E49.67537
G1 X125.251 Y141.221 E49.71217
G1 X126.014 Y141.343 E49.74398
G1 X136.342 Y141.343 E50.16907
G1 X137.419 Y141.089 E50.21461
G1 X138.267 Y140.561 E50.25573
G1 X138.417 Y140.427 E50.26401
G1 X138.894 Y139.827 E50.29556
G1 X139.244 Y139.118 E50.3281
G1 X139.433 Y138.218 E50.36595
G1 X139.433 Y127.833 E50.79339
G1 X139.24 Y127.014 E50.82803
G1 X139.059 Y126.535 E50.8491
G1 X138.503 Y125.742 E50.88897
G1 X137.855 Y125.251 E50.92243
G1 X137.086 Y124.872 E50.95772
G1 X136.133 Y124.743 E50.9973
G1 X125.923 Y124.743 E51.41754
G1 X125.104 Y124.936 E51.45217
G1 X124.563 Y125.16 E51.47627
G1 X123.845 Y125.663 E51.51235
G1 X123.745 Y125.789 E51.51897
G0 F1620 X123.372 Y126.258
G0 F5100 X123.881 Y126.582
G1 F1800 X124.26 Y126.105 E51.54405
G1 X124.907 Y125.652 E51.57656
G1 X125.242 Y125.52 E51.59138
G1 X125.993 Y125.343 E51.62314
G1 X136.133 Y125.343 E52.04049
G1 X136.909 Y125.453 E52.07275
G1 X137.536 Y125.762 E52.10152
G1 X138.067 Y126.165 E52.12896
G1 X138.524 Y126.817 E52.16173
G1 X138.656 Y127.152 E52.17655
G1 X138.833 Y127.903 E52.20831
G1 X138.833 Y138.156 E52.63032
G1 X138.672 Y138.921 E52.66249
G1 X138.385 Y139.504 E52.68924
G1 X137.948 Y140.053 E52.71812
G1 X137.196 Y140.525 E52.75466
G1 X136.272 Y140.743 E52.79374
G1 X126.059 Y140.743 E53.2141
G1 X125.427 Y140.642 E53.24044
G1 X124.744 Y140.331 E53.27133
G1 X124.199 Y139.921 E53.2994
G1 X123.742 Y139.269 E53.33217
G1 X123.61 Y138.934 E53.34699
G1 X123.433 Y138.183 E53.37875
G1 X123.433 Y127.93 E53.80076
G1 X123.594 Y127.165 E53.83294
G1 X123.617 Y127.12 E53.83502
G0 F1620 X123.881 Y126.582
G0 F5100 X124.39 Y126.906
G1 F1800 X124.677 Y126.545 E53.854
G1 X125.192 Y126.184 E53.87988
G1 X125.38 Y126.104 E53.88829
G1 X126.063 Y125.943 E53.91718
G1 X136.133 Y125.943 E54.33165
G1 X136.729 Y126.033 E54.35646
G1 X137.27 Y126.3 E54.38129
G1 X137.631 Y126.587 E54.40027
G1 X137.992 Y127.102 E54.42616
G1 X138.072 Y127.29 E54.43457
G1 X138.233 Y127.973 E54.46345
G1 X138.233 Y138.095 E54.88007
G1 X138.101 Y138.724 E54.90652
G1 X137.876 Y139.18 E54.92745
G1 X137.542 Y139.6 E54.94954
G1 X136.972 Y139.962 E54.97733
G1 X136.203 Y140.143 E55.00985
G1 X126.109 Y140.143 E55.42531
G1 X125.601 Y140.062 E55.44648
G1 X124.993 Y139.785 E55.47398
G1 X124.635 Y139.499 E55.49284
G1 X124.274 Y138.984 E55.51873
G1 X124.194 Y138.796 E55.52714
G1 X124.033 Y138.113 E55.55602
G1 X124.033 Y127.991 E55.97264
G1 X124.147 Y127.451 E55.99535
G0 F1620 X124.165 Y127.362
G0 X124.39 Y126.906
G0 F5100 X124.928 Y127.171
G1 F1800 X125.13 Y126.939 E56.00801
G1 X125.518 Y126.688 E56.02703
G1 X126.133 Y126.543 E56.05304
G1 X136.133 Y126.543 E56.46463
G1 X136.549 Y126.613 E56.482
G1 X137.005 Y126.838 E56.50293
G1 X137.237 Y127.04 E56.51559
G1 X137.488 Y127.428 E56.53461
G1 X137.633 Y128.043 E56.56061
G1 X137.633 Y138.043 E56.97221
G1 X137.563 Y138.459 E56.98957
G1 X137.338 Y138.915 E57.0105
G1 X137.136 Y139.147 E57.02316
G1 X136.748 Y139.398 E57.04218
G1 X136.133 Y139.543 E57.06819
G1 X126.109 Y139.543 E57.48077
G1 X125.707 Y139.471 E57.49758
G1 X125.261 Y139.248 E57.5181
G1 X125.029 Y139.046 E57.53077
G1 X124.778 Y138.658 E57.54979
G1 X124.633 Y138.043 E57.57579
G1 X124.633 Y128.043 E57.98739
G1 X124.688 Y127.717 E58.00099
G0 F1620 X124.703 Y127.627
G0 X124.928 Y127.171
G0 F5100 X125.872 Y127.894
G1 F1800 X125.98 Y127.785 E58.00731
G1 X126.133 Y127.743 E58.01384
G1 X136.133 Y127.743 E58.42544
G1 X136.282 Y127.782 E58.43177
G1 X136.391 Y127.89 E58.43809
G1 X136.433 Y128.043 E58.44462
G1 X136.433 Y138.043 E58.85621
G1 X136.394 Y138.192 E58.86255
G1 X136.286 Y138.301 E58.86887
G1 X136.133 Y138.343 E58.8754
G1 X126.133 Y138.343 E59.28699
G1 X125.984 Y138.304 E59.29333
G1 X125.875 Y138.196 E59.29965
G1 X125.833 Y138.043 E59.30618
G1 X125.833 Y128.489 E59.69942
G0 F1620 X125.833 Y128.043
G0 X125.872 Y127.894
G0 F5100 X125.292 Y127.742
G1 F1800 X125.233 Y128.043 E59.71204
G1 X125.233 Y138.043 E60.12364
G1 X125.296 Y138.355 E60.13674
G1 X125.451 Y138.62 E60.14937
G1 X125.56 Y138.728 E60.15569
G1 X125.832 Y138.884 E60.16859
G1 X126.109 Y138.943 E60.18025
G1 X136.133 Y138.943 E60.59283
G1 X136.445 Y138.88 E60.60593
G1 X136.71 Y138.725 E60.61857
G1 X136.818 Y138.616 E60.62489
G1 X136.974 Y138.344 E60.63779
G1 X137.033 Y138.043 E60.65042
G1 X137.033 Y128.043 E61.06201
G1 X136.97 Y127.731 E61.07511
G1 X136.815 Y127.466 E61.08775
