;FLAVOR:Marlin
;TIME:5335
;Filament used: 9.2454m
;Layer height: 0.3
;MINX:48.184
;MINY:44.032
;MINZ:0.15
;MAXX:101.816
;MAXY:104.627
;MAXZ:28.35
;TARGET_MACHINE.NAME:Printrbot Simple
;Generated with Cura_SteamEngine 5.8.1
M82 ;absolute extrusion mode
M106                              ; liga a ventoinha para resfriar o bico
M109 S245.0        ; aguarda o bico atingir a temperatura de impressão

G21                               ; define unidades em milímetros
G90                               ; posicionamento absoluto
M82                               ; modo absoluto para extrusor

G28                               ; home em todos os eixos (X, Y e Z)
G1 Z5.0 F150          ; levanta o bico 5mm com velocidade de deslocamento

G29                               ; nivelamento automático da mesa

M109 S245.0        ; aguarda temperatura (garante que não esfriou durante o G29)

G92 E0.0                          ; zera a posição do extrusor
G1 Z0.4 F200.0                   ; desce o bico para altura de introdução

G91                               ; muda para posicionamento relativo
G1 Y-160 X30 F500                ; move para posição inicial da linha de introdução
G90                               ; volta para posicionamento absoluto

G1 X-20.0 E20 F220.0             ; desenha a linha de introdução de filamento
G92 E0.0                          ; zera novamente a posição do extrusor
G92 E0
M106
M109 S245.0
G21;
G90;
M82;
G28
G90
G1 Z3 F150;

G1 Z5.0

G28 X0 Y0 ;move X/Y to min endstops
G29
M109 S245.0
G92 E0.0 ; reset extruder distance position
G1 Z0.8 F200.0
G1 Y-2.0 F500.0 ; go outside print area
G1 X-20.0 E20 F200.0 ; intro line
G92 E0.0 ; reset extruder distance position
G92 E0
G1 F2400 E-6.5
;LAYER_COUNT:93
;LAYER:0
M107
G1 F1200 Z0.75
G0 F5100 X51.317 Y58.649 Z0.75
;TYPE:SKIRT
G1 F1200 Z0.15
G1 F2400 E0.21619
G1 F1800 X52.456 Y57.766 E0.27551
G1 X53.748 Y57.115 E0.33506
G1 X55.187 Y56.888 E0.39502
G1 X62.737 Y56.888 E0.70577
G1 X62.737 Y49.242 E1.02048
G1 X63.038 Y47.936 E1.07564
G1 X63.404 Y47.062 E1.11464
G1 X64.272 Y45.793 E1.17792
G1 X65.411 Y44.91 E1.23724
G1 X66.703 Y44.259 E1.29679
G1 X68.142 Y44.032 E1.35675
G1 X86.518 Y44.032 E2.11309
G1 X87.824 Y44.333 E2.16826
G1 X88.698 Y44.699 E2.20726
G1 X89.967 Y45.567 E2.27054
G1 X90.85 Y46.706 E2.32985
G1 X91.501 Y47.998 E2.3894
G1 X91.728 Y49.437 E2.44936
G1 X91.728 Y56.034 E2.72089
G1 X91.572 Y56.775 E2.75206
G1 X91.733 Y57.804 E2.79493
G1 X96.606 Y57.804 E2.9955
G1 X97.912 Y58.105 E3.05066
G1 X98.786 Y58.471 E3.08966
G1 X100.055 Y59.339 E3.15294
G1 X100.938 Y60.478 E3.21226
G1 X101.589 Y61.77 E3.27181
G1 X101.816 Y63.209 E3.33177
G1 X101.816 Y81.586 E4.08815
G1 X101.515 Y82.892 E4.14332
G1 X101.149 Y83.766 E4.18232
G1 X100.281 Y85.035 E4.2456
G1 X99.142 Y85.918 E4.30492
G1 X97.85 Y86.569 E4.36446
G1 X96.411 Y86.796 E4.42443
G1 X91.239 Y86.796 E4.6373
G1 X91.239 Y91.569 E4.83376
G1 X91.083 Y92.31 E4.86492
G1 X91.239 Y93.307 E4.90646
G1 X91.239 Y97.813 E5.09192
G1 X90.934 Y99.27 E5.15319
G1 X90.369 Y100.422 E5.206
G1 X89.753 Y101.203 E5.24694
G1 X89.015 Y101.906 E5.2889
G1 X88.465 Y102.299 E5.31672
G1 X87.419 Y102.78 E5.36411
G1 X85.999 Y103.099 E5.42401
G1 X69.88 Y103.099 E6.08746
G1 X69.041 Y103.749 E6.13114
G1 X67.748 Y104.399 E6.19071
G1 X66.311 Y104.626 E6.25059
G1 X59.71 Y104.626 E6.52228
G1 X58.941 Y104.463 E6.55463
G1 X58.352 Y104.627 E6.5798
G1 X53.394 Y104.626 E6.78387
G1 X52.088 Y104.325 E6.83903
G1 X51.214 Y103.959 E6.87803
G1 X49.945 Y103.091 E6.94131
G1 X49.062 Y101.952 E7.00063
G1 X48.411 Y100.66 E7.06018
G1 X48.184 Y99.221 E7.12014
G1 X48.184 Y80.845 E7.87648
G1 X48.485 Y79.541 E7.93157
G1 X48.851 Y78.66 E7.97083
G1 X49.563 Y77.624 E8.02257
G1 X49.782 Y77.398 E8.03553
G1 X49.782 Y62.098 E8.66527
G1 X50.083 Y60.792 E8.72043
G1 X50.449 Y59.918 E8.75943
G1 X50.979 Y59.144 E8.79804
G0 F1620 X51.317 Y58.649
G0 F5100 X51.759 Y59.066
G1 F1800 X52.778 Y58.276 E8.85111
G1 X53.934 Y57.693 E8.9044
G1 X55.236 Y57.488 E8.95865
G1 X63.337 Y57.488 E9.29208
G1 X63.337 Y49.312 E9.6286
G1 X63.612 Y48.117 E9.67907
G1 X63.933 Y47.351 E9.71325
G1 X64.714 Y46.21 E9.77017
G1 X65.733 Y45.42 E9.82323
G1 X66.889 Y44.837 E9.87652
G1 X68.191 Y44.632 E9.93077
G1 X86.448 Y44.632 E10.68222
G1 X87.643 Y44.907 E10.73269
G1 X88.409 Y45.228 E10.76688
G1 X89.55 Y46.009 E10.82379
G1 X90.34 Y47.028 E10.87686
G1 X90.923 Y48.184 E10.93015
G1 X91.128 Y49.486 E10.9844
G1 X91.128 Y55.972 E11.25136
G1 X90.951 Y56.81 E11.28661
G1 X90.996 Y56.977 E11.29373
G1 X91.121 Y57.775 E11.32697
G1 X91.128 Y58.404 E11.35286
G1 X96.536 Y58.404 E11.57545
G1 X97.731 Y58.679 E11.62592
G1 X98.497 Y59 E11.66011
G1 X99.638 Y59.781 E11.71702
G1 X100.428 Y60.8 E11.77009
G1 X101.011 Y61.956 E11.82338
G1 X101.216 Y63.258 E11.87763
G1 X101.216 Y81.516 E12.62912
G1 X100.941 Y82.711 E12.67959
G1 X100.62 Y83.477 E12.71377
G1 X99.839 Y84.618 E12.77068
G1 X98.82 Y85.408 E12.82375
G1 X97.664 Y85.991 E12.87704
G1 X96.362 Y86.196 E12.93129
G1 X90.639 Y86.196 E13.16685
G1 X90.639 Y91.507 E13.38544
G1 X90.462 Y92.345 E13.4207
G1 X90.507 Y92.512 E13.42782
G1 X90.639 Y93.355 E13.46294
G1 X90.639 Y97.752 E13.64391
G1 X90.363 Y99.072 E13.69942
G1 X89.858 Y100.101 E13.7466
G1 X89.337 Y100.771 E13.78153
G1 X88.666 Y101.418 E13.8199
G1 X88.163 Y101.777 E13.84533
G1 X87.224 Y102.209 E13.88787
G1 X85.934 Y102.499 E13.9423
G1 X69.639 Y102.499 E14.61299
G1 X69.511 Y102.627 E14.62044
G1 X68.723 Y103.237 E14.66145
G1 X67.562 Y103.821 E14.71495
G1 X66.262 Y104.026 E14.76911
G1 X59.774 Y104.026 E15.03616
G1 X58.922 Y103.845 E15.07201
G1 X58.27 Y104.027 E15.09987
G1 X53.464 Y104.026 E15.29768
G1 X52.269 Y103.751 E15.34815
G1 X51.503 Y103.43 E15.38234
G1 X50.362 Y102.649 E15.43925
G1 X49.572 Y101.63 E15.49232
G1 X48.989 Y100.474 E15.54561
G1 X48.784 Y99.172 E15.59986
G1 X48.784 Y80.915 E16.3513
G1 X49.059 Y79.722 E16.40169
G1 X49.381 Y78.947 E16.43624
G1 X50.057 Y77.964 E16.48534
G1 X50.382 Y77.659 E16.50368
G1 X50.382 Y62.168 E17.14128
G1 X50.657 Y60.973 E17.19176
G1 X50.978 Y60.207 E17.22594
G1 X51.421 Y59.561 E17.25818
G0 F1620 X51.759 Y59.066
G0 F5100 X52.202 Y59.481
G1 F1800 X53.097 Y58.788 E17.30477
G1 X54.12 Y58.272 E17.35193
G1 X55.286 Y58.088 E17.40052
G1 X63.937 Y58.088 E17.75659
G1 X63.937 Y49.382 E18.11492
G1 X64.186 Y48.301 E18.16058
G1 X64.463 Y47.638 E18.19015
G1 X65.157 Y46.625 E18.24069
G1 X66.052 Y45.932 E18.28728
G1 X67.075 Y45.416 E18.33444
G1 X68.241 Y45.232 E18.38303
G1 X86.378 Y45.232 E19.12954
G1 X87.459 Y45.481 E19.17519
G1 X88.122 Y45.758 E19.20477
G1 X89.135 Y46.452 E19.25531
G1 X89.828 Y47.347 E19.3019
G1 X90.344 Y48.37 E19.34906
G1 X90.528 Y49.536 E19.39764
G1 X90.528 Y55.91 E19.65999
G1 X90.332 Y56.836 E19.69895
G1 X90.403 Y57.07 E19.70902
G1 X90.528 Y57.868 E19.74226
G1 X90.528 Y59.004 E19.78902
G1 X96.466 Y59.004 E20.03343
G1 X97.547 Y59.253 E20.07908
G1 X98.21 Y59.53 E20.10866
G1 X99.223 Y60.224 E20.1592
G1 X99.916 Y61.119 E20.20579
G1 X100.432 Y62.142 E20.25295
G1 X100.616 Y63.308 E20.30153
G1 X100.616 Y81.446 E21.04808
G1 X100.367 Y82.527 E21.09374
G1 X100.09 Y83.19 E21.12332
G1 X99.396 Y84.203 E21.17386
G1 X98.501 Y84.896 E21.22045
G1 X97.478 Y85.412 E21.26761
G1 X96.312 Y85.596 E21.31619
G1 X90.039 Y85.596 E21.57438
G1 X90.039 Y91.445 E21.81513
G1 X89.843 Y92.371 E21.85408
G1 X89.914 Y92.605 E21.86415
G1 X90.039 Y93.403 E21.89739
G1 X90.039 Y97.691 E22.07389
G1 X89.792 Y98.874 E22.12363
G1 X89.346 Y99.783 E22.1653
G1 X88.918 Y100.341 E22.19425
G1 X88.307 Y100.937 E22.22938
G1 X87.912 Y101.232 E22.24967
G1 X87.028 Y101.639 E22.28973
G1 X85.87 Y101.899 E22.33858
G1 X69.365 Y101.899 E23.01791
G1 X69.144 Y102.153 E23.03177
G1 X68.405 Y102.725 E23.07023
G1 X67.377 Y103.242 E23.11759
G1 X66.212 Y103.426 E23.16614
G1 X59.838 Y103.426 E23.42849
G1 X58.901 Y103.227 E23.46792
G1 X58.191 Y103.427 E23.49828
G1 X53.534 Y103.426 E23.68996
G1 X52.453 Y103.177 E23.73562
G1 X51.79 Y102.9 E23.76519
G1 X50.777 Y102.206 E23.81573
G1 X50.084 Y101.311 E23.86232
G1 X49.568 Y100.288 E23.90948
G1 X49.384 Y99.122 E23.95807
G1 X49.384 Y80.985 E24.70457
G1 X49.633 Y79.905 E24.75019
G1 X49.911 Y79.237 E24.77997
G1 X50.552 Y78.304 E24.82656
G1 X50.982 Y77.935 E24.84989
G1 X50.982 Y62.238 E25.49596
G1 X51.231 Y61.157 E25.54162
G1 X51.508 Y60.494 E25.5712
G1 X51.863 Y59.975 E25.59708
G0 F1620 X52.202 Y59.481
G0 F5100 X52.645 Y59.896
G1 F1800 X53.416 Y59.299 E25.63721
G1 X54.306 Y58.85 E25.67824
G1 X55.335 Y58.688 E25.72112
G1 X64.537 Y58.688 E26.09987
G1 X64.537 Y49.452 E26.48002
G1 X64.76 Y48.485 E26.52086
G1 X64.994 Y47.925 E26.54584
G1 X65.6 Y47.04 E26.58999
G1 X66.371 Y46.443 E26.63012
G1 X67.261 Y45.994 E26.67115
G1 X68.29 Y45.832 E26.71403
G1 X86.308 Y45.832 E27.45564
G1 X87.275 Y46.055 E27.49649
G1 X87.835 Y46.289 E27.52147
G1 X88.72 Y46.895 E27.56561
G1 X89.317 Y47.666 E27.60575
G1 X89.766 Y48.556 E27.64678
G1 X89.928 Y49.585 E27.68965
G1 X89.928 Y55.848 E27.94743
G1 X89.758 Y56.663 E27.9817
G1 X89.699 Y56.84 E27.98938
G1 X89.81 Y57.163 E28.00344
G1 X89.928 Y57.916 E28.03481
G1 X89.928 Y59.604 E28.10429
G1 X96.396 Y59.604 E28.37051
G1 X97.363 Y59.827 E28.41135
G1 X97.923 Y60.061 E28.43633
G1 X98.808 Y60.667 E28.48048
G1 X99.405 Y61.438 E28.52061
G1 X99.854 Y62.328 E28.56164
G1 X100.016 Y63.357 E28.60452
G1 X100.016 Y81.376 E29.34617
G1 X99.793 Y82.343 E29.38702
G1 X99.559 Y82.903 E29.412
G1 X98.953 Y83.788 E29.45614
G1 X98.182 Y84.385 E29.49628
G1 X97.292 Y84.834 E29.53731
G1 X96.263 Y84.996 E29.58018
G1 X90.001 Y84.996 E29.83792
G1 X89.399 Y84.871 E29.86323
G1 X89.439 Y85.171 E29.87569
G1 X89.439 Y91.383 E30.13137
G1 X89.269 Y92.198 E30.16564
G1 X89.21 Y92.375 E30.17332
G1 X89.321 Y92.698 E30.18737
G1 X89.439 Y93.451 E30.21874
G1 X89.439 Y97.631 E30.39079
G1 X89.221 Y98.677 E30.43477
G1 X88.834 Y99.464 E30.47087
G1 X88.499 Y99.911 E30.49386
G1 X87.888 Y100.507 E30.52899
G1 X87.604 Y100.713 E30.54343
G1 X86.833 Y101.068 E30.57837
G1 X85.805 Y101.299 E30.62173
G1 X69.071 Y101.299 E31.31049
G1 X68.777 Y101.678 E31.33024
G1 X68.083 Y102.215 E31.36635
G1 X67.191 Y102.664 E31.40746
G1 X66.163 Y102.826 E31.45029
G1 X59.9 Y102.826 E31.70807
G1 X59.085 Y102.656 E31.74234
G1 X58.915 Y102.599 E31.74972
G1 X58.106 Y102.827 E31.78431
G1 X53.604 Y102.826 E31.96961
G1 X52.637 Y102.603 E32.01046
G1 X52.077 Y102.369 E32.03544
G1 X51.192 Y101.763 E32.07959
G1 X50.595 Y100.992 E32.11972
G1 X50.146 Y100.102 E32.16075
G1 X49.984 Y99.073 E32.20363
G1 X49.984 Y81.055 E32.94524
G1 X50.207 Y80.088 E32.98608
G1 X50.441 Y79.527 E33.0111
G1 X51.047 Y78.644 E33.05518
G1 X51.582 Y78.229 E33.08305
G1 X51.582 Y62.308 E33.73835
G1 X51.805 Y61.341 E33.7792
G1 X52.039 Y60.781 E33.80418
G1 X52.307 Y60.39 E33.82369
G0 F1620 X52.645 Y59.896
G0 F5100 X53.087 Y60.313
G1 F1800 X53.737 Y59.809 E33.85754
G1 X54.492 Y59.429 E33.89233
G1 X55.385 Y59.288 E33.92954
G1 X65.137 Y59.288 E34.33093
G1 X65.137 Y49.522 E34.73289
G1 X65.345 Y48.62 E34.77099
G1 X65.489 Y48.264 E34.7868
G1 X66.042 Y47.457 E34.82706
G1 X66.692 Y46.953 E34.86092
G1 X67.447 Y46.573 E34.89571
G1 X68.34 Y46.432 E34.93292
G1 X86.238 Y46.432 E35.66959
G1 X87.14 Y46.64 E35.70769
G1 X87.496 Y46.784 E35.72349
G1 X88.303 Y47.337 E35.76376
G1 X88.807 Y47.987 E35.79761
G1 X89.187 Y48.742 E35.8324
G1 X89.328 Y49.635 E35.86961
G1 X89.328 Y55.788 E36.12287
G1 X89.171 Y56.541 E36.15453
G1 X89.055 Y56.839 E36.16769
G1 X89.217 Y57.256 E36.1861
G1 X89.328 Y57.964 E36.2156
G1 X89.328 Y60.204 E36.3078
G1 X96.326 Y60.204 E36.59583
G1 X97.228 Y60.412 E36.63393
G1 X97.584 Y60.556 E36.64974
G1 X98.391 Y61.109 E36.69
G1 X98.895 Y61.759 E36.72386
G1 X99.275 Y62.514 E36.75865
G1 X99.416 Y63.407 E36.79586
G1 X99.416 Y81.306 E37.53257
G1 X99.208 Y82.208 E37.57067
G1 X99.064 Y82.564 E37.58648
G1 X98.511 Y83.371 E37.62674
G1 X97.861 Y83.875 E37.66059
G1 X97.106 Y84.255 E37.69538
G1 X96.213 Y84.396 E37.7326
G1 X90.06 Y84.396 E37.98585
G1 X89.307 Y84.239 E38.01751
G1 X89.009 Y84.123 E38.03067
G1 X88.695 Y84.253 E38.04466
G1 X88.839 Y85.171 E38.0829
G1 X88.839 Y91.323 E38.33612
G1 X88.682 Y92.076 E38.36778
G1 X88.566 Y92.374 E38.38094
G1 X88.728 Y92.791 E38.39935
G1 X88.839 Y93.499 E38.42885
G1 X88.839 Y97.571 E38.59645
G1 X88.65 Y98.478 E38.63458
G1 X88.32 Y99.15 E38.6654
G1 X88.08 Y99.481 E38.68223
G1 X87.469 Y100.077 E38.71736
G1 X87.301 Y100.192 E38.72574
G1 X86.638 Y100.497 E38.75577
G1 X85.74 Y100.699 E38.79366
G1 X68.755 Y100.699 E39.49275
G1 X68.41 Y101.203 E39.51789
G1 X67.761 Y101.705 E39.55166
G1 X67.006 Y102.085 E39.58645
G1 X66.113 Y102.226 E39.62366
G1 X59.96 Y102.226 E39.87692
G1 X59.207 Y102.069 E39.90858
G1 X58.943 Y101.968 E39.92021
G1 X58.022 Y102.227 E39.95959
G1 X53.674 Y102.226 E40.13855
G1 X52.772 Y102.018 E40.17665
G1 X52.416 Y101.874 E40.19246
G1 X51.609 Y101.321 E40.23272
G1 X51.105 Y100.671 E40.26658
G1 X50.725 Y99.916 E40.30136
G1 X50.584 Y99.023 E40.33858
G1 X50.584 Y81.125 E41.07525
G1 X50.792 Y80.223 E41.11335
G1 X50.936 Y79.867 E41.12915
G1 X51.49 Y79.06 E41.16944
G1 X52.182 Y78.523 E41.20549
G1 X52.182 Y62.378 E41.87001
G1 X52.39 Y61.476 E41.90811
G1 X52.534 Y61.12 E41.92392
G1 X52.748 Y60.808 E41.93949
G0 F1620 X53.087 Y60.313
G0 F5100 X53.529 Y60.73
G1 F1800 X54.059 Y60.319 E41.9671
G1 X54.678 Y60.007 E41.99563
G1 X55.434 Y59.888 E42.02713
G1 X65.737 Y59.888 E42.45119
G1 X65.737 Y49.592 E42.87497
G1 X65.93 Y48.755 E42.91032
G1 X66.02 Y48.551 E42.9195
G1 X66.484 Y47.874 E42.95328
G1 X67.014 Y47.463 E42.98089
G1 X67.633 Y47.151 E43.00942
G1 X68.389 Y47.032 E43.04092
G1 X86.168 Y47.032 E43.77269
G1 X87.005 Y47.225 E43.80805
G1 X87.209 Y47.315 E43.81722
G1 X87.886 Y47.779 E43.85101
G1 X88.297 Y48.309 E43.87861
G1 X88.609 Y48.928 E43.90714
G1 X88.728 Y49.684 E43.93864
G1 X88.728 Y55.728 E44.18741
G1 X88.584 Y56.419 E44.21646
G1 X88.399 Y56.839 E44.23535
G1 X88.624 Y57.349 E44.25829
G1 X88.728 Y58.012 E44.28592
G1 X88.728 Y60.804 E44.40083
G1 X96.256 Y60.804 E44.71068
G1 X97.093 Y60.997 E44.74604
G1 X97.297 Y61.087 E44.75521
G1 X97.974 Y61.551 E44.789
G1 X98.385 Y62.081 E44.8166
G1 X98.697 Y62.7 E44.84513
G1 X98.816 Y63.456 E44.87663
G1 X98.816 Y81.236 E45.60845
G1 X98.623 Y82.073 E45.6438
G1 X98.533 Y82.277 E45.65298
G1 X98.069 Y82.954 E45.68676
G1 X97.539 Y83.365 E45.71436
G1 X96.92 Y83.677 E45.74289
G1 X96.164 Y83.796 E45.77439
G1 X90.12 Y83.796 E46.02316
G1 X89.429 Y83.652 E46.05221
G1 X89.009 Y83.467 E46.0711
G1 X88.499 Y83.692 E46.09405
G1 X87.781 Y83.805 E46.12396
G1 X88.12 Y84.46 E46.15432
G1 X88.239 Y85.219 E46.18594
G1 X88.239 Y91.263 E46.43471
G1 X88.095 Y91.954 E46.46376
G1 X87.91 Y92.374 E46.48265
G1 X88.135 Y92.884 E46.50559
G1 X88.239 Y93.547 E46.53322
G1 X88.239 Y97.511 E46.69637
G1 X88.079 Y98.279 E46.72866
G1 X87.781 Y98.886 E46.75649
G1 X87.661 Y99.051 E46.76489
G1 X87.05 Y99.647 E46.80002
G1 X86.442 Y99.927 E46.82757
G1 X85.676 Y100.099 E46.85989
G1 X68.439 Y100.099 E47.56935
G1 X67.969 Y100.785 E47.60358
G1 X67.439 Y101.195 E47.63116
G1 X66.82 Y101.507 E47.65969
G1 X66.064 Y101.626 E47.69119
G1 X60.02 Y101.626 E47.93996
G1 X59.329 Y101.482 E47.96901
G1 X58.947 Y101.316 E47.98615
G1 X58.803 Y101.384 E47.99271
G1 X57.938 Y101.627 E48.02969
G1 X53.744 Y101.626 E48.20231
G1 X52.907 Y101.433 E48.23766
G1 X52.703 Y101.343 E48.24684
G1 X52.026 Y100.879 E48.28062
G1 X51.615 Y100.349 E48.30823
G1 X51.303 Y99.73 E48.33676
G1 X51.184 Y98.974 E48.36826
G1 X51.184 Y81.195 E49.10003
G1 X51.377 Y80.358 E49.13539
G1 X51.467 Y80.154 E49.14456
G1 X51.931 Y79.477 E49.17835
G1 X52.461 Y79.066 E49.20595
G1 X52.782 Y78.904 E49.22075
G1 X52.782 Y62.448 E49.89807
G1 X52.975 Y61.611 E49.93342
G1 X53.065 Y61.407 E49.9426
G1 X53.19 Y61.224 E49.95172
G0 F1620 X53.529 Y60.73
G0 F5100 X53.971 Y61.146
G1 F1800 X54.329 Y60.855 E49.97071
G1 X54.864 Y60.585 E49.99538
G1 X55.482 Y60.488 E50.02113
G1 X66.337 Y60.488 E50.46791
G1 X66.337 Y49.662 E50.9135
G1 X66.515 Y48.89 E50.94611
G1 X66.926 Y48.29 E50.97605
G1 X67.284 Y47.999 E50.99503
G1 X67.819 Y47.729 E51.0197
G1 X68.437 Y47.632 E51.04545
G1 X86.098 Y47.632 E51.77236
G1 X86.87 Y47.81 E51.80497
G1 X87.47 Y48.221 E51.83491
G1 X87.761 Y48.579 E51.8539
G1 X88.031 Y49.114 E51.87856
G1 X88.128 Y49.732 E51.90431
G1 X88.128 Y55.668 E52.14863
