;FLAVOR:Marlin
;TIME:5721
;Filament used: 8.66076m
;Layer height: 0.3
;MINX:35.357
;MINY:48.464
;MINZ:0.15
;MAXX:111.813
;MAXY:100.602
;MAXZ:58.35
;TARGET_MACHINE.NAME:Printrbot Simple
;Generated with Cura_SteamEngine 5.8.1
M82 ;absolute extrusion mode
M106
M109 S245.0
G21;
G90;
M82;
G28
G90
G1 Z3 F150;

G1 Z5.0

G28 X0 Y0 ;move X/Y to min endstops
G29
M109 S245.0
G92 E0.0 ; reset extruder distance position
G1 Z0.4 F200.0
G1 Y-0.2 F500.0 ; go outside print area
G1 X-20.0 E20 F200.0 ; intro line
G92 E0.0 ; reset extruder distance position
G92 E0
M106
M109 S245.0
G21;
G90;
M82;
G28
G90
G1 Z3 F150;

G1 Z5.0

G28 X0 Y0 ;move X/Y to min endstops
G29
M109 S245.0
G92 E0.0 ; reset extruder distance position
G1 Z0.8 F200.0
G1 Y-2.0 F500.0 ; go outside print area
G1 X-20.0 E20 F200.0 ; intro line
G92 E0.0 ; reset extruder distance position
G92 E0
G1 F2400 E-6.5
;LAYER_COUNT:193
;LAYER:0
M107
G1 F1200 Z0.75
G0 F5100 X39.368 Y51.348 Z0.75
;TYPE:SKIRT
G1 F1200 Z0.15
G1 F2400 E0.21619
G1 F1800 X40.732 Y50.35 E0.28576
G1 X41.958 Y49.725 E0.3424
G1 X43.298 Y49.229 E0.40121
G1 X44.776 Y48.894 E0.46358
G1 X45.756 Y48.788 E0.50415
G1 X61.461 Y48.464 E1.1507
G1 X76.907 Y48.772 E1.78658
G1 X78.395 Y48.96 E1.84831
G1 X79.662 Y49.26 E1.9019
G1 X81.336 Y49.993 E1.97711
G1 X82.031 Y50.397 E2.0102
G1 X83.361 Y51.356 E2.07769
G1 X84.556 Y52.576 E2.14798
G1 X85.57 Y54.002 E2.22
G1 X86.261 Y55.443 E2.28578
G1 X86.718 Y56.652 E2.33898
G1 X87.049 Y57.931 E2.39335
G1 X87.049 Y59.39 E2.4534
G1 X87.122 Y63.109 E2.60651
G1 X87.769 Y63.109 E2.63314
G1 X88.368 Y62.365 E2.67245
G1 X89.857 Y61.316 E2.74742
G1 X91.655 Y60.59 E2.82723
G1 X93.273 Y60.427 E2.89416
G1 X95.112 Y60.437 E2.96985
G1 X96.946 Y60.48 E3.04536
G1 X98.085 Y60.678 E3.09295
G1 X99.568 Y61.246 E3.15831
G1 X100.138 Y61.575 E3.1854
G1 X101.377 Y62.583 E3.25114
G1 X101.87 Y63.109 E3.28081
G1 X106.603 Y63.109 E3.47562
G1 X107.909 Y63.41 E3.53078
G1 X108.783 Y63.776 E3.56978
G1 X110.052 Y64.644 E3.63306
G1 X110.935 Y65.783 E3.69238
G1 X111.586 Y67.075 E3.75193
G1 X111.813 Y68.514 E3.81189
G1 X111.813 Y88.706 E4.64298
G1 X111.512 Y90.012 E4.69814
G1 X111.146 Y90.886 E4.73714
G1 X110.278 Y92.155 E4.80043
G1 X109.139 Y93.038 E4.85974
G1 X107.847 Y93.689 E4.91929
G1 X106.408 Y93.916 E4.97925
G1 X86.134 Y93.914 E5.81372
G1 X85.457 Y95.211 E5.87394
G1 X84.79 Y96.168 E5.92195
G1 X83.981 Y97.088 E5.97237
G1 X82.831 Y98.145 E6.03666
G1 X81.216 Y99.122 E6.11435
G1 X80.312 Y99.528 E6.15514
G1 X78.656 Y100.093 E6.22716
G1 X76.832 Y100.286 E6.30265
G1 X61.254 Y100.602 E6.94397
G1 X46.058 Y100.3 E7.56955
G1 X44.353 Y100.113 E7.64015
G1 X43.561 Y99.924 E7.67366
G1 X41.805 Y99.277 E7.75068
G1 X40.735 Y98.724 E7.80026
G1 X39.294 Y97.661 E7.87396
G1 X38.035 Y96.351 E7.94875
G1 X37.032 Y94.815 E8.02425
G1 X36.51 Y93.747 E8.07318
G1 X35.937 Y92.265 E8.13858
G1 X35.674 Y91.068 E8.18902
G1 X35.357 Y74.903 E8.85449
G1 X35.674 Y58.14 E9.54457
G1 X35.806 Y57.133 E9.58637
G1 X36.501 Y55.319 E9.66633
G1 X37.183 Y53.927 E9.73013
G1 X38.167 Y52.554 E9.79965
G1 X38.945 Y51.773 E9.84503
G0 F1620 X39.368 Y51.348
G0 F5100 X39.76 Y51.804
G1 F1800 X41.044 Y50.864 E9.91052
G1 X42.166 Y50.288 E9.96244
G1 X43.506 Y49.792 E10.02125
G1 X44.841 Y49.491 E10.07757
G1 X45.821 Y49.385 E10.11815
G1 X61.449 Y49.064 E10.76152
G1 X76.895 Y49.372 E11.39739
G1 X78.257 Y49.544 E11.4539
G1 X79.469 Y49.831 E11.50516
G1 X81.095 Y50.543 E11.57822
G1 X81.68 Y50.884 E11.60609
G1 X82.968 Y51.813 E11.67146
G1 X84.095 Y52.963 E11.73773
G1 X85.051 Y54.308 E11.80565
G1 X85.7 Y55.657 E11.86727
G1 X86.137 Y56.802 E11.91771
G1 X86.449 Y58.008 E11.96898
G1 X86.449 Y59.39 E12.02586
G1 X86.534 Y63.709 E12.20367
G1 X88.056 Y63.709 E12.26631
G1 X88.781 Y62.808 E12.31391
G1 X90.147 Y61.846 E12.38268
G1 X91.799 Y61.179 E12.45601
G1 X93.27 Y61.027 E12.51687
G1 X95.098 Y61.037 E12.59211
G1 X96.932 Y61.08 E12.66762
G1 X97.925 Y61.259 E12.70915
G1 X99.305 Y61.787 E12.76997
G1 X99.799 Y62.072 E12.79344
G1 X100.998 Y63.048 E12.85707
G1 X101.389 Y63.466 E12.88063
G1 X101.557 Y63.709 E12.89279
G1 X106.533 Y63.709 E13.0976
G1 X107.728 Y63.984 E13.14807
G1 X108.494 Y64.305 E13.18226
G1 X109.635 Y65.086 E13.23917
G1 X110.425 Y66.105 E13.29224
G1 X111.008 Y67.261 E13.34553
G1 X111.213 Y68.563 E13.39978
G1 X111.213 Y88.636 E14.22597
G1 X110.938 Y89.831 E14.27644
G1 X110.617 Y90.597 E14.31062
G1 X109.836 Y91.738 E14.36754
G1 X108.817 Y92.528 E14.4206
G1 X107.661 Y93.111 E14.47389
G1 X106.359 Y93.316 E14.52814
G1 X85.738 Y93.314 E15.37689
G1 X85.631 Y93.58 E15.38869
G1 X84.925 Y94.933 E15.45151
G1 X84.299 Y95.823 E15.49629
G1 X83.575 Y96.646 E15.54141
G1 X82.47 Y97.662 E15.60319
G1 X80.968 Y98.575 E15.67554
G1 X80.118 Y98.96 E15.71395
G1 X78.527 Y99.503 E15.78314
G1 X76.82 Y99.686 E15.8538
G1 X61.266 Y100.002 E16.49413
G1 X46.122 Y99.703 E17.11757
G1 X44.492 Y99.529 E17.18504
G1 X43.7 Y99.34 E17.21855
G1 X42.081 Y98.744 E17.28956
G1 X41.052 Y98.212 E17.33724
G1 X39.693 Y97.21 E17.40674
G1 X38.506 Y95.975 E17.47724
G1 X37.571 Y94.55 E17.54739
G1 X37.07 Y93.53 E17.59416
G1 X36.512 Y92.088 E17.6578
G1 X36.273 Y90.998 E17.70373
G1 X35.957 Y74.914 E18.36587
G1 X36.269 Y58.218 E19.05319
G1 X36.392 Y57.283 E19.092
G1 X37.04 Y55.583 E19.16688
G1 X37.699 Y54.238 E19.22853
G1 X38.63 Y52.939 E19.29431
G1 X39.337 Y52.229 E19.33555
G0 F1620 X39.76 Y51.804
G0 F5100 X40.152 Y52.26
G1 F1800 X41.357 Y51.378 E19.39702
G1 X42.44 Y50.822 E19.44712
G1 X43.713 Y50.355 E19.50293
G1 X44.907 Y50.087 E19.5533
G1 X45.833 Y49.985 E19.59164
G1 X61.437 Y49.664 E20.23403
G1 X76.883 Y49.972 E20.86991
G1 X78.119 Y50.128 E20.92118
G1 X79.276 Y50.402 E20.97012
G1 X80.854 Y51.093 E21.04103
G1 X81.329 Y51.371 E21.06368
G1 X82.578 Y52.272 E21.12707
G1 X83.634 Y53.349 E21.18915
G1 X84.532 Y54.613 E21.25297
G1 X85.139 Y55.871 E21.31046
G1 X85.576 Y57.016 E21.3609
G1 X85.849 Y58.084 E21.40627
G1 X85.849 Y59.39 E21.46003
G1 X85.945 Y64.309 E21.66253
G1 X88.343 Y64.309 E21.76123
G1 X89.195 Y63.25 E21.81717
G1 X90.437 Y62.375 E21.8797
G1 X91.942 Y61.768 E21.9465
G1 X93.267 Y61.627 E22.00134
G1 X95.084 Y61.637 E22.07613
G1 X96.87 Y61.679 E22.14966
G1 X97.766 Y61.84 E22.18713
G1 X99.09 Y62.347 E22.24548
G1 X99.42 Y62.537 E22.26116
G1 X100.619 Y63.513 E22.32479
G1 X100.947 Y63.871 E22.34478
G1 X101.233 Y64.309 E22.36631
G1 X106.463 Y64.309 E22.58157
G1 X107.544 Y64.558 E22.62723
G1 X108.207 Y64.835 E22.6568
G1 X109.22 Y65.529 E22.70734
G1 X109.913 Y66.424 E22.75393
G1 X110.429 Y67.447 E22.80109
G1 X110.613 Y68.613 E22.84968
G1 X110.613 Y88.566 E23.67093
G1 X110.364 Y89.647 E23.71659
G1 X110.087 Y90.31 E23.74617
G1 X109.393 Y91.323 E23.79671
G1 X108.498 Y92.016 E23.8433
G1 X107.475 Y92.532 E23.89045
G1 X106.309 Y92.716 E23.93904
G1 X85.328 Y92.714 E24.80261
G1 X85.099 Y93.302 E24.82858
G1 X84.393 Y94.655 E24.89139
G1 X83.847 Y95.428 E24.93035
G1 X83.169 Y96.204 E24.97276
G1 X82.107 Y97.18 E25.03213
G1 X80.719 Y98.029 E25.0991
G1 X79.924 Y98.392 E25.13507
G1 X78.397 Y98.913 E25.20147
G1 X76.756 Y99.089 E25.2694
G1 X61.278 Y99.402 E25.9066
G1 X46.184 Y99.106 E26.52798
G1 X44.631 Y98.945 E26.59224
G1 X43.839 Y98.756 E26.62576
G1 X42.356 Y98.211 E26.69079
G1 X41.371 Y97.702 E26.73642
G1 X40.092 Y96.759 E26.80183
G1 X38.975 Y95.597 E26.86817
G1 X38.11 Y94.285 E26.93285
G1 X37.609 Y93.265 E26.97962
G1 X37.088 Y91.913 E27.03926
G1 X36.872 Y90.928 E27.08076
G1 X36.557 Y74.925 E27.73957
G1 X36.864 Y58.296 E28.42412
G1 X36.978 Y57.431 E28.46003
G1 X37.579 Y55.847 E28.52977
G1 X38.215 Y54.549 E28.58926
G1 X39.093 Y53.324 E28.65129
G1 X39.729 Y52.685 E28.6884
G0 F1620 X40.152 Y52.26
G0 F5100 X40.541 Y52.719
G1 F1800 X41.673 Y51.89 E28.74615
G1 X42.714 Y51.356 E28.79431
G1 X43.846 Y50.94 E28.84395
G1 X44.974 Y50.683 E28.89156
G1 X45.845 Y50.585 E28.92764
G1 X61.425 Y50.264 E29.56904
G1 X76.871 Y50.572 E30.20491
G1 X77.981 Y50.712 E30.25096
G1 X79.087 Y50.974 E30.29774
G1 X80.553 Y51.612 E30.36355
G1 X80.978 Y51.858 E30.38376
G1 X82.188 Y52.731 E30.44517
G1 X83.173 Y53.735 E30.50307
G1 X84.013 Y54.918 E30.56278
G1 X84.578 Y56.085 E30.61615
G1 X85.015 Y57.23 E30.66659
G1 X85.249 Y58.16 E30.70606
G1 X85.249 Y59.39 E30.75669
G1 X85.357 Y64.909 E30.98389
G1 X88.686 Y64.909 E31.12091
G1 X88.86 Y64.614 E31.13501
G1 X89.609 Y63.692 E31.1839
G1 X90.728 Y62.904 E31.24023
G1 X92.085 Y62.357 E31.30045
G1 X93.331 Y62.224 E31.35203
G1 X95.07 Y62.237 E31.42361
G1 X96.808 Y62.278 E31.49516
G1 X97.609 Y62.422 E31.52866
G1 X98.876 Y62.907 E31.5845
G1 X99.041 Y63.002 E31.59234
G1 X100.24 Y63.978 E31.65597
G1 X100.498 Y64.269 E31.67198
G1 X100.901 Y64.909 E31.70311
G1 X106.393 Y64.909 E31.92915
G1 X107.36 Y65.132 E31.97
G1 X107.92 Y65.366 E31.99498
G1 X108.805 Y65.972 E32.03913
G1 X109.402 Y66.743 E32.07926
G1 X109.851 Y67.633 E32.12029
G1 X110.013 Y68.662 E32.16317
G1 X110.013 Y88.496 E32.97952
G1 X109.79 Y89.463 E33.02037
G1 X109.556 Y90.023 E33.04535
G1 X108.95 Y90.908 E33.0895
G1 X108.179 Y91.505 E33.12963
G1 X107.289 Y91.954 E33.17066
G1 X106.26 Y92.116 E33.21354
G1 X84.914 Y92.114 E34.09212
G1 X84.567 Y93.024 E34.13221
G1 X83.861 Y94.377 E34.19502
G1 X83.394 Y95.035 E34.22823
G1 X82.763 Y95.762 E34.26786
G1 X81.742 Y96.7 E34.32492
G1 X80.468 Y97.484 E34.38649
G1 X79.73 Y97.824 E34.41994
G1 X78.264 Y98.324 E34.48369
G1 X76.744 Y98.489 E34.54662
G1 X61.29 Y98.802 E35.18283
G1 X46.196 Y98.506 E35.80421
G1 X44.77 Y98.361 E35.8632
G1 X43.978 Y98.172 E35.89672
G1 X42.632 Y97.678 E35.95573
G1 X41.688 Y97.19 E35.99947
G1 X40.488 Y96.305 E36.06084
G1 X39.447 Y95.223 E36.12264
G1 X38.649 Y94.02 E36.18206
G1 X38.148 Y93 E36.22883
G1 X37.664 Y91.74 E36.28439
G1 X37.471 Y90.859 E36.32151
G1 X37.157 Y74.936 E36.97702
G1 X37.449 Y59.339 E37.61909
G1 X37.459 Y58.374 E37.65881
G1 X37.564 Y57.577 E37.6919
G1 X38.118 Y56.111 E37.75641
G1 X38.731 Y54.86 E37.81375
G1 X39.556 Y53.709 E37.87203
G1 X40.118 Y53.144 E37.90483
G0 F1620 X40.541 Y52.719
G0 F5100 X40.933 Y53.175
G1 F1800 X41.986 Y52.404 E37.95855
G1 X42.988 Y51.89 E38.0049
G1 X43.981 Y51.525 E38.04845
G1 X45.043 Y51.279 E38.09332
G1 X45.857 Y51.185 E38.12704
G1 X61.413 Y50.864 E38.76745
G1 X76.859 Y51.172 E39.40333
G1 X77.843 Y51.296 E39.44415
G1 X78.896 Y51.545 E39.48869
G1 X80.256 Y52.134 E39.54969
G1 X80.627 Y52.345 E39.56725
G1 X81.798 Y53.19 E39.62669
G1 X82.712 Y54.121 E39.68039
G1 X83.493 Y55.221 E39.73592
G1 X84.017 Y56.299 E39.78525
G1 X84.454 Y57.444 E39.83569
G1 X84.649 Y58.232 E39.86911
G1 X84.649 Y59.39 E39.91677
G1 X84.769 Y65.509 E40.16867
G1 X89.04 Y65.509 E40.34446
G1 X89.326 Y64.992 E40.36878
G1 X90.022 Y64.135 E40.41422
G1 X91.016 Y63.435 E40.46426
G1 X92.232 Y62.945 E40.51822
G1 X93.395 Y62.821 E40.56636
G1 X95.056 Y62.837 E40.63473
G1 X96.746 Y62.877 E40.70431
G1 X97.452 Y63.004 E40.73383
G1 X98.662 Y63.467 E40.78716
G1 X99.861 Y64.443 E40.85079
G1 X99.99 Y64.589 E40.85881
G1 X100.569 Y65.509 E40.90355
G1 X106.323 Y65.509 E41.14038
G1 X107.225 Y65.717 E41.17848
G1 X107.581 Y65.861 E41.19429
G1 X108.388 Y66.414 E41.23456
G1 X108.892 Y67.064 E41.26841
G1 X109.272 Y67.819 E41.3032
G1 X109.413 Y68.712 E41.34041
G1 X109.413 Y88.426 E42.15183
G1 X109.205 Y89.328 E42.18993
G1 X109.061 Y89.684 E42.20573
G1 X108.508 Y90.491 E42.246
G1 X107.858 Y90.995 E42.27985
G1 X107.103 Y91.375 E42.31464
G1 X106.21 Y91.516 E42.35185
G1 X84.5 Y91.514 E43.24542
G1 X84.034 Y92.748 E43.29972
G1 X83.37 Y94.032 E43.35921
G1 X82.939 Y94.644 E43.39002
G1 X82.357 Y95.32 E43.42674
G1 X81.378 Y96.22 E43.48147
G1 X80.215 Y96.94 E43.53777
G1 X79.536 Y97.256 E43.5686
G1 X78.131 Y97.735 E43.62969
G1 X76.732 Y97.889 E43.68762
G1 X61.302 Y98.202 E44.32284
G1 X46.208 Y97.906 E44.94422
G1 X44.909 Y97.777 E44.99795
G1 X44.117 Y97.588 E45.03147
G1 X42.907 Y97.145 E45.0845
G1 X42.007 Y96.68 E45.1262
G1 X40.884 Y95.851 E45.18365
G1 X39.92 Y94.849 E45.24088
G1 X39.188 Y93.755 E45.29506
G1 X38.687 Y92.735 E45.34183
G1 X38.498 Y92.223 E45.3643
G1 X38.239 Y91.562 E45.39352
G1 X38.07 Y90.79 E45.42604
G1 X37.757 Y74.947 E46.07826
G1 X38.049 Y59.35 E46.72033
G1 X38.054 Y58.452 E46.7573
G1 X38.15 Y57.721 E46.78764
G1 X38.657 Y56.375 E46.84684
G1 X39.247 Y55.171 E46.90203
G1 X40.019 Y54.094 E46.95657
G1 X40.51 Y53.6 E46.98524
G0 F1620 X40.933 Y53.175
G0 F5100 X41.329 Y53.628
G1 F1800 X42.299 Y52.918 E47.03471
G1 X43.262 Y52.424 E47.07926
G1 X44.116 Y52.11 E47.11671
G1 X45.178 Y51.864 E47.16158
G1 X45.869 Y51.785 E47.19021
G1 X61.401 Y51.464 E47.82963
G1 X76.847 Y51.772 E48.46551
G1 X77.705 Y51.88 E48.5011
G1 X78.708 Y52.117 E48.54352
G1 X79.959 Y52.656 E48.59959
G1 X80.33 Y52.867 E48.61715
G1 X81.408 Y53.648 E48.67194
G1 X82.251 Y54.507 E48.72148
G1 X82.975 Y55.527 E48.77297
G1 X83.456 Y56.513 E48.81812
G1 X83.893 Y57.658 E48.86856
G1 X84.049 Y58.304 E48.89592
G1 X84.049 Y59.39 E48.94062
G1 X84.181 Y66.109 E49.21722
G1 X89.426 Y66.109 E49.4331
G1 X89.512 Y65.895 E49.44259
G1 X89.826 Y65.328 E49.46927
G1 X90.435 Y64.578 E49.50903
G1 X91.304 Y63.966 E49.55278
G1 X92.381 Y63.532 E49.60057
G1 X93.389 Y63.421 E49.64231
G1 X95.042 Y63.437 E49.71035
G1 X96.684 Y63.476 E49.77796
G1 X97.295 Y63.586 E49.80351
G1 X98.357 Y63.992 E49.85031
G1 X99.482 Y64.908 E49.91002
G1 X99.989 Y65.714 E49.94921
G1 X100.178 Y66.109 E49.96723
G1 X106.253 Y66.109 E50.21728
G1 X107.09 Y66.302 E50.25263
G1 X107.294 Y66.392 E50.26181
G1 X107.971 Y66.856 E50.29559
G1 X108.382 Y67.386 E50.3232
G1 X108.694 Y68.005 E50.35173
G1 X108.813 Y68.761 E50.38323
G1 X108.813 Y88.356 E51.18974
G1 X108.62 Y89.193 E51.2251
G1 X108.53 Y89.397 E51.23428
G1 X108.066 Y90.074 E51.26806
G1 X107.536 Y90.485 E51.29566
G1 X106.917 Y90.797 E51.32419
G1 X106.161 Y90.916 E51.35569
G1 X84.016 Y90.914 E52.26717
G1 X83.926 Y91.345 E52.28529
G1 X83.473 Y92.535 E52.3377
G1 X82.878 Y93.688 E52.3911
G1 X82.482 Y94.255 E52.41957
G1 X81.951 Y94.878 E52.45326
G1 X81.013 Y95.74 E52.5057
G1 X79.899 Y96.43 E52.55963
G1 X79.342 Y96.688 E52.5849
G1 X77.998 Y97.146 E52.64334
G1 X76.72 Y97.289 E52.69627
G1 X61.314 Y97.602 E53.3305
G1 X46.22 Y97.306 E53.95188
G1 X45.045 Y97.193 E54.00047
G1 X44.321 Y97.024 E54.03107
G1 X43.183 Y96.612 E54.08088
G1 X42.324 Y96.168 E54.12068
G1 X41.283 Y95.4 E54.17393
G1 X40.385 Y94.466 E54.22725
G1 X39.727 Y93.49 E54.2757
G1 X39.226 Y92.47 E54.32248
G1 X39.062 Y92.018 E54.34227
G1 X38.814 Y91.384 E54.37029
G1 X38.669 Y90.721 E54.39822
G1 X38.357 Y74.958 E55.04714
G1 X38.649 Y59.361 E55.68922
G1 X38.649 Y58.53 E55.72342
G1 X38.736 Y57.867 E55.75095
G1 X39.196 Y56.639 E55.80492
G1 X39.765 Y55.479 E55.8581
G1 X40.477 Y54.485 E55.90843
G1 X40.906 Y54.053 E55.93348
G0 F1620 X41.329 Y53.628
G0 F5100 X41.722 Y54.084
G1 F1800 X42.615 Y53.43 E55.97904
G1 X43.536 Y52.958 E56.02164
G1 X44.251 Y52.695 E56.05299
G1 X45.313 Y52.449 E56.09786
G1 X45.933 Y52.382 E56.12353
G1 X61.389 Y52.064 E56.75983
G1 X76.835 Y52.372 E57.3957
G1 X77.567 Y52.464 E57.42607
G1 X78.517 Y52.689 E57.46625
G1 X79.662 Y53.178 E57.51749
G1 X80.033 Y53.389 E57.53506
G1 X81.016 Y54.105 E57.58512
G1 X81.787 Y54.891 E57.63043
G1 X82.457 Y55.834 E57.67805
G1 X82.895 Y56.727 E57.71898
G1 X83.332 Y57.872 E57.76943
G1 X83.449 Y58.377 E57.79076
G1 X83.449 Y59.39 E57.83246
G1 X83.593 Y66.709 E58.13376
G1 X89.844 Y66.709 E58.39105
G1 X90.037 Y66.185 E58.41403
G1 X90.324 Y65.666 E58.43844
G1 X90.848 Y65.021 E58.47265
G1 X91.595 Y64.495 E58.51025
G1 X92.527 Y64.119 E58.55162
G1 X93.383 Y64.021 E58.58708
G1 X95.028 Y64.037 E58.65479
G1 X96.67 Y64.076 E58.72239
G1 X97.134 Y64.166 E58.74185
G1 X98.053 Y64.518 E58.78235
G1 X99.027 Y65.311 E58.83405
G1 X99.481 Y66.033 E58.86915
G1 X99.796 Y66.709 E58.89985
G1 X106.183 Y66.709 E59.16273
G1 X106.955 Y66.887 E59.19534
G1 X107.555 Y67.298 E59.22528
G1 X107.846 Y67.656 E59.24427
G1 X108.116 Y68.191 E59.26893
G1 X108.213 Y68.809 E59.29468
G1 X108.213 Y88.286 E60.09634
G1 X108.035 Y89.058 E60.12895
G1 X107.624 Y89.658 E60.15888
G1 X107.266 Y89.949 E60.17787
G1 X106.731 Y90.219 E60.20254
G1 X106.113 Y90.316 E60.22829
G1 X83.467 Y90.314 E61.16038
G1 X83.459 Y90.626 E61.17323
G1 X83.367 Y91.127 E61.19419
G1 X83.113 Y91.778 E61.22296
G1 X82.939 Y92.262 E61.24413
G1 X82.385 Y93.346 E61.29423
G1 X82.025 Y93.866 E61.32026
G1 X81.494 Y94.489 E61.35396
G1 X80.649 Y95.26 E61.40104
